lucascurvello/sagan_workspace/sagan_steering_data.csv
__time,/Sagan/SaganStates/steering_state[0]/angular_position,/Sagan/SaganStates/steering_state[1]/angular_position,/Sagan/SaganStates/steering_state[2]/angular_position,/Sagan/SaganStates/steering_state[3]/angular_position,/Sagan/SaganStates/wheel_state[0]/angular_velocity,/Sagan/SaganStates/wheel_state[1]/angular_velocity,/Sagan/SaganStates/wheel_state[2]/angular_velocity,/Sagan/SaganStates/wheel_state[3]/angular_velocity,/joint_states/LF_stering_arm_joint/effort,/joint_states/LF_stering_arm_joint/position,/joint_states/LF_stering_arm_joint/velocity,/joint_states/LF_wheel_joint/effort,/joint_states/LF_wheel_joint/position,/joint_states/LF_wheel_joint/velocity,/joint_states/LR_stering_arm_joint/effort,/joint_states/LR_stering_arm_joint/position,/joint_states/LR_stering_arm_joint/velocity,/joint_states/LR_wheel_joint/effort,/joint_states/LR_wheel_joint/position,/joint_states/LR_wheel_joint/velocity,/joint_states/Left_arm_joint/effort,/joint_states/Left_arm_joint/position,/joint_states/Left_arm_joint/velocity,/joint_states/RF_stering_arm_joint/effort,/joint_states/RF_stering_arm_joint/position,/joint_states/RF_stering_arm_joint/velocity,/joint_states/RF_wheel_joint/effort,/joint_states/RF_wheel_joint/position,/joint_states/RF_wheel_joint/velocity,/joint_states/RR_stering_arm_joint/effort,/joint_states/RR_stering_arm_joint/position,/joint_states/RR_stering_arm_joint/velocity,/joint_states/RR_wheel_joint/effort,/joint_states/RR_wheel_joint/position,/joint_states/RR_wheel_joint/velocity,/joint_states/Right_arm_joint/effort,/joint_states/Right_arm_joint/position,/joint_states/Right_arm_joint/velocity,/joint_states/base_footprint_joint/effort,/joint_states/base_footprint_joint/position,/joint_states/base_footprint_joint/velocity,/joint_states/header/stamp
1743632677.891611,,,,,,,,,-0.000000000,0.002837822,0.000415582,0.000389143,-0.000000331,0.000000000,-0.000000000,-0.002702605,-0.000395781,0.000216570,-0.000000184,-0.000000000,0.000000000,0.000000000,0.000000000,-0.000000000,0.000721106,0.000105698,-0.000101992,0.000000087,0.000000000,0.000000000,0.006242901,0.000913382,-0.000219972,0.000000187,0.000000000,0.000000000,0.000000000,0.000000000,0.000000000,0.000000000,0.000000000,13.710000000
1743632677.901677,0.000415887,0.000105775,-0.000396071,0.000914048,0.000000000,0.000000000,0.000000000,0.000000000,,,,,,,,,,,,,,,,,,,,,,,,,,,,,,,,,,
1743632677.901757,,,,,,,,,-0.000000000,0.002841979,0.000415887,0.000389143,-0.000000331,0.000000000,-0.000000000,-0.002706565,-0.000396071,0.000216570,-0.000000184,0.000000000,0.000000000,0.000000000,0.000000000,-0.000000000,0.000722163,0.000105775,-0.000101992,0.000000087,0.000000000,-0.000000000,0.006252038,0.000914048,-0.000219972,0.000000187,0.000000000,0.000000000,0.000000000,0.000000000,0.000000000,0.000000000,0.000000000,13.720000000
1743632677.911905,0.000416191,0.000105853,-0.000396361,0.000914715,0.000000000,0.000000000,0.000000000,0.000000000,,,,,,,,,,,,,,,,,,,,,,,,,,,,,,,,,,
1743632677.911986,,,,,,,,,-0.000000000,0.002846140,0.000416192,0.000389143,-0.000000331,0.000000000,-0.000000000,-0.002710527,-0.000396361,0.000216570,-0.000000184,0.000000000,0.000000000,0.000000000,0.000000000,-0.000000000,0.000723221,0.000105853,-0.000101992,0.000000087,0.000000000,0.000000000,0.006261182,0.000914715,-0.000219972,0.000000187,0.000000000,0.000000000,0.000000000,0.000000000,0.000000000,0.000000000,0.000000000,13.730000000
1743632677.922593,0.000416496,0.000105931,-0.000396651,0.000915382,0.000000000,0.000000000,0.000000000,0.000000000,,,,,,,,,,,,,,,,,,,,,,,,,,,,,,,,,,
1743632677.922859,,,,,,,,,-0.000000000,0.002850303,0.000416496,0.000389143,-0.000000331,0.000000000,-0.000000000,-0.002714492,-0.000396651,0.000216570,-0.000000184,0.000000000,0.000000000,0.000000000,0.000000000,-0.000000000,0.000724280,0.000105931,-0.000101992,0.000000087,0.000000000,0.000000000,0.006270333,0.000915382,-0.000219972,0.000000187,0.000000000,0.000000000,0.000000000,0.000000000,0.000000000,0.000000000,0.000000000,13.740000000
1743632677.933380,0.000416801,0.000106009,-0.000396941,0.000916049,0.000000000,0.000000000,0.000000000,0.000000000,,,,,,,,,,,,,,,,,,,,,,,,,,,,,,,,,,
1743632677.933535,,,,,,,,,-0.000000000,0.002854470,0.000416801,0.000389143,-0.000000331,0.000000000,-0.000000000,-0.002718460,-0.000396941,0.000216570,-0.000000184,0.000000000,0.000000000,0.000000000,0.000000000,-0.000000000,0.000725340,0.000106009,-0.000101992,0.000000087,0.000000000,0.000000000,0.006279491,0.000916049,-0.000219972,0.000000187,0.000000000,0.000000000,0.000000000,0.000000000,0.000000000,0.000000000,0.000000000,13.750000000
1743632677.943269,0.000417105,0.000106086,-0.000397231,0.000916716,0.000000000,0.000000000,0.000000000,-0.000000000,,,,,,,,,,,,,,,,,,,,,,,,,,,,,,,,,,
1743632677.943416,,,,,,,,,-0.000000000,0.002858640,0.000417105,0.000389143,-0.000000331,0.000000000,-0.000000000,-0.002722431,-0.000397231,0.000216570,-0.000000184,0.000000000,0.000000000,0.000000000,0.000000000,0.000000000,0.000726401,0.000106086,-0.000101992,0.000000087,0.000000000,-0.000000000,0.006288655,0.000916716,-0.000219972,0.000000187,-0.000000000,0.000000000,0.000000000,0.000000000,0.000000000,0.000000000,0.000000000,13.760000000
1743632677.954017,0.000417410,0.000106164,-0.000397521,0.000917383,0.000000000,0.000000000,0.000000000,0.000000000,,,,,,,,,,,,,,,,,,,,,,,,,,,,,,,,,,
1743632677.954161,,,,,,,,,-0.000000000,0.002862812,0.000417410,0.000389143,-0.000000331,0.000000000,-0.000000000,-0.002726405,-0.000397521,0.000216570,-0.000000184,0.000000000,0.000000000,0.000000000,0.000000000,-0.000000000,0.000727462,0.000106164,-0.000101992,0.000000087,0.000000000,-0.000000000,0.006297826,0.000917383,-0.000219972,0.000000187,0.000000000,0.000000000,0.000000000,0.000000000,0.000000000,0.000000000,0.000000000,13.770000000
1743632677.964466,0.000417714,0.000106242,-0.000397811,0.000918050,0.000000000,-0.000000000,0.000000000,0.000000000,,,,,,,,,,,,,,,,,,,,,,,,,,,,,,,,,,
1743632677.964592,,,,,,,,,-0.000000000,0.002866988,0.000417714,0.000389143,-0.000000331,0.000000000,-0.000000000,-0.002730382,-0.000397811,0.000216570,-0.000000184,0.000000000,0.000000000,0.000000000,0.000000000,-0.000000000,0.000728524,0.000106242,-0.000101992,0.000000087,-0.000000000,0.000000000,0.006307003,0.000918050,-0.000219972,0.000000187,0.000000000,0.000000000,0.000000000,0.000000000,0.000000000,0.000000000,0.000000000,13.780000000
1743632677.975278,0.000418019,0.000106320,-0.000398101,0.000918717,0.000000000,0.000000000,0.000000000,0.000000000,,,,,,,,,,,,,,,,,,,,,,,,,,,,,,,,,,
1743632677.975368,,,,,,,,,-0.000000000,0.002871167,0.000418019,0.000389143,-0.000000331,0.000000000,-0.000000000,-0.002734362,-0.000398101,0.000216570,-0.000000184,0.000000000,0.000000000,0.000000000,0.000000000,0.000000000,0.000729587,0.000106320,-0.000101992,0.000000087,0.000000000,-0.000000000,0.006316187,0.000918717,-0.000219972,0.000000187,0.000000000,0.000000000,0.000000000,0.000000000,0.000000000,0.000000000,0.000000000,13.790000000
1743632677.985657,0.000418324,0.000106397,-0.000398391,0.000919384,0.000000000,0.000000000,0.000000000,0.000000000,,,,,,,,,,,,,,,,,,,,,,,,,,,,,,,,,,
1743632677.985750,,,,,,,,,-0.000000000,0.002875349,0.000418324,0.000389143,-0.000000331,0.000000000,-0.000000000,-0.002738344,-0.000398391,0.000216570,-0.000000184,0.000000000,0.000000000,0.000000000,0.000000000,0.000000000,0.000730650,0.000106397,-0.000101992,0.000000087,0.000000000,0.000000000,0.006325378,0.000919384,-0.000219972,0.000000187,0.000000000,0.000000000,0.000000000,0.000000000,0.000000000,0.000000000,0.000000000,13.800000000
1743632677.995976,0.000418628,0.000106475,-0.000398681,0.000920051,0.000000000,0.000000000,0.000000000,-0.000000000,,,,,,,,,,,,,,,,,,,,,,,,,,,,,,,,,,
1743632677.996075,,,,,,,,,-0.000000000,0.002879534,0.000418628,0.000389143,-0.000000331,0.000000000,-0.000000000,-0.002742330,-0.000398681,0.000216570,-0.000000184,0.000000000,0.000000000,0.000000000,0.000000000,-0.000000000,0.000731715,0.000106475,-0.000101992,0.000000087,0.000000000,0.000000000,0.006334576,0.000920051,-0.000219972,0.000000187,-0.000000000,0.000000000,0.000000000,0.000000000,0.000000000,0.000000000,0.000000000,13.810000000
1743632678.005888,0.000418933,0.000106553,-0.000398971,0.000920717,0.000000000,0.000000000,-0.000000000,-0.000000000,,,,,,,,,,,,,,,,,,,,,,,,,,,,,,,,,,
1743632678.005933,,,,,,,,,-0.000000000,0.002883722,0.000418933,0.000389143,-0.000000331,0.000000000,-0.000000000,-0.002746318,-0.000398971,0.000216570,-0.000000184,-0.000000000,0.000000000,0.000000000,0.000000000,0.000000000,0.000732780,0.000106553,-0.000101992,0.000000087,0.000000000,-0.000000000,0.006343780,0.000920717,-0.000219972,0.000000187,-0.000000000,0.000000000,0.000000000,0.000000000,0.000000000,0.000000000,0.000000000,13.820000000
1743632678.015961,0.000419237,0.000106631,-0.000399262,0.000921384,0.000000000,0.000000000,-0.000000000,0.000000000,,,,,,,,,,,,,,,,,,,,,,,,,,,,,,,,,,
1743632678.016056,,,,,,,,,-0.000000000,0.002887913,0.000419237,0.000389143,-0.000000331,0.000000000,-0.000000000,-0.002750309,-0.000399262,0.000216570,-0.000000184,-0.000000000,0.000000000,0.000000000,0.000000000,0.000000000,0.000733846,0.000106631,-0.000101992,0.000000087,0.000000000,-0.000000000,0.006352991,0.000921384,-0.000219972,0.000000187,0.000000000,0.000000000,0.000000000,0.000000000,0.000000000,0.000000000,0.000000000,13.830000000
1743632678.026126,0.000419542,0.000106708,-0.000399552,0.000922051,0.000000000,0.000000000,0.000000000,0.000000000,,,,,,,,,,,,,,,,,,,,,,,,,,,,,,,,,,
1743632678.026240,,,,,,,,,-0.000000000,0.002892107,0.000419542,0.000389143,-0.000000331,0.000000000,-0.000000000,-0.002754304,-0.000399552,0.000216570,-0.000000184,0.000000000,0.000000000,0.000000000,0.000000000,-0.000000000,0.000734913,0.000106708,-0.000101992,0.000000087,0.000000000,-0.000000000,0.006362208,0.000922051,-0.000219972,0.000000187,0.000000000,0.000000000,0.000000000,0.000000000,0.000000000,0.000000000,0.000000000,13.840000000
1743632678.036476,0.000419847,0.000106786,-0.000399842,0.000922718,0.000000000,0.000000000,0.000000000,0.000000000,,,,,,,,,,,,,,,,,,,,,,,,,,,,,,,,,,
1743632678.036618,,,,,,,,,-0.000000000,0.002896304,0.000419847,0.000389143,-0.000000331,0.000000000,-0.000000000,-0.002758301,-0.000399842,0.000216570,-0.000000184,0.000000000,0.000000000,0.000000000,0.000000000,-0.000000000,0.000735980,0.000106786,-0.000101992,0.000000087,0.000000000,0.000000000,0.006371432,0.000922718,-0.000219972,0.000000187,0.000000000,0.000000000,0.000000000,0.000000000,0.000000000,0.000000000,0.000000000,13.850000000
1743632678.046812,0.000420151,0.000106864,-0.000400132,0.000923385,0.000000000,0.000000000,0.000000000,0.000000000,,,,,,,,,,,,,,,,,,,,,,,,,,,,,,,,,,
1743632678.046946,,,,,,,,,0.000000000,0.002900504,0.000420151,0.000389143,-0.000000331,0.000000000,-0.000000000,-0.002762301,-0.000400132,0.000216570,-0.000000184,0.000000000,0.000000000,0.000000000,0.000000000,-0.000000000,0.000737048,0.000106864,-0.000101992,0.000000087,0.000000000,0.000000000,0.006380663,0.000923385,-0.000219972,0.000000187,0.000000000,0.000000000,0.000000000,0.000000000,0.000000000,0.000000000,0.000000000,13.860000000
1743632678.057349,0.000420456,0.000106942,-0.000400422,0.000924052,0.000000000,0.000000000,0.000000000,0.000000000,,,,,,,,,,,,,,,,,,,,,,,,,,,,,,,,,,
1743632678.057501,,,,,,,,,-0.000000000,0.002904707,0.000420456,0.000389143,-0.000000331,0.000000000,-0.000000000,-0.002766304,-0.000400422,0.000216570,-0.000000184,0.000000000,0.000000000,0.000000000,0.000000000,0.000000000,0.000738117,0.000106942,-0.000101992,0.000000087,0.000000000,0.000000000,0.006389901,0.000924052,-0.000219972,0.000000187,0.000000000,0.000000000,0.000000000,0.000000000,0.000000000,0.000000000,0.000000000,13.870000000
1743632678.068122,0.000420760,0.000107020,-0.000400712,0.000924719,0.000000000,0.000000000,0.000000000,0.000000000,,,,,,,,,,,,,,,,,,,,,,,,,,,,,,,,,,
1743632678.068286,,,,,,,,,-0.000000000,0.002908913,0.000420760,0.000389143,-0.000000331,0.000000000,-0.000000000,-0.002770309,-0.000400712,0.000216570,-0.000000184,0.000000000,0.000000000,0.000000000,0.000000000,-0.000000000,0.000739187,0.000107020,-0.000101992,0.000000087,0.000000000,-0.000000000,0.006399145,0.000924719,-0.000219972,0.000000187,0.000000000,0.000000000,0.000000000,0.000000000,0.000000000,0.000000000,0.000000000,13.880000000
1743632678.078077,0.000421065,0.000107097,-0.000401002,0.000925385,-0.000000000,0.000000000,0.000000000,0.000000000,,,,,,,,,,,,,,,,,,,,,,,,,,,,,,,,,,
1743632678.078244,,,,,,,,,-0.000000000,0.002913123,0.000421065,0.000389143,-0.000000331,-0.000000000,-0.000000000,-0.002774318,-0.000401002,0.000216570,-0.000000184,0.000000000,0.000000000,0.000000000,0.000000000,-0.000000000,0.000740258,0.000107097,-0.000101992,0.000000087,0.000000000,0.000000000,0.006408396,0.000925385,-0.000219972,0.000000187,0.000000000,0.000000000,0.000000000,0.000000000,0.000000000,0.000000000,0.000000000,13.890000000
1743632678.088369,0.000421370,0.000107175,-0.000401292,0.000926052,-0.000000000,0.000000000,0.000000000,-0.000000000,,,,,,,,,,,,,,,,,,,,,,,,,,,,,,,,,,
1743632678.088541,,,,,,,,,0.000000000,0.002917335,0.000421370,0.000389143,-0.000000331,-0.000000000,-0.000000000,-0.002778330,-0.000401292,0.000216570,-0.000000184,0.000000000,0.000000000,0.000000000,0.000000000,-0.000000000,0.000741329,0.000107175,-0.000101992,0.000000087,0.000000000,0.000000000,0.006417653,0.000926052,-0.000219972,0.000000187,-0.000000000,0.000000000,0.000000000,0.000000000,0.000000000,0.000000000,0.000000000,13.900000000
1743632678.098837,0.000421674,0.000107253,-0.000401582,0.000926719,0.000000000,0.000000000,0.000000000,0.000000000,,,,,,,,,,,,,,,,,,,,,,,,,,,,,,,,,,
1743632678.099148,,,,,,,,,-0.000000000,0.002921550,0.000421674,0.000389143,-0.000000331,0.000000000,-0.000000000,-0.002782344,-0.000401582,0.000216570,-0.000000184,0.000000000,0.000000000,0.000000000,0.000000000,0.000000000,0.000742402,0.000107253,-0.000101992,0.000000087,0.000000000,0.000000000,0.006426917,0.000926719,-0.000219972,0.000000187,0.000000000,0.000000000,0.000000000,0.000000000,0.000000000,0.000000000,0.000000000,13.910000000
1743632678.108901,0.000421979,0.000107331,-0.000401872,0.000927386,0.000000000,0.000000000,-0.000000000,0.000000000,,,,,,,,,,,,,,,,,,,,,,,,,,,,,,,,,,
1743632678.109082,,,,,,,,,0.000000000,0.002925769,0.000421979,0.000389143,-0.000000331,0.000000000,-0.000000000,-0.002786362,-0.000401872,0.000216570,-0.000000184,-0.000000000,0.000000000,0.000000000,0.000000000,-0.000000000,0.000743474,0.000107331,-0.000101992,0.000000087,0.000000000,-0.000000000,0.006436188,0.000927386,-0.000219972,0.000000187,0.000000000,0.000000000,0.000000000,0.000000000,0.000000000,0.000000000,0.000000000,13.920000000
1743632678.120111,0.000422283,0.000107408,-0.000402162,0.000928053,0.000000000,0.000000000,-0.000000000,0.000000000,,,,,,,,,,,,,,,,,,,,,,,,,,,,,,,,,,
1743632678.120256,,,,,,,,,-0.000000000,0.002929990,0.000422283,0.000389143,-0.000000331,0.000000000,-0.000000000,-0.002790382,-0.000402162,0.000216570,-0.000000184,-0.000000000,0.000000000,0.000000000,0.000000000,-0.000000000,0.000744548,0.000107408,-0.000101992,0.000000087,0.000000000,-0.000000000,0.006445466,0.000928053,-0.000219972,0.000000187,0.000000000,0.000000000,0.000000000,0.000000000,0.000000000,0.000000000,0.000000000,13.930000000
1743632678.130858,0.000422588,0.000107486,-0.000402452,0.000928720,0.000000000,0.000000000,-0.000000000,0.000000000,,,,,,,,,,,,,,,,,,,,,,,,,,,,,,,,,,
1743632678.131041,,,,,,,,,-0.000000000,0.002934215,0.000422588,0.000389143,-0.000000331,0.000000000,-0.000000000,-0.002794405,-0.000402452,0.000216570,-0.000000184,-0.000000000,0.000000000,0.000000000,0.000000000,-0.000000000,0.000745623,0.000107486,-0.000101992,0.000000087,0.000000000,-0.000000000,0.006454750,0.000928720,-0.000219972,0.000000187,0.000000000,0.000000000,0.000000000,0.000000000,0.000000000,0.000000000,0.000000000,13.940000000
1743632678.140758,0.000422893,0.000107564,-0.000402743,0.000929386,0.000000000,0.000000000,0.000000000,0.000000000,,,,,,,,,,,,,,,,,,,,,,,,,,,,,,,,,,
1743632678.140902,,,,,,,,,-0.000000000,0.002938442,0.000422893,0.000389143,-0.000000331,0.000000000,-0.000000000,-0.002798431,-0.000402743,0.000216570,-0.000000184,0.000000000,0.000000000,0.000000000,0.000000000,-0.000000000,0.000746698,0.000107564,-0.000101992,0.000000087,0.000000000,-0.000000000,0.006464041,0.000929386,-0.000219972,0.000000187,0.000000000,0.000000000,0.000000000,0.000000000,0.000000000,0.000000000,0.000000000,13.950000000
1743632678.151217,0.000423197,0.000107642,-0.000403033,0.000930053,0.000000000,0.000000000,0.000000000,0.000000000,,,,,,,,,,,,,,,,,,,,,,,,,,,,,,,,,,
1743632678.151363,,,,,,,,,-0.000000000,0.002942673,0.000423197,0.000389143,-0.000000331,0.000000000,-0.000000000,-0.002802460,-0.000403033,0.000216570,-0.000000184,0.000000000,0.000000000,0.000000000,0.000000000,0.000000000,0.000747774,0.000107642,-0.000101992,0.000000087,0.000000000,-0.000000000,0.006473338,0.000930053,-0.000219972,0.000000187,0.000000000,0.000000000,0.000000000,0.000000000,0.000000000,0.000000000,0.000000000,13.960000000
1743632678.161220,0.000423502,0.000107719,-0.000403323,0.000930720,0.000000000,0.000000000,0.000000000,0.000000000,,,,,,,,,,,,,,,,,,,,,,,,,,,,,,,,,,
1743632678.161380,,,,,,,,,-0.000000000,0.002946906,0.000423502,0.000389143,-0.000000331,0.000000000,-0.000000000,-0.002806492,-0.000403323,0.000216570,-0.000000184,0.000000000,0.000000000,0.000000000,0.000000000,0.000000000,0.000748851,0.000107719,-0.000101992,0.000000087,0.000000000,-0.000000000,0.006482643,0.000930720,-0.000219972,0.000000187,0.000000000,0.000000000,0.000000000,0.000000000,0.000000000,0.000000000,0.000000000,13.970000000
1743632678.171508,0.000423806,0.000107797,-0.000403613,0.000931387,0.000000000,0.000000000,0.000000000,0.000000000,,,,,,,,,,,,,,,,,,,,,,,,,,,,,,,,,,
1743632678.171675,,,,,,,,,-0.000000000,0.002951143,0.000423806,0.000389143,-0.000000331,0.000000000,-0.000000000,-0.002810527,-0.000403613,0.000216570,-0.000000184,0.000000000,0.000000000,0.000000000,0.000000000,-0.000000000,0.000749929,0.000107797,-0.000101992,0.000000087,0.000000000,-0.000000000,0.006491953,0.000931387,-0.000219972,0.000000187,0.000000000,0.000000000,0.000000000,0.000000000,0.000000000,0.000000000,0.000000000,13.980000000
1743632678.182031,0.000424111,0.000107875,-0.000403903,0.000932054,0.000000000,0.000000000,0.000000000,0.000000000,,,,,,,,,,,,,,,,,,,,,,,,,,,,,,,,,,
1743632678.182181,,,,,,,,,-0.000000000,0.002955383,0.000424111,0.000389143,-0.000000331,0.000000000,-0.000000000,-0.002814565,-0.000403903,0.000216570,-0.000000184,0.000000000,0.000000000,0.000000000,0.000000000,0.000000000,0.000751007,0.000107875,-0.000101992,0.000000087,0.000000000,0.000000000,0.006501271,0.000932054,-0.000219972,0.000000187,0.000000000,0.000000000,0.000000000,0.000000000,0.000000000,0.000000000,0.000000000,13.990000000
1743632678.191986,0.000424416,0.000107953,-0.000404193,0.000932720,0.000000000,0.000000000,0.000000000,0.000000000,,,,,,,,,,,,,,,,,,,,,,,,,,,,,,,,,,
1743632678.192099,,,,,,,,,-0.000000000,0.002959626,0.000424416,0.000389143,-0.000000331,0.000000000,-0.000000000,-0.002818605,-0.000404193,0.000216570,-0.000000184,0.000000000,0.000000000,0.000000000,0.000000000,0.000000000,0.000752086,0.000107953,-0.000101992,0.000000087,0.000000000,0.000000000,0.006510595,0.000932721,-0.000219972,0.000000187,0.000000000,0.000000000,0.000000000,0.000000000,0.000000000,0.000000000,0.000000000,14.000000000
1743632678.202995,0.000424720,0.000108030,-0.000404483,0.000933387,0.000000000,0.000000000,0.000000000,0.000000000,,,,,,,,,,,,,,,,,,,,,,,,,,,,,,,,,,
1743632678.203167,,,,,,,,,-0.000000000,0.002963871,0.000424720,0.000389143,-0.000000331,0.000000000,-0.000000000,-0.002822649,-0.000404483,0.000216570,-0.000000184,0.000000000,0.000000000,0.000000000,0.000000000,-0.000000000,0.000753166,0.000108030,-0.000101992,0.000000087,0.000000000,0.000000000,0.006519926,0.000933387,-0.000219972,0.000000187,0.000000000,0.000000000,0.000000000,0.000000000,0.000000000,0.000000000,0.000000000,14.009000000
1743632678.212925,0.000425025,0.000108108,-0.000404773,0.000934054,0.000000000,0.000000000,0.000000000,-0.000000000,,,,,,,,,,,,,,,,,,,,,,,,,,,,,,,,,,
1743632678.213085,,,,,,,,,-0.000000000,0.002968120,0.000425025,0.000389143,-0.000000331,0.000000000,-0.000000000,-0.002826695,-0.000404773,0.000216570,-0.000000184,0.000000000,0.000000000,0.000000000,0.000000000,-0.000000000,0.000754247,0.000108108,-0.000101992,0.000000087,0.000000000,-0.000000000,0.006529264,0.000934054,-0.000219972,0.000000187,-0.000000000,0.000000000,0.000000000,0.000000000,0.000000000,0.000000000,0.000000000,14.020000000
1743632678.223485,0.000425329,0.000108186,-0.000405063,0.000934721,0.000000000,0.000000000,0.000000000,-0.000000000,,,,,,,,,,,,,,,,,,,,,,,,,,,,,,,,,,
1743632678.223615,,,,,,,,,-0.000000000,0.002972372,0.000425329,0.000389143,-0.000000331,0.000000000,-0.000000000,-0.002830745,-0.000405063,0.000216570,-0.000000184,0.000000000,0.000000000,0.000000000,0.000000000,-0.000000000,0.000755328,0.000108186,-0.000101992,0.000000087,0.000000000,-0.000000000,0.006538608,0.000934721,-0.000219972,0.000000187,-0.000000000,0.000000000,0.000000000,0.000000000,0.000000000,0.000000000,0.000000000,14.030000000
1743632678.233905,0.000425634,0.000108264,-0.000405353,0.000935388,0.000000000,0.000000000,0.000000000,0.000000000,,,,,,,,,,,,,,,,,,,,,,,,,,,,,,,,,,
1743632678.234064,,,,,,,,,-0.000000000,0.002976627,0.000425634,0.000389143,-0.000000331,0.000000000,-0.000000000,-0.002834797,-0.000405353,0.000216570,-0.000000184,0.000000000,0.000000000,0.000000000,0.000000000,0.000000000,0.000756411,0.000108264,-0.000101992,0.000000087,0.000000000,-0.000000000,0.006547959,0.000935388,-0.000219972,0.000000187,0.000000000,0.000000000,0.000000000,0.000000000,0.000000000,0.000000000,0.000000000,14.040000000
1743632678.244013,0.000425939,0.000108342,-0.000405643,0.000936054,0.000000000,0.000000000,-0.000000000,0.000000000,,,,,,,,,,,,,,,,,,,,,,,,,,,,,,,,,,
1743632678.244185,,,,,,,,,-0.000000000,0.002980885,0.000425939,0.000389143,-0.000000331,0.000000000,-0.000000000,-0.002838852,-0.000405643,0.000216570,-0.000000184,-0.000000000,0.000000000,0.000000000,0.000000000,0.000000000,0.000757494,0.000108342,-0.000101992,0.000000087,0.000000000,0.000000000,0.006557316,0.000936054,-0.000219972,0.000000187,0.000000000,0.000000000,0.000000000,0.000000000,0.000000000,0.000000000,0.000000000,14.050000000
1743632678.254453,0.000426243,0.000108419,-0.000405934,0.000936721,0.000000000,0.000000000,-0.000000000,0.000000000,,,,,,,,,,,,,,,,,,,,,,,,,,,,,,,,,,
1743632678.254583,,,,,,,,,-0.000000000,0.002985146,0.000426243,0.000389143,-0.000000331,0.000000000,-0.000000000,-0.002842910,-0.000405934,0.000216570,-0.000000184,-0.000000000,0.000000000,0.000000000,0.000000000,-0.000000000,0.000758578,0.000108419,-0.000101992,0.000000087,0.000000000,0.000000000,0.006566680,0.000936721,-0.000219972,0.000000187,0.000000000,0.000000000,0.000000000,0.000000000,0.000000000,0.000000000,0.000000000,14.060000000
1743632678.264776,0.000426548,0.000108497,-0.000406224,0.000937388,0.000000000,0.000000000,-0.000000000,-0.000000000,,,,,,,,,,,,,,,,,,,,,,,,,,,,,,,,,,
1743632678.264920,,,,,,,,,-0.000000000,0.002989410,0.000426548,0.000389143,-0.000000331,0.000000000,-0.000000000,-0.002846971,-0.000406224,0.000216570,-0.000000184,-0.000000000,0.000000000,0.000000000,0.000000000,-0.000000000,0.000759662,0.000108497,-0.000101992,0.000000087,0.000000000,-0.000000000,0.006576051,0.000937388,-0.000219972,0.000000187,-0.000000000,0.000000000,0.000000000,0.000000000,0.000000000,0.000000000,0.000000000,14.070000000
1743632678.275037,0.000426852,0.000108575,-0.000406514,0.000938055,0.000000000,0.000000000,0.000000000,-0.000000000,,,,,,,,,,,,,,,,,,,,,,,,,,,,,,,,,,
1743632678.275198,,,,,,,,,-0.000000000,0.002993678,0.000426852,0.000389143,-0.000000331,0.000000000,-0.000000000,-0.002851035,-0.000406514,0.000216570,-0.000000184,0.000000000,0.000000000,0.000000000,0.000000000,-0.000000000,0.000760748,0.000108575,-0.000101992,0.000000087,0.000000000,-0.000000000,0.006585429,0.000938055,-0.000219972,0.000000187,-0.000000000,0.000000000,0.000000000,0.000000000,0.000000000,0.000000000,0.000000000,14.080000000
1743632678.285508,0.000427157,0.000108653,-0.000406804,0.000938722,0.000000000,0.000000000,0.000000000,0.000000000,,,,,,,,,,,,,,,,,,,,,,,,,,,,,,,,,,
1743632678.286191,,,,,,,,,-0.000000000,0.002997948,0.000427157,0.000389143,-0.000000331,0.000000000,-0.000000000,-0.002855102,-0.000406804,0.000216570,-0.000000184,0.000000000,0.000000000,0.000000000,0.000000000,-0.000000000,0.000761834,0.000108653,-0.000101992,0.000000087,0.000000000,-0.000000000,0.006594813,0.000938722,-0.000219972,0.000000187,0.000000000,0.000000000,0.000000000,0.000000000,0.000000000,0.000000000,0.000000000,14.090000000
1743632678.295527,0.000427462,0.000108730,-0.000407094,0.000939388,0.000000000,0.000000000,0.000000000,0.000000000,,,,,,,,,,,,,,,,,,,,,,,,,,,,,,,,,,
1743632678.295682,,,,,,,,,-0.000000000,0.003002221,0.000427462,0.000389143,-0.000000331,0.000000000,-0.000000000,-0.002859171,-0.000407094,0.000216570,-0.000000184,0.000000000,0.000000000,0.000000000,0.000000000,-0.000000000,0.000762921,0.000108730,-0.000101992,0.000000087,0.000000000,0.000000000,0.006604204,0.000939388,-0.000219972,0.000000187,0.000000000,0.000000000,0.000000000,0.000000000,0.000000000,0.000000000,0.000000000,14.100000000
1743632678.305997,0.000427766,0.000108808,-0.000407384,0.000940055,0.000000000,0.000000000,0.000000000,0.000000000,,,,,,,,,,,,,,,,,,,,,,,,,,,,,,,,,,
1743632678.306117,,,,,,,,,-0.000000000,0.003006497,0.000427766,0.000389143,-0.000000331,0.000000000,-0.000000000,-0.002863244,-0.000407384,0.000216570,-0.000000184,0.000000000,0.000000000,0.000000000,0.000000000,-0.000000000,0.000764008,0.000108808,-0.000101992,0.000000087,0.000000000,0.000000000,0.006613601,0.000940055,-0.000219972,0.000000187,0.000000000,0.000000000,0.000000000,0.000000000,0.000000000,0.000000000,0.000000000,14.110000000
1743632678.316426,0.000428071,0.000108886,-0.000407674,0.000940722,0.000000000,0.000000000,0.000000000,0.000000000,,,,,,,,,,,,,,,,,,,,,,,,,,,,,,,,,,
1743632678.316590,,,,,,,,,-0.000000000,0.003010777,0.000428071,0.000389143,-0.000000331,0.000000000,-0.000000000,-0.002867319,-0.000407674,0.000216570,-0.000000184,0.000000000,0.000000000,0.000000000,0.000000000,-0.000000000,0.000765097,0.000108886,-0.000101992,0.000000087,0.000000000,-0.000000000,0.006623006,0.000940722,-0.000219972,0.000000187,0.000000000,0.000000000,0.000000000,0.000000000,0.000000000,0.000000000,0.000000000,14.120000000
1743632678.327091,0.000428375,0.000108964,-0.000407964,0.000941389,0.000000000,0.000000000,-0.000000000,0.000000000,,,,,,,,,,,,,,,,,,,,,,,,,,,,,,,,,,
1743632678.327238,,,,,,,,,-0.000000000,0.003015059,0.000428375,0.000389143,-0.000000331,0.000000000,-0.000000000,-0.002871398,-0.000407964,0.000216570,-0.000000184,-0.000000000,0.000000000,0.000000000,0.000000000,-0.000000000,0.000766186,0.000108964,-0.000101992,0.000000087,0.000000000,-0.000000000,0.006632417,0.000941389,-0.000219972,0.000000187,0.000000000,0.000000000,0.000000000,0.000000000,0.000000000,0.000000000,0.000000000,14.130000000
1743632678.337308,0.000428680,0.000109042,-0.000408254,0.000942055,0.000000000,0.000000000,0.000000000,0.000000000,,,,,,,,,,,,,,,,,,,,,,,,,,,,,,,,,,
1743632678.337439,,,,,,,,,-0.000000000,0.003019344,0.000428680,0.000389143,-0.000000331,0.000000000,-0.000000000,-0.002875479,-0.000408254,0.000216570,-0.000000184,0.000000000,0.000000000,0.000000000,0.000000000,-0.000000000,0.000767276,0.000109042,-0.000101992,0.000000087,0.000000000,-0.000000000,0.006641834,0.000942055,-0.000219972,0.000000187,0.000000000,0.000000000,0.000000000,0.000000000,0.000000000,0.000000000,0.000000000,14.140000000
1743632678.347982,0.000428985,0.000109119,-0.000408544,0.000942722,0.000000000,-0.000000000,0.000000000,0.000000000,,,,,,,,,,,,,,,,,,,,,,,,,,,,,,,,,,
1743632678.348123,,,,,,,,,-0.000000000,0.003023633,0.000428985,0.000389143,-0.000000331,0.000000000,-0.000000000,-0.002879563,-0.000408544,0.000216570,-0.000000184,0.000000000,0.000000000,0.000000000,0.000000000,-0.000000000,0.000768367,0.000109119,-0.000101992,0.000000087,-0.000000000,-0.000000000,0.006651258,0.000942722,-0.000219972,0.000000187,0.000000000,0.000000000,0.000000000,0.000000000,0.000000000,0.000000000,0.000000000,14.150000000
1743632678.357964,0.000429289,0.000109197,-0.000408835,0.000943389,0.000000000,0.000000000,0.000000000,-0.000000000,,,,,,,,,,,,,,,,,,,,,,,,,,,,,,,,,,
1743632678.358067,,,,,,,,,-0.000000000,0.003027924,0.000429289,0.000389143,-0.000000331,0.000000000,-0.000000000,-0.002883650,-0.000408835,0.000216570,-0.000000184,0.000000000,0.000000000,0.000000000,0.000000000,0.000000000,0.000769459,0.000109197,-0.000101992,0.000000087,0.000000000,0.000000000,0.006660689,0.000943389,-0.000219972,0.000000187,-0.000000000,0.000000000,0.000000000,0.000000000,0.000000000,0.000000000,0.000000000,14.160000000
1743632678.368558,0.000429594,0.000109275,-0.000409125,0.000944056,0.000000000,0.000000000,0.000000000,-0.000000000,,,,,,,,,,,,,,,,,,,,,,,,,,,,,,,,,,
1743632678.368678,,,,,,,,,-0.000000000,0.003032219,0.000429594,0.000389143,-0.000000331,0.000000000,-0.000000000,-0.002887740,-0.000409125,0.000216570,-0.000000184,0.000000000,0.000000000,0.000000000,0.000000000,-0.000000000,0.000770551,0.000109275,-0.000101992,0.000000087,0.000000000,-0.000000000,0.006670127,0.000944056,-0.000219972,0.000000187,-0.000000000,0.000000000,0.000000000,0.000000000,0.000000000,0.000000000,0.000000000,14.170000000
1743632678.378675,0.000429899,0.000109353,-0.000409415,0.000944722,0.000000000,0.000000000,0.000000000,-0.000000000,,,,,,,,,,,,,,,,,,,,,,,,,,,,,,,,,,
1743632678.378827,,,,,,,,,-0.000000000,0.003036517,0.000429899,0.000389143,-0.000000331,0.000000000,-0.000000000,-0.002891833,-0.000409415,0.000216570,-0.000000184,0.000000000,0.000000000,0.000000000,0.000000000,-0.000000000,0.000771644,0.000109353,-0.000101992,0.000000087,0.000000000,-0.000000000,0.006679571,0.000944722,-0.000219972,0.000000187,-0.000000000,0.000000000,0.000000000,0.000000000,0.000000000,0.000000000,0.000000000,14.180000000
1743632678.389431,0.000430203,0.000109431,-0.000409705,0.000945389,0.000000000,0.000000000,0.000000000,0.000000000,,,,,,,,,,,,,,,,,,,,,,,,,,,,,,,,,,
1743632678.389552,,,,,,,,,-0.000000000,0.003040817,0.000430203,0.000389143,-0.000000331,0.000000000,-0.000000000,-0.002895929,-0.000409705,0.000216570,-0.000000184,0.000000000,0.000000000,0.000000000,0.000000000,-0.000000000,0.000772738,0.000109431,-0.000101992,0.000000087,0.000000000,-0.000000000,0.006689022,0.000945389,-0.000219972,0.000000187,0.000000000,0.000000000,0.000000000,0.000000000,0.000000000,0.000000000,0.000000000,14.190000000
1743632678.399853,0.000430508,0.000109508,-0.000409995,0.000946056,0.000000000,0.000000000,0.000000000,0.000000000,,,,,,,,,,,,,,,,,,,,,,,,,,,,,,,,,,
1743632678.400007,,,,,,,,,-0.000000000,0.003045121,0.000430508,0.000389143,-0.000000331,0.000000000,-0.000000000,-0.002900027,-0.000409995,0.000216570,-0.000000184,0.000000000,0.000000000,0.000000000,0.000000000,-0.000000000,0.000773833,0.000109508,-0.000101992,0.000000087,0.000000000,-0.000000000,0.006698479,0.000946056,-0.000219972,0.000000187,0.000000000,0.000000000,0.000000000,0.000000000,0.000000000,0.000000000,0.000000000,14.200000000
1743632678.410331,0.000430812,0.000109586,-0.000410285,0.000946723,0.000000000,0.000000000,0.000000000,0.000000000,,,,,,,,,,,,,,,,,,,,,,,,,,,,,,,,,,
1743632678.410489,,,,,,,,,-0.000000000,0.003049428,0.000430812,0.000389143,-0.000000331,0.000000000,-0.000000000,-0.002904129,-0.000410285,0.000216570,-0.000000184,0.000000000,0.000000000,0.000000000,0.000000000,-0.000000000,0.000774929,0.000109586,-0.000101992,0.000000087,0.000000000,-0.000000000,0.006707944,0.000946723,-0.000219972,0.000000187,0.000000000,0.000000000,0.000000000,0.000000000,0.000000000,0.000000000,0.000000000,14.210000000
1743632678.420892,0.000431117,0.000109664,-0.000410575,0.000947389,0.000000000,0.000000000,0.000000000,0.000000000,,,,,,,,,,,,,,,,,,,,,,,,,,,,,,,,,,
1743632678.421013,,,,,,,,,-0.000000000,0.003053738,0.000431117,0.000389143,-0.000000331,0.000000000,-0.000000000,-0.002908233,-0.000410575,0.000216570,-0.000000184,0.000000000,0.000000000,0.000000000,0.000000000,-0.000000000,0.000776025,0.000109664,-0.000101992,0.000000087,0.000000000,-0.000000000,0.006717415,0.000947389,-0.000219972,0.000000187,0.000000000,0.000000000,0.000000000,0.000000000,0.000000000,0.000000000,0.000000000,14.220000000
1743632678.431327,0.000431422,0.000109742,-0.000410865,0.000948056,0.000000000,0.000000000,-0.000000000,0.000000000,,,,,,,,,,,,,,,,,,,,,,,,,,,,,,,,,,
1743632678.431449,,,,,,,,,-0.000000000,0.003058050,0.000431422,0.000389143,-0.000000331,0.000000000,-0.000000000,-0.002912341,-0.000410865,0.000216570,-0.000000184,-0.000000000,0.000000000,0.000000000,0.000000000,-0.000000000,0.000777122,0.000109742,-0.000101992,0.000000087,0.000000000,-0.000000000,0.006726892,0.000948056,-0.000219972,0.000000187,0.000000000,0.000000000,0.000000000,0.000000000,0.000000000,0.000000000,0.000000000,14.230000000
1743632678.441630,0.000431726,0.000109819,-0.000411155,0.000948723,0.000000000,0.000000000,0.000000000,0.000000000,,,,,,,,,,,,,,,,,,,,,,,,,,,,,,,,,,
1743632678.441787,,,,,,,,,0.000000000,0.003062366,0.000431726,0.000389143,-0.000000331,0.000000000,-0.000000000,-0.002916451,-0.000411155,0.000216570,-0.000000184,0.000000000,0.000000000,0.000000000,0.000000000,0.000000000,0.000778220,0.000109819,-0.000101992,0.000000087,0.000000000,0.000000000,0.006736376,0.000948723,-0.000219972,0.000000187,0.000000000,0.000000000,0.000000000,0.000000000,0.000000000,0.000000000,0.000000000,14.240000000
1743632678.452843,0.000432031,0.000109897,-0.000411445,0.000949389,0.000000000,0.000000000,0.000000000,0.000000000,,,,,,,,,,,,,,,,,,,,,,,,,,,,,,,,,,
1743632678.452979,,,,,,,,,-0.000000000,0.003066685,0.000432031,0.000389143,-0.000000331,0.000000000,-0.000000000,-0.002920564,-0.000411445,0.000216570,-0.000000184,0.000000000,0.000000000,0.000000000,0.000000000,-0.000000000,0.000779318,0.000109897,-0.000101992,0.000000087,0.000000000,-0.000000000,0.006745867,0.000949389,-0.000219972,0.000000187,0.000000000,0.000000000,0.000000000,0.000000000,0.000000000,0.000000000,0.000000000,14.250000000
1743632678.462651,0.000432336,0.000109975,-0.000411736,0.000950056,0.000000000,0.000000000,0.000000000,0.000000000,,,,,,,,,,,,,,,,,,,,,,,,,,,,,,,,,,
1743632678.462845,,,,,,,,,-0.000000000,0.003071007,0.000432336,0.000389143,-0.000000331,0.000000000,-0.000000000,-0.002924680,-0.000411736,0.000216570,-0.000000184,0.000000000,0.000000000,0.000000000,0.000000000,-0.000000000,0.000780418,0.000109975,-0.000101992,0.000000087,0.000000000,-0.000000000,0.006755365,0.000950056,-0.000219972,0.000000187,0.000000000,0.000000000,0.000000000,0.000000000,0.000000000,0.000000000,0.000000000,14.260000000
1743632678.472968,0.000432640,0.000110053,-0.000412026,0.000950723,0.000000000,0.000000000,0.000000000,0.000000000,,,,,,,,,,,,,,,,,,,,,,,,,,,,,,,,,,
1743632678.473059,,,,,,,,,-0.000000000,0.003075332,0.000432640,0.000389143,-0.000000331,0.000000000,-0.000000000,-0.002928799,-0.000412026,0.000216570,-0.000000184,0.000000000,0.000000000,0.000000000,0.000000000,-0.000000000,0.000781518,0.000110053,-0.000101992,0.000000087,0.000000000,-0.000000000,0.006764869,0.000950723,-0.000219972,0.000000187,0.000000000,0.000000000,0.000000000,0.000000000,0.000000000,0.000000000,0.000000000,14.270000000
1743632678.482835,0.000432945,0.000110131,-0.000412316,0.000951389,0.000000000,0.000000000,-0.000000000,0.000000000,,,,,,,,,,,,,,,,,,,,,,,,,,,,,,,,,,
1743632678.482897,,,,,,,,,-0.000000000,0.003079660,0.000432945,0.000389143,-0.000000331,0.000000000,-0.000000000,-0.002932921,-0.000412316,0.000216570,-0.000000184,-0.000000000,0.000000000,0.000000000,0.000000000,-0.000000000,0.000782619,0.000110131,-0.000101992,0.000000087,0.000000000,0.000000000,0.006774380,0.000951389,-0.000219972,0.000000187,0.000000000,0.000000000,0.000000000,0.000000000,0.000000000,0.000000000,0.000000000,14.280000000
1743632678.492834,0.000433249,0.000110208,-0.000412606,0.000952056,0.000000000,-0.000000000,0.000000000,0.000000000,,,,,,,,,,,,,,,,,,,,,,,,,,,,,,,,,,
1743632678.492889,,,,,,,,,-0.000000000,0.003083991,0.000433249,0.000389143,-0.000000331,0.000000000,-0.000000000,-0.002937046,-0.000412606,0.000216570,-0.000000184,0.000000000,0.000000000,0.000000000,0.000000000,0.000000000,0.000783721,0.000110208,-0.000101992,0.000000087,-0.000000000,0.000000000,0.006783898,0.000952056,-0.000219972,0.000000187,0.000000000,0.000000000,0.000000000,0.000000000,0.000000000,0.000000000,0.000000000,14.290000000
1743632678.502924,0.000433554,0.000110286,-0.000412896,0.000952723,0.000000000,-0.000000000,0.000000000,0.000000000,,,,,,,,,,,,,,,,,,,,,,,,,,,,,,,,,,
1743632678.502979,,,,,,,,,-0.000000000,0.003088326,0.000433554,0.000389143,-0.000000331,0.000000000,-0.000000000,-0.002941173,-0.000412896,0.000216570,-0.000000184,0.000000000,0.000000000,0.000000000,0.000000000,-0.000000000,0.000784823,0.000110286,-0.000101992,0.000000087,-0.000000000,0.000000000,0.006793422,0.000952723,-0.000219972,0.000000187,0.000000000,0.000000000,0.000000000,0.000000000,0.000000000,0.000000000,0.000000000,14.300000000
1743632678.513023,0.000433859,0.000110364,-0.000413186,0.000953390,0.000000000,0.000000000,0.000000000,0.000000000,,,,,,,,,,,,,,,,,,,,,,,,,,,,,,,,,,
1743632678.513132,,,,,,,,,-0.000000000,0.003092663,0.000433859,0.000389143,-0.000000331,0.000000000,-0.000000000,-0.002945304,-0.000413186,0.000216570,-0.000000184,0.000000000,0.000000000,0.000000000,0.000000000,0.000000000,0.000785926,0.000110364,-0.000101992,0.000000087,0.000000000,0.000000000,0.006802953,0.000953390,-0.000219972,0.000000187,0.000000000,0.000000000,0.000000000,0.000000000,0.000000000,0.000000000,0.000000000,14.310000000
1743632678.523232,0.000434163,0.000110442,-0.000413476,0.000954056,0.000000000,0.000000000,0.000000000,0.000000000,,,,,,,,,,,,,,,,,,,,,,,,,,,,,,,,,,
1743632678.523297,,,,,,,,,-0.000000000,0.003097003,0.000434163,0.000389143,-0.000000331,0.000000000,-0.000000000,-0.002949437,-0.000413476,0.000216570,-0.000000184,0.000000000,0.000000000,0.000000000,0.000000000,-0.000000000,0.000787030,0.000110442,-0.000101992,0.000000087,0.000000000,0.000000000,0.006812490,0.000954056,-0.000219972,0.000000187,0.000000000,0.000000000,0.000000000,0.000000000,0.000000000,0.000000000,0.000000000,14.320000000
1743632678.533546,0.000434468,0.000110520,-0.000413766,0.000954723,0.000000000,0.000000000,0.000000000,-0.000000000,,,,,,,,,,,,,,,,,,,,,,,,,,,,,,,,,,
1743632678.533619,,,,,,,,,-0.000000000,0.003101346,0.000434468,0.000389143,-0.000000331,0.000000000,-0.000000000,-0.002953574,-0.000413766,0.000216570,-0.000000184,0.000000000,0.000000000,0.000000000,0.000000000,-0.000000000,0.000788135,0.000110520,-0.000101992,0.000000087,0.000000000,-0.000000000,0.006822034,0.000954723,-0.000219972,0.000000187,-0.000000000,0.000000000,0.000000000,0.000000000,0.000000000,0.000000000,0.000000000,14.330000000
1743632678.543800,0.000434773,0.000110597,-0.000414056,0.000955390,-0.000000000,0.000000000,0.000000000,0.000000000,,,,,,,,,,,,,,,,,,,,,,,,,,,,,,,,,,
1743632678.543871,,,,,,,,,-0.000000000,0.003105693,0.000434773,0.000389143,-0.000000331,-0.000000000,-0.000000000,-0.002957713,-0.000414056,0.000216570,-0.000000184,0.000000000,0.000000000,0.000000000,0.000000000,-0.000000000,0.000789241,0.000110597,-0.000101992,0.000000087,0.000000000,-0.000000000,0.006831585,0.000955390,-0.000219972,0.000000187,0.000000000,0.000000000,0.000000000,0.000000000,0.000000000,0.000000000,0.000000000,14.340000000
1743632678.553935,0.000435077,0.000110675,-0.000414347,0.000956056,-0.000000000,0.000000000,0.000000000,0.000000000,,,,,,,,,,,,,,,,,,,,,,,,,,,,,,,,,,
1743632678.554009,,,,,,,,,-0.000000000,0.003110042,0.000435077,0.000389143,-0.000000331,-0.000000000,-0.000000000,-0.002961855,-0.000414347,0.000216570,-0.000000184,0.000000000,0.000000000,0.000000000,0.000000000,-0.000000000,0.000790347,0.000110675,-0.000101992,0.000000087,0.000000000,-0.000000000,0.006841143,0.000956056,-0.000219972,0.000000187,0.000000000,0.000000000,0.000000000,0.000000000,0.000000000,0.000000000,0.000000000,14.350000000
1743632678.564247,0.000435382,0.000110753,-0.000414637,0.000956723,0.000000000,0.000000000,0.000000000,0.000000000,,,,,,,,,,,,,,,,,,,,,,,,,,,,,,,,,,
1743632678.564382,,,,,,,,,-0.000000000,0.003114395,0.000435382,0.000389143,-0.000000331,0.000000000,-0.000000000,-0.002966000,-0.000414637,0.000216570,-0.000000184,0.000000000,0.000000000,0.000000000,0.000000000,-0.000000000,0.000791455,0.000110753,-0.000101992,0.000000087,0.000000000,0.000000000,0.006850707,0.000956723,-0.000219972,0.000000187,0.000000000,0.000000000,0.000000000,0.000000000,0.000000000,0.000000000,0.000000000,14.360000000
1743632678.574348,0.000435686,0.000110831,-0.000414927,0.000957390,0.000000000,0.000000000,0.000000000,-0.000000000,,,,,,,,,,,,,,,,,,,,,,,,,,,,,,,,,,
1743632678.574479,,,,,,,,,-0.000000000,0.003118750,0.000435686,0.000389143,-0.000000331,0.000000000,-0.000000000,-0.002970148,-0.000414927,0.000216570,-0.000000184,0.000000000,0.000000000,0.000000000,0.000000000,0.000000000,0.000792562,0.000110831,-0.000101992,0.000000087,0.000000000,-0.000000000,0.006860278,0.000957390,-0.000219972,0.000000187,-0.000000000,0.000000000,0.000000000,0.000000000,0.000000000,0.000000000,0.000000000,14.370000000
1743632678.585128,0.000435991,0.000110909,-0.000415217,0.000958056,0.000000000,0.000000000,-0.000000000,-0.000000000,,,,,,,,,,,,,,,,,,,,,,,,,,,,,,,,,,
1743632678.585304,,,,,,,,,-0.000000000,0.003123109,0.000435991,0.000389143,-0.000000331,0.000000000,-0.000000000,-0.002974299,-0.000415217,0.000216570,-0.000000184,-0.000000000,0.000000000,0.000000000,0.000000000,-0.000000000,0.000793671,0.000110909,-0.000101992,0.000000087,0.000000000,0.000000000,0.006869856,0.000958056,-0.000219972,0.000000187,-0.000000000,0.000000000,0.000000000,0.000000000,0.000000000,0.000000000,0.000000000,14.380000000
1743632678.595031,0.000436296,0.000110986,-0.000415507,0.000958723,0.000000000,0.000000000,-0.000000000,-0.000000000,,,,,,,,,,,,,,,,,,,,,,,,,,,,,,,,,,
1743632678.595135,,,,,,,,,-0.000000000,0.003127470,0.000436296,0.000389143,-0.000000331,0.000000000,-0.000000000,-0.002978453,-0.000415507,0.000216570,-0.000000184,-0.000000000,0.000000000,0.000000000,0.000000000,-0.000000000,0.000794781,0.000110986,-0.000101992,0.000000087,0.000000000,-0.000000000,0.006879440,0.000958723,-0.000219972,0.000000187,-0.000000000,0.000000000,0.000000000,0.000000000,0.000000000,0.000000000,0.000000000,14.390000000
1743632678.605313,0.000436600,0.000111064,-0.000415797,0.000959389,-0.000000000,0.000000000,0.000000000,0.000000000,,,,,,,,,,,,,,,,,,,,,,,,,,,,,,,,,,
1743632678.605454,,,,,,,,,-0.000000000,0.003131835,0.000436600,0.000389143,-0.000000331,-0.000000000,-0.000000000,-0.002982609,-0.000415797,0.000216570,-0.000000184,0.000000000,0.000000000,0.000000000,0.000000000,-0.000000000,0.000795891,0.000111064,-0.000101992,0.000000087,0.000000000,-0.000000000,0.006889031,0.000959389,-0.000219972,0.000000187,0.000000000,0.000000000,0.000000000,0.000000000,0.000000000,0.000000000,0.000000000,14.400000000
1743632678.615938,0.000436905,0.000111142,-0.000416087,0.000960056,-0.000000000,0.000000000,0.000000000,0.000000000,,,,,,,,,,,,,,,,,,,,,,,,,,,,,,,,,,
1743632678.616057,,,,,,,,,-0.000000000,0.003136203,0.000436905,0.000389143,-0.000000331,-0.000000000,-0.000000000,-0.002986769,-0.000416087,0.000216570,-0.000000184,0.000000000,0.000000000,0.000000000,0.000000000,-0.000000000,0.000797002,0.000111142,-0.000101992,0.000000087,0.000000000,-0.000000000,0.006898628,0.000960056,-0.000219972,0.000000187,0.000000000,0.000000000,0.000000000,0.000000000,0.000000000,0.000000000,0.000000000,14.410000000
1743632678.625952,0.000437210,0.000111220,-0.000416377,0.000960723,0.000000000,0.000000000,0.000000000,0.000000000,,,,,,,,,,,,,,,,,,,,,,,,,,,,,,,,,,
1743632678.626083,,,,,,,,,-0.000000000,0.003140573,0.000437210,0.000389143,-0.000000331,0.000000000,-0.000000000,-0.002990931,-0.000416377,0.000216570,-0.000000184,0.000000000,0.000000000,0.000000000,0.000000000,-0.000000000,0.000798114,0.000111220,-0.000101992,0.000000087,0.000000000,-0.000000000,0.006908232,0.000960723,-0.000219972,0.000000187,0.000000000,0.000000000,0.000000000,0.000000000,0.000000000,0.000000000,0.000000000,14.420000000
1743632678.636342,0.000437514,0.000111298,-0.000416668,0.000961389,0.000000000,0.000000000,0.000000000,0.000000000,,,,,,,,,,,,,,,,,,,,,,,,,,,,,,,,,,
1743632678.636447,,,,,,,,,-0.000000000,0.003144947,0.000437514,0.000389143,-0.000000331,0.000000000,-0.000000000,-0.002995097,-0.000416668,0.000216570,-0.000000184,0.000000000,0.000000000,0.000000000,0.000000000,-0.000000000,0.000799227,0.000111298,-0.000101992,0.000000087,0.000000000,0.000000000,0.006917843,0.000961389,-0.000219972,0.000000187,0.000000000,0.000000000,0.000000000,0.000000000,0.000000000,0.000000000,0.000000000,14.430000000
1743632678.646536,0.000437819,0.000111375,-0.000416958,0.000962056,0.000000000,0.000000000,0.000000000,0.000000000,,,,,,,,,,,,,,,,,,,,,,,,,,,,,,,,,,
1743632678.646936,,,,,,,,,-0.000000000,0.003149324,0.000437819,0.000389143,-0.000000331,0.000000000,-0.000000000,-0.002999265,-0.000416958,0.000216570,-0.000000184,0.000000000,0.000000000,0.000000000,0.000000000,-0.000000000,0.000800340,0.000111375,-0.000101992,0.000000087,0.000000000,0.000000000,0.006927461,0.000962056,-0.000219972,0.000000187,0.000000000,0.000000000,0.000000000,0.000000000,0.000000000,0.000000000,0.000000000,14.440000000
1743632678.656854,0.000438124,0.000111453,-0.000417248,0.000962723,0.000000000,0.000000000,0.000000000,0.000000000,,,,,,,,,,,,,,,,,,,,,,,,,,,,,,,,,,
1743632678.656966,,,,,,,,,-0.000000000,0.003153704,0.000438124,0.000389143,-0.000000331,0.000000000,-0.000000000,-0.003003436,-0.000417248,0.000216570,-0.000000184,0.000000000,0.000000000,0.000000000,0.000000000,0.000000000,0.000801454,0.000111453,-0.000101992,0.000000087,0.000000000,0.000000000,0.006937085,0.000962723,-0.000219972,0.000000187,0.000000000,0.000000000,0.000000000,0.000000000,0.000000000,0.000000000,0.000000000,14.450000000
1743632678.667245,0.000438428,0.000111531,-0.000417538,0.000963389,0.000000000,0.000000000,0.000000000,-0.000000000,,,,,,,,,,,,,,,,,,,,,,,,,,,,,,,,,,
1743632678.667462,,,,,,,,,-0.000000000,0.003158087,0.000438428,0.000389143,-0.000000331,0.000000000,-0.000000000,-0.003007610,-0.000417538,0.000216570,-0.000000184,0.000000000,0.000000000,0.000000000,0.000000000,-0.000000000,0.000802569,0.000111531,-0.000101992,0.000000087,0.000000000,0.000000000,0.006946716,0.000963389,-0.000219972,0.000000187,-0.000000000,0.000000000,0.000000000,0.000000000,0.000000000,0.000000000,0.000000000,14.460000000
1743632678.677701,0.000438733,0.000111609,-0.000417828,0.000964056,0.000000000,0.000000000,0.000000000,-0.000000000,,,,,,,,,,,,,,,,,,,,,,,,,,,,,,,,,,
1743632678.677884,,,,,,,,,-0.000000000,0.003162473,0.000438733,0.000389143,-0.000000331,0.000000000,-0.000000000,-0.003011787,-0.000417828,0.000216570,-0.000000184,0.000000000,0.000000000,0.000000000,0.000000000,-0.000000000,0.000803685,0.000111609,-0.000101992,0.000000087,0.000000000,-0.000000000,0.006956354,0.000964056,-0.000219972,0.000000187,-0.000000000,0.000000000,0.000000000,0.000000000,0.000000000,0.000000000,0.000000000,14.470000000
1743632678.688139,0.000439037,0.000111687,-0.000418118,0.000964723,-0.000000000,0.000000000,-0.000000000,-0.000000000,,,,,,,,,,,,,,,,,,,,,,,,,,,,,,,,,,
1743632678.688268,,,,,,,,,0.000000000,0.003166862,0.000439037,0.000389143,-0.000000331,-0.000000000,-0.000000000,-0.003015967,-0.000418118,0.000216570,-0.000000184,-0.000000000,0.000000000,0.000000000,0.000000000,-0.000000000,0.000804801,0.000111687,-0.000101992,0.000000087,0.000000000,0.000000000,0.006965998,0.000964723,-0.000219972,0.000000187,-0.000000000,0.000000000,0.000000000,0.000000000,0.000000000,0.000000000,0.000000000,14.480000000
1743632678.698554,0.000439342,0.000111765,-0.000418408,0.000965389,-0.000000000,0.000000000,-0.000000000,0.000000000,,,,,,,,,,,,,,,,,,,,,,,,,,,,,,,,,,
1743632678.698830,,,,,,,,,-0.000000000,0.003171254,0.000439342,0.000389143,-0.000000331,-0.000000000,-0.000000000,-0.003020150,-0.000418408,0.000216570,-0.000000184,-0.000000000,0.000000000,0.000000000,0.000000000,-0.000000000,0.000805919,0.000111765,-0.000101992,0.000000087,0.000000000,-0.000000000,0.006975649,0.000965389,-0.000219972,0.000000187,0.000000000,0.000000000,0.000000000,0.000000000,0.000000000,0.000000000,0.000000000,14.490000000
1743632678.709224,0.000439647,0.000111842,-0.000418698,0.000966056,0.000000000,0.000000000,0.000000000,0.000000000,,,,,,,,,,,,,,,,,,,,,,,,,,,,,,,,,,
1743632678.709359,,,,,,,,,-0.000000000,0.003175649,0.000439647,0.000389143,-0.000000331,0.000000000,-0.000000000,-0.003024336,-0.000418698,0.000216570,-0.000000184,0.000000000,0.000000000,0.000000000,0.000000000,-0.000000000,0.000807037,0.000111842,-0.000101992,0.000000087,0.000000000,-0.000000000,0.006985306,0.000966056,-0.000219972,0.000000187,0.000000000,0.000000000,0.000000000,0.000000000,0.000000000,0.000000000,0.000000000,14.500000000
1743632678.719587,0.000439951,0.000111920,-0.000418989,0.000966722,0.000000000,0.000000000,0.000000000,0.000000000,,,,,,,,,,,,,,,,,,,,,,,,,,,,,,,,,,
1743632678.719721,,,,,,,,,-0.000000000,0.003180047,0.000439951,0.000389143,-0.000000331,0.000000000,-0.000000000,-0.003028524,-0.000418989,0.000216570,-0.000000184,0.000000000,0.000000000,0.000000000,0.000000000,-0.000000000,0.000808156,0.000111920,-0.000101992,0.000000087,0.000000000,0.000000000,0.006994971,0.000966722,-0.000219972,0.000000187,0.000000000,0.000000000,0.000000000,0.000000000,0.000000000,0.000000000,0.000000000,14.510000000
1743632678.729688,0.000440256,0.000111998,-0.000419279,0.000967389,0.000000000,-0.000000000,0.000000000,0.000000000,,,,,,,,,,,,,,,,,,,,,,,,,,,,,,,,,,
1743632678.729833,,,,,,,,,-0.000000000,0.003184448,0.000440256,0.000389143,-0.000000331,0.000000000,-0.000000000,-0.003032716,-0.000419279,0.000216570,-0.000000184,0.000000000,0.000000000,0.000000000,0.000000000,0.000000000,0.000809275,0.000111998,-0.000101992,0.000000087,-0.000000000,0.000000000,0.007004641,0.000967389,-0.000219972,0.000000187,0.000000000,0.000000000,0.000000000,0.000000000,0.000000000,0.000000000,0.000000000,14.520000000
1743632678.740030,0.000440561,0.000112076,-0.000419569,0.000968056,0.000000000,0.000000000,0.000000000,0.000000000,,,,,,,,,,,,,,,,,,,,,,,,,,,,,,,,,,
1743632678.740166,,,,,,,,,-0.000000000,0.003188852,0.000440561,0.000389143,-0.000000331,0.000000000,-0.000000000,-0.003036910,-0.000419569,0.000216570,-0.000000184,0.000000000,0.000000000,0.000000000,0.000000000,-0.000000000,0.000810396,0.000112076,-0.000101992,0.000000087,0.000000000,0.000000000,0.007014319,0.000968056,-0.000219972,0.000000187,0.000000000,0.000000000,0.000000000,0.000000000,0.000000000,0.000000000,0.000000000,14.530000000
1743632678.750383,0.000440865,0.000112154,-0.000419859,0.000968722,0.000000000,0.000000000,0.000000000,0.000000000,,,,,,,,,,,,,,,,,,,,,,,,,,,,,,,,,,
1743632678.750521,,,,,,,,,-0.000000000,0.003193260,0.000440865,0.000389143,-0.000000331,0.000000000,-0.000000000,-0.003041107,-0.000419859,0.000216570,-0.000000184,0.000000000,0.000000000,0.000000000,0.000000000,-0.000000000,0.000811517,0.000112154,-0.000101992,0.000000087,0.000000000,-0.000000000,0.007024003,0.000968722,-0.000219972,0.000000187,0.000000000,0.000000000,0.000000000,0.000000000,0.000000000,0.000000000,0.000000000,14.540000000
1743632678.760588,0.000441170,0.000112231,-0.000420149,0.000969389,-0.000000000,0.000000000,0.000000000,0.000000000,,,,,,,,,,,,,,,,,,,,,,,,,,,,,,,,,,
1743632678.760737,,,,,,,,,-0.000000000,0.003197670,0.000441170,0.000389143,-0.000000331,-0.000000000,-0.000000000,-0.003045307,-0.000420149,0.000216570,-0.000000184,0.000000000,0.000000000,0.000000000,0.000000000,-0.000000000,0.000812639,0.000112231,-0.000101992,0.000000087,0.000000000,-0.000000000,0.007033694,0.000969389,-0.000219972,0.000000187,0.000000000,0.000000000,0.000000000,0.000000000,0.000000000,0.000000000,0.000000000,14.550000000
1743632678.771475,0.000441475,0.000112309,-0.000420439,0.000970055,-0.000000000,0.000000000,0.000000000,0.000000000,,,,,,,,,,,,,,,,,,,,,,,,,,,,,,,,,,
1743632678.771599,,,,,,,,,-0.000000000,0.003202083,0.000441475,0.000389143,-0.000000331,-0.000000000,-0.000000000,-0.003049511,-0.000420439,0.000216570,-0.000000184,0.000000000,0.000000000,0.000000000,0.000000000,-0.000000000,0.000813762,0.000112309,-0.000101992,0.000000087,0.000000000,-0.000000000,0.007043392,0.000970055,-0.000219972,0.000000187,0.000000000,0.000000000,0.000000000,0.000000000,0.000000000,0.000000000,0.000000000,14.560000000
1743632678.781696,0.000441779,0.000112387,-0.000420729,0.000970722,0.000000000,0.000000000,0.000000000,-0.000000000,,,,,,,,,,,,,,,,,,,,,,,,,,,,,,,,,,
1743632678.781860,,,,,,,,,-0.000000000,0.003206500,0.000441779,0.000389143,-0.000000331,0.000000000,-0.000000000,-0.003053716,-0.000420729,0.000216570,-0.000000184,0.000000000,0.000000000,0.000000000,0.000000000,-0.000000000,0.000814885,0.000112387,-0.000101992,0.000000087,0.000000000,0.000000000,0.007053096,0.000970722,-0.000219972,0.000000187,-0.000000000,0.000000000,0.000000000,0.000000000,0.000000000,0.000000000,0.000000000,14.570000000
1743632678.792182,0.000442084,0.000112465,-0.000421020,0.000971388,0.000000000,0.000000000,-0.000000000,-0.000000000,,,,,,,,,,,,,,,,,,,,,,,,,,,,,,,,,,
1743632678.792298,,,,,,,,,-0.000000000,0.003210919,0.000442084,0.000389143,-0.000000331,0.000000000,-0.000000000,-0.003057925,-0.000421019,0.000216570,-0.000000184,-0.000000000,0.000000000,0.000000000,0.000000000,0.000000000,0.000816009,0.000112465,-0.000101992,0.000000087,0.000000000,-0.000000000,0.007062807,0.000971388,-0.000219972,0.000000187,-0.000000000,0.000000000,0.000000000,0.000000000,0.000000000,0.000000000,0.000000000,14.580000000
1743632678.802921,0.000442389,0.000112543,-0.000421310,0.000972055,0.000000000,0.000000000,-0.000000000,-0.000000000,,,,,,,,,,,,,,,,,,,,,,,,,,,,,,,,,,
1743632678.803047,,,,,,,,,0.000000000,0.003215342,0.000442389,0.000389143,-0.000000331,0.000000000,-0.000000000,-0.003062137,-0.000421310,0.000216570,-0.000000184,-0.000000000,0.000000000,0.000000000,0.000000000,-0.000000000,0.000817134,0.000112543,-0.000101992,0.000000087,0.000000000,-0.000000000,0.007072524,0.000972055,-0.000219972,0.000000187,-0.000000000,0.000000000,0.000000000,0.000000000,0.000000000,0.000000000,0.000000000,14.590000000
1743632678.813060,0.000442693,0.000112621,-0.000421600,0.000972722,0.000000000,0.000000000,-0.000000000,0.000000000,,,,,,,,,,,,,,,,,,,,,,,,,,,,,,,,,,
1743632678.813270,,,,,,,,,-0.000000000,0.003219767,0.000442693,0.000389143,-0.000000331,0.000000000,-0.000000000,-0.003066352,-0.000421600,0.000216570,-0.000000184,-0.000000000,0.000000000,0.000000000,0.000000000,0.000000000,0.000818260,0.000112620,-0.000101992,0.000000087,0.000000000,0.000000000,0.007082248,0.000972722,-0.000219972,0.000000187,0.000000000,0.000000000,0.000000000,0.000000000,0.000000000,0.000000000,0.000000000,14.600000000
1743632678.823105,0.000442998,0.000112698,-0.000421890,0.000973388,0.000000000,0.000000000,0.000000000,0.000000000,,,,,,,,,,,,,,,,,,,,,,,,,,,,,,,,,,
1743632678.823244,,,,,,,,,-0.000000000,0.003224196,0.000442998,0.000389143,-0.000000331,0.000000000,-0.000000000,-0.003070569,-0.000421890,0.000216570,-0.000000184,0.000000000,0.000000000,0.000000000,0.000000000,0.000000000,0.000819387,0.000112698,-0.000101992,0.000000087,0.000000000,0.000000000,0.007091979,0.000973388,-0.000219972,0.000000187,0.000000000,0.000000000,0.000000000,0.000000000,0.000000000,0.000000000,0.000000000,14.610000000
1743632678.833589,0.000443303,0.000112776,-0.000422180,0.000974055,0.000000000,0.000000000,0.000000000,0.000000000,,,,,,,,,,,,,,,,,,,,,,,,,,,,,,,,,,
1743632678.833837,,,,,,,,,0.000000000,0.003228628,0.000443303,0.000389143,-0.000000331,0.000000000,-0.000000000,-0.003074790,-0.000422180,0.000216570,-0.000000184,0.000000000,0.000000000,0.000000000,0.000000000,-0.000000000,0.000820514,0.000112776,-0.000101992,0.000000087,0.000000000,0.000000000,0.007101717,0.000974055,-0.000219972,0.000000187,0.000000000,0.000000000,0.000000000,0.000000000,0.000000000,0.000000000,0.000000000,14.620000000
1743632678.843869,0.000443607,0.000112854,-0.000422470,0.000974721,0.000000000,0.000000000,0.000000000,-0.000000000,,,,,,,,,,,,,,,,,,,,,,,,,,,,,,,,,,
1743632678.844050,,,,,,,,,-0.000000000,0.003233062,0.000443607,0.000389143,-0.000000331,0.000000000,-0.000000000,-0.003079013,-0.000422470,0.000216570,-0.000000184,0.000000000,0.000000000,0.000000000,0.000000000,-0.000000000,0.000821643,0.000112854,-0.000101992,0.000000087,0.000000000,-0.000000000,0.007111461,0.000974721,-0.000219972,0.000000187,-0.000000000,0.000000000,0.000000000,0.000000000,0.000000000,0.000000000,0.000000000,14.630000000
1743632678.854940,0.000443912,0.000112932,-0.000422760,0.000975388,0.000000000,0.000000000,0.000000000,0.000000000,,,,,,,,,,,,,,,,,,,,,,,,,,,,,,,,,,
1743632678.855066,,,,,,,,,-0.000000000,0.003237500,0.000443912,0.000389143,-0.000000331,0.000000000,-0.000000000,-0.003083240,-0.000422760,0.000216570,-0.000000184,0.000000000,0.000000000,0.000000000,0.000000000,-0.000000000,0.000822771,0.000112932,-0.000101992,0.000000087,0.000000000,0.000000000,0.007121212,0.000975388,-0.000219972,0.000000187,0.000000000,0.000000000,0.000000000,0.000000000,0.000000000,0.000000000,0.000000000,14.640000000
1743632678.865443,0.000444216,0.000113010,-0.000423050,0.000976054,0.000000000,-0.000000000,0.000000000,0.000000000,,,,,,,,,,,,,,,,,,,,,,,,,,,,,,,,,,
1743632678.865592,,,,,,,,,-0.000000000,0.003241941,0.000444216,0.000389143,-0.000000331,0.000000000,-0.000000000,-0.003087469,-0.000423050,0.000216570,-0.000000184,0.000000000,0.000000000,0.000000000,0.000000000,-0.000000000,0.000823901,0.000113010,-0.000101992,0.000000087,-0.000000000,-0.000000000,0.007130970,0.000976054,-0.000219972,0.000000187,0.000000000,0.000000000,0.000000000,0.000000000,0.000000000,0.000000000,0.000000000,14.650000000
1743632678.875461,0.000444521,0.000113087,-0.000423341,0.000976721,-0.000000000,-0.000000000,0.000000000,0.000000000,,,,,,,,,,,,,,,,,,,,,,,,,,,,,,,,,,
1743632678.875591,,,,,,,,,-0.000000000,0.003246385,0.000444521,0.000389143,-0.000000331,-0.000000000,-0.000000000,-0.003091701,-0.000423341,0.000216570,-0.000000184,0.000000000,0.000000000,0.000000000,0.000000000,-0.000000000,0.000825032,0.000113087,-0.000101992,0.000000087,-0.000000000,0.000000000,0.007140734,0.000976721,-0.000219972,0.000000187,0.000000000,0.000000000,0.000000000,0.000000000,0.000000000,0.000000000,0.000000000,14.660000000
1743632678.886101,0.000444826,0.000113165,-0.000423631,0.000977387,-0.000000000,0.000000000,0.000000000,0.000000000,,,,,,,,,,,,,,,,,,,,,,,,,,,,,,,,,,
1743632678.886235,,,,,,,,,-0.000000000,0.003250831,0.000444826,0.000389143,-0.000000331,-0.000000000,-0.000000000,-0.003095936,-0.000423631,0.000216570,-0.000000184,0.000000000,0.000000000,0.000000000,0.000000000,-0.000000000,0.000826163,0.000113165,-0.000101992,0.000000087,0.000000000,-0.000000000,0.007150505,0.000977387,-0.000219972,0.000000187,0.000000000,0.000000000,0.000000000,0.000000000,0.000000000,0.000000000,0.000000000,14.670000000
1743632678.896126,0.000445130,0.000113243,-0.000423921,0.000978054,0.000000000,0.000000000,0.000000000,-0.000000000,,,,,,,,,,,,,,,,,,,,,,,,,,,,,,,,,,
1743632678.896260,,,,,,,,,-0.000000000,0.003255281,0.000445130,0.000389143,-0.000000331,0.000000000,-0.000000000,-0.003100174,-0.000423921,0.000216570,-0.000000184,0.000000000,0.000000000,0.000000000,0.000000000,0.000000000,0.000827295,0.000113243,-0.000101992,0.000000087,0.000000000,0.000000000,0.007160282,0.000978054,-0.000219972,0.000000187,-0.000000000,0.000000000,0.000000000,0.000000000,0.000000000,0.000000000,0.000000000,14.680000000
1743632678.906749,0.000445435,0.000113321,-0.000424211,0.000978720,0.000000000,0.000000000,-0.000000000,0.000000000,,,,,,,,,,,,,,,,,,,,,,,,,,,,,,,,,,
1743632678.906904,,,,,,,,,-0.000000000,0.003259734,0.000445435,0.000389143,-0.000000331,0.000000000,-0.000000000,-0.003104415,-0.000424211,0.000216570,-0.000000184,-0.000000000,0.000000000,0.000000000,0.000000000,-0.000000000,0.000828428,0.000113321,-0.000101992,0.000000087,0.000000000,-0.000000000,0.007170066,0.000978720,-0.000219972,0.000000187,0.000000000,0.000000000,0.000000000,0.000000000,0.000000000,0.000000000,0.000000000,14.690000000
1743632678.916944,0.000445740,0.000113399,-0.000424501,0.000979387,0.000000000,0.000000000,0.000000000,0.000000000,,,,,,,,,,,,,,,,,,,,,,,,,,,,,,,,,,
1743632678.917211,,,,,,,,,-0.000000000,0.003264190,0.000445740,0.000389143,-0.000000331,0.000000000,-0.000000000,-0.003108658,-0.000424501,0.000216570,-0.000000184,0.000000000,0.000000000,0.000000000,0.000000000,-0.000000000,0.000829562,0.000113399,-0.000101992,0.000000087,0.000000000,0.000000000,0.007179857,0.000979387,-0.000219972,0.000000187,0.000000000,0.000000000,0.000000000,0.000000000,0.000000000,0.000000000,0.000000000,14.700000000
1743632678.927079,0.000446044,0.000113477,-0.000424791,0.000980054,0.000000000,0.000000000,0.000000000,0.000000000,,,,,,,,,,,,,,,,,,,,,,,,,,,,,,,,,,
1743632678.927253,,,,,,,,,-0.000000000,0.003268650,0.000446044,0.000389143,-0.000000331,0.000000000,-0.000000000,-0.003112905,-0.000424791,0.000216570,-0.000000184,0.000000000,0.000000000,0.000000000,0.000000000,-0.000000000,0.000830696,0.000113477,-0.000101992,0.000000087,0.000000000,0.000000000,0.007189655,0.000980054,-0.000219972,0.000000187,0.000000000,0.000000000,0.000000000,0.000000000,0.000000000,0.000000000,0.000000000,14.710000000
1743632678.937582,0.000446349,0.000113554,-0.000425081,0.000980720,0.000000000,0.000000000,0.000000000,0.000000000,,,,,,,,,,,,,,,,,,,,,,,,,,,,,,,,,,
1743632678.937743,,,,,,,,,-0.000000000,0.003273112,0.000446349,0.000389143,-0.000000331,0.000000000,-0.000000000,-0.003117154,-0.000425081,0.000216570,-0.000000184,0.000000000,0.000000000,0.000000000,0.000000000,-0.000000000,0.000831831,0.000113554,-0.000101992,0.000000087,0.000000000,-0.000000000,0.007199459,0.000980720,-0.000219972,0.000000187,0.000000000,0.000000000,0.000000000,0.000000000,0.000000000,0.000000000,0.000000000,14.720000000
1743632678.948268,0.000446654,0.000113632,-0.000425372,0.000981387,0.000000000,0.000000000,0.000000000,0.000000000,,,,,,,,,,,,,,,,,,,,,,,,,,,,,,,,,,
1743632678.948420,,,,,,,,,-0.000000000,0.003277577,0.000446654,0.000389143,-0.000000331,0.000000000,-0.000000000,-0.003121407,-0.000425372,0.000216570,-0.000000184,0.000000000,0.000000000,0.000000000,0.000000000,-0.000000000,0.000832967,0.000113632,-0.000101992,0.000000087,0.000000000,-0.000000000,0.007209270,0.000981387,-0.000219972,0.000000187,0.000000000,0.000000000,0.000000000,0.000000000,0.000000000,0.000000000,0.000000000,14.730000000
1743632678.958256,0.000446958,0.000113710,-0.000425662,0.000982053,0.000000000,0.000000000,0.000000000,0.000000000,,,,,,,,,,,,,,,,,,,,,,,,,,,,,,,,,,
1743632678.958384,,,,,,,,,-0.000000000,0.003282045,0.000446958,0.000389143,-0.000000331,0.000000000,-0.000000000,-0.003125662,-0.000425662,0.000216570,-0.000000184,0.000000000,0.000000000,0.000000000,0.000000000,-0.000000000,0.000834104,0.000113710,-0.000101992,0.000000087,0.000000000,-0.000000000,0.007219087,0.000982053,-0.000219972,0.000000187,0.000000000,0.000000000,0.000000000,0.000000000,0.000000000,0.000000000,0.000000000,14.740000000
1743632678.968864,0.000447263,0.000113788,-0.000425952,0.000982720,-0.000000000,0.000000000,0.000000000,0.000000000,,,,,,,,,,,,,,,,,,,,,,,,,,,,,,,,,,
1743632678.969047,,,,,,,,,0.000000000,0.003286516,0.000447263,0.000389143,-0.000000331,-0.000000000,-0.000000000,-0.003129920,-0.000425952,0.000216570,-0.000000184,0.000000000,0.000000000,0.000000000,0.000000000,-0.000000000,0.000835241,0.000113788,-0.000101992,0.000000087,0.000000000,-0.000000000,0.007228912,0.000982720,-0.000219972,0.000000187,0.000000000,0.000000000,0.000000000,0.000000000,0.000000000,0.000000000,0.000000000,14.750000000
1743632678.979186,0.000447568,0.000113866,-0.000426242,0.000983386,-0.000000000,0.000000000,-0.000000000,0.000000000,,,,,,,,,,,,,,,,,,,,,,,,,,,,,,,,,,
1743632678.979318,,,,,,,,,-0.000000000,0.003290991,0.000447568,0.000389143,-0.000000331,-0.000000000,-0.000000000,-0.003134182,-0.000426242,0.000216570,-0.000000184,-0.000000000,0.000000000,0.000000000,0.000000000,0.000000000,0.000836380,0.000113866,-0.000101992,0.000000087,0.000000000,0.000000000,0.007238742,0.000983386,-0.000219972,0.000000187,0.000000000,0.000000000,0.000000000,0.000000000,0.000000000,0.000000000,0.000000000,14.760000000
1743632678.990051,0.000447872,0.000113944,-0.000426532,0.000984053,0.000000000,0.000000000,0.000000000,0.000000000,,,,,,,,,,,,,,,,,,,,,,,,,,,,,,,,,,
1743632678.990232,,,,,,,,,-0.000000000,0.003295468,0.000447872,0.000389143,-0.000000331,0.000000000,-0.000000000,-0.003138446,-0.000426532,0.000216570,-0.000000184,0.000000000,0.000000000,0.000000000,0.000000000,-0.000000000,0.000837519,0.000113944,-0.000101992,0.000000087,0.000000000,-0.000000000,0.007248580,0.000984053,-0.000219972,0.000000187,0.000000000,0.000000000,0.000000000,0.000000000,0.000000000,0.000000000,0.000000000,14.770000000
1743632679.000376,0.000448177,0.000114021,-0.000426822,0.000984719,0.000000000,-0.000000000,0.000000000,0.000000000,,,,,,,,,,,,,,,,,,,,,,,,,,,,,,,,,,
1743632679.000534,,,,,,,,,-0.000000000,0.003299948,0.000448177,0.000389143,-0.000000331,0.000000000,-0.000000000,-0.003142712,-0.000426822,0.000216570,-0.000000184,0.000000000,0.000000000,0.000000000,0.000000000,-0.000000000,0.000838659,0.000114021,-0.000101992,0.000000087,-0.000000000,-0.000000000,0.007258424,0.000984719,-0.000219972,0.000000187,0.000000000,0.000000000,0.000000000,0.000000000,0.000000000,0.000000000,0.000000000,14.780000000
1743632679.010537,0.000448482,0.000114099,-0.000427112,0.000985386,0.000000000,0.000000000,0.000000000,0.000000000,,,,,,,,,,,,,,,,,,,,,,,,,,,,,,,,,,
1743632679.010658,,,,,,,,,-0.000000000,0.003304432,0.000448482,0.000389143,-0.000000331,0.000000000,-0.000000000,-0.003146982,-0.000427112,0.000216570,-0.000000184,0.000000000,0.000000000,0.000000000,0.000000000,0.000000000,0.000839799,0.000114099,-0.000101992,0.000000087,0.000000000,0.000000000,0.007268275,0.000985386,-0.000219972,0.000000187,0.000000000,0.000000000,0.000000000,0.000000000,0.000000000,0.000000000,0.000000000,14.790000000
1743632679.020859,0.000448786,0.000114177,-0.000427403,0.000986052,0.000000000,0.000000000,-0.000000000,0.000000000,,,,,,,,,,,,,,,,,,,,,,,,,,,,,,,,,,
1743632679.020953,,,,,,,,,-0.000000000,0.003308918,0.000448786,0.000389143,-0.000000331,0.000000000,-0.000000000,-0.003151255,-0.000427403,0.000216570,-0.000000184,-0.000000000,0.000000000,0.000000000,0.000000000,0.000000000,0.000840941,0.000114177,-0.000101992,0.000000087,0.000000000,0.000000000,0.007278133,0.000986052,-0.000219972,0.000000187,0.000000000,0.000000000,0.000000000,0.000000000,0.000000000,0.000000000,0.000000000,14.800000000
1743632679.031243,0.000449091,0.000114255,-0.000427693,0.000986718,0.000000000,0.000000000,0.000000000,0.000000000,,,,,,,,,,,,,,,,,,,,,,,,,,,,,,,,,,
1743632679.031410,,,,,,,,,-0.000000000,0.003313408,0.000449091,0.000389143,-0.000000331,0.000000000,-0.000000000,-0.003155531,-0.000427693,0.000216570,-0.000000184,0.000000000,0.000000000,0.000000000,0.000000000,-0.000000000,0.000842083,0.000114255,-0.000101992,0.000000087,0.000000000,0.000000000,0.007287997,0.000986718,-0.000219972,0.000000187,0.000000000,0.000000000,0.000000000,0.000000000,0.000000000,0.000000000,0.000000000,14.810000000
1743632679.041004,0.000449396,0.000114333,-0.000427983,0.000987385,0.000000000,0.000000000,0.000000000,-0.000000000,,,,,,,,,,,,,,,,,,,,,,,,,,,,,,,,,,
1743632679.041176,,,,,,,,,-0.000000000,0.003317900,0.000449396,0.000389143,-0.000000331,0.000000000,-0.000000000,-0.003159809,-0.000427983,0.000216570,-0.000000184,0.000000000,0.000000000,0.000000000,0.000000000,-0.000000000,0.000843226,0.000114333,-0.000101992,0.000000087,0.000000000,-0.000000000,0.007297868,0.000987385,-0.000219972,0.000000187,-0.000000000,0.000000000,0.000000000,0.000000000,0.000000000,0.000000000,0.000000000,14.820000000
1743632679.051422,0.000449700,0.000114411,-0.000428273,0.000988051,0.000000000,0.000000000,0.000000000,0.000000000,,,,,,,,,,,,,,,,,,,,,,,,,,,,,,,,,,
1743632679.051545,,,,,,,,,-0.000000000,0.003322396,0.000449700,0.000389143,-0.000000331,0.000000000,-0.000000000,-0.003164091,-0.000428273,0.000216570,-0.000000184,0.000000000,0.000000000,0.000000000,0.000000000,-0.000000000,0.000844370,0.000114411,-0.000101992,0.000000087,0.000000000,-0.000000000,0.007307745,0.000988051,-0.000219972,0.000000187,0.000000000,0.000000000,0.000000000,0.000000000,0.000000000,0.000000000,0.000000000,14.830000000
1743632679.061212,0.000450005,0.000114488,-0.000428563,0.000988718,0.000000000,0.000000000,0.000000000,0.000000000,,,,,,,,,,,,,,,,,,,,,,,,,,,,,,,,,,
1743632679.061323,,,,,,,,,-0.000000000,0.003326895,0.000450005,0.000389143,-0.000000331,0.000000000,-0.000000000,-0.003168375,-0.000428563,0.000216570,-0.000000184,0.000000000,0.000000000,0.000000000,0.000000000,-0.000000000,0.000845514,0.000114488,-0.000101992,0.000000087,0.000000000,-0.000000000,0.007317629,0.000988718,-0.000219972,0.000000187,0.000000000,0.000000000,0.000000000,0.000000000,0.000000000,0.000000000,0.000000000,14.840000000
1743632679.071682,0.000450310,0.000114566,-0.000428853,0.000989384,0.000000000,0.000000000,0.000000000,0.000000000,,,,,,,,,,,,,,,,,,,,,,,,,,,,,,,,,,
1743632679.071842,,,,,,,,,-0.000000000,0.003331396,0.000450310,0.000389143,-0.000000331,0.000000000,-0.000000000,-0.003172662,-0.000428853,0.000216570,-0.000000184,0.000000000,0.000000000,0.000000000,0.000000000,-0.000000000,0.000846660,0.000114566,-0.000101992,0.000000087,0.000000000,0.000000000,0.007327520,0.000989384,-0.000219972,0.000000187,0.000000000,0.000000000,0.000000000,0.000000000,0.000000000,0.000000000,0.000000000,14.850000000
1743632679.082158,0.000450614,0.000114644,-0.000429144,0.000990051,0.000000000,0.000000000,0.000000000,-0.000000000,,,,,,,,,,,,,,,,,,,,,,,,,,,,,,,,,,
1743632679.082324,,,,,,,,,-0.000000000,0.003335901,0.000450614,0.000389143,-0.000000331,0.000000000,-0.000000000,-0.003176952,-0.000429144,0.000216570,-0.000000184,0.000000000,0.000000000,0.000000000,0.000000000,-0.000000000,0.000847806,0.000114644,-0.000101992,0.000000087,0.000000000,0.000000000,0.007337418,0.000990051,-0.000219972,0.000000187,-0.000000000,0.000000000,0.000000000,0.000000000,0.000000000,0.000000000,0.000000000,14.860000000
1743632679.092085,0.000450919,0.000114722,-0.000429434,0.000990717,0.000000000,0.000000000,-0.000000000,-0.000000000,,,,,,,,,,,,,,,,,,,,,,,,,,,,,,,,,,
1743632679.092145,,,,,,,,,-0.000000000,0.003340409,0.000450919,0.000389143,-0.000000331,0.000000000,-0.000000000,-0.003181245,-0.000429434,0.000216570,-0.000000184,-0.000000000,0.000000000,0.000000000,0.000000000,-0.000000000,0.000848953,0.000114722,-0.000101992,0.000000087,0.000000000,-0.000000000,0.007347322,0.000990717,-0.000219972,0.000000187,-0.000000000,0.000000000,0.000000000,0.000000000,0.000000000,0.000000000,0.000000000,14.870000000
1743632679.102506,0.000451224,0.000114800,-0.000429724,0.000991384,-0.000000000,0.000000000,-0.000000000,-0.000000000,,,,,,,,,,,,,,,,,,,,,,,,,,,,,,,,,,
1743632679.102586,,,,,,,,,-0.000000000,0.003344920,0.000451224,0.000389143,-0.000000331,-0.000000000,-0.000000000,-0.003185541,-0.000429724,0.000216570,-0.000000184,-0.000000000,0.000000000,0.000000000,0.000000000,-0.000000000,0.000850100,0.000114800,-0.000101992,0.000000087,0.000000000,0.000000000,0.007357233,0.000991384,-0.000219972,0.000000187,-0.000000000,0.000000000,0.000000000,0.000000000,0.000000000,0.000000000,0.000000000,14.880000000
1743632679.113006,0.000451528,0.000114878,-0.000430014,0.000992050,0.000000000,-0.000000000,0.000000000,0.000000000,,,,,,,,,,,,,,,,,,,,,,,,,,,,,,,,,,
1743632679.113178,,,,,,,,,-0.000000000,0.003349434,0.000451528,0.000389143,-0.000000331,0.000000000,-0.000000000,-0.003189840,-0.000430014,0.000216570,-0.000000184,0.000000000,0.000000000,0.000000000,0.000000000,-0.000000000,0.000851249,0.000114878,-0.000101992,0.000000087,-0.000000000,-0.000000000,0.007367150,0.000992050,-0.000219972,0.000000187,0.000000000,0.000000000,0.000000000,0.000000000,0.000000000,0.000000000,0.000000000,14.890000000
1743632679.123411,0.000451833,0.000114956,-0.000430304,0.000992717,0.000000000,0.000000000,0.000000000,0.000000000,,,,,,,,,,,,,,,,,,,,,,,,,,,,,,,,,,
1743632679.123519,,,,,,,,,-0.000000000,0.003353951,0.000451833,0.000389143,-0.000000331,0.000000000,-0.000000000,-0.003194142,-0.000430304,0.000216570,-0.000000184,0.000000000,0.000000000,0.000000000,0.000000000,0.000000000,0.000852398,0.000114956,-0.000101992,0.000000087,0.000000000,0.000000000,0.007377074,0.000992717,-0.000219972,0.000000187,0.000000000,0.000000000,0.000000000,0.000000000,0.000000000,0.000000000,0.000000000,14.900000000
1743632679.133668,0.000452138,0.000115033,-0.000430594,0.000993383,0.000000000,-0.000000000,0.000000000,0.000000000,,,,,,,,,,,,,,,,,,,,,,,,,,,,,,,,,,
1743632679.133757,,,,,,,,,-0.000000000,0.003358471,0.000452138,0.000389143,-0.000000331,0.000000000,-0.000000000,-0.003198446,-0.000430594,0.000216570,-0.000000184,0.000000000,0.000000000,0.000000000,0.000000000,0.000000000,0.000853548,0.000115033,-0.000101992,0.000000087,-0.000000000,-0.000000000,0.007387005,0.000993383,-0.000219972,0.000000187,0.000000000,0.000000000,0.000000000,0.000000000,0.000000000,0.000000000,0.000000000,14.910000000
1743632679.143833,0.000452442,0.000115111,-0.000430885,0.000994049,0.000000000,0.000000000,0.000000000,0.000000000,,,,,,,,,,,,,,,,,,,,,,,,,,,,,,,,,,
1743632679.143911,,,,,,,,,0.000000000,0.003362994,0.000452442,0.000389143,-0.000000331,0.000000000,-0.000000000,-0.003202754,-0.000430885,0.000216570,-0.000000184,0.000000000,0.000000000,0.000000000,0.000000000,-0.000000000,0.000854699,0.000115111,-0.000101992,0.000000087,0.000000000,0.000000000,0.007396943,0.000994049,-0.000219972,0.000000187,0.000000000,0.000000000,0.000000000,0.000000000,0.000000000,0.000000000,0.000000000,14.920000000
1743632679.153841,0.000452747,0.000115189,-0.000431175,0.000994716,0.000000000,0.000000000,0.000000000,0.000000000,,,,,,,,,,,,,,,,,,,,,,,,,,,,,,,,,,
1743632679.153915,,,,,,,,,-0.000000000,0.003367520,0.000452747,0.000389143,-0.000000331,0.000000000,-0.000000000,-0.003207064,-0.000431175,0.000216570,-0.000000184,0.000000000,0.000000000,0.000000000,0.000000000,-0.000000000,0.000855850,0.000115189,-0.000101992,0.000000087,0.000000000,-0.000000000,0.007406887,0.000994716,-0.000219972,0.000000187,0.000000000,0.000000000,0.000000000,0.000000000,0.000000000,0.000000000,0.000000000,14.930000000
1743632679.164359,0.000453052,0.000115267,-0.000431465,0.000995382,-0.000000000,0.000000000,0.000000000,0.000000000,,,,,,,,,,,,,,,,,,,,,,,,,,,,,,,,,,
1743632679.164475,,,,,,,,,-0.000000000,0.003372049,0.000453052,0.000389143,-0.000000331,-0.000000000,-0.000000000,-0.003211378,-0.000431465,0.000216570,-0.000000184,0.000000000,0.000000000,0.000000000,0.000000000,0.000000000,0.000857002,0.000115267,-0.000101992,0.000000087,0.000000000,-0.000000000,0.007416838,0.000995382,-0.000219972,0.000000187,0.000000000,0.000000000,0.000000000,0.000000000,0.000000000,0.000000000,0.000000000,14.940000000
1743632679.174145,0.000453357,0.000115345,-0.000431755,0.000996049,0.000000000,0.000000000,0.000000000,0.000000000,,,,,,,,,,,,,,,,,,,,,,,,,,,,,,,,,,
1743632679.174262,,,,,,,,,0.000000000,0.003376581,0.000453357,0.000389143,-0.000000331,0.000000000,-0.000000000,-0.003215694,-0.000431755,0.000216570,-0.000000184,0.000000000,0.000000000,0.000000000,0.000000000,-0.000000000,0.000858156,0.000115345,-0.000101992,0.000000087,0.000000000,-0.000000000,0.007426795,0.000996049,-0.000219972,0.000000187,0.000000000,0.000000000,0.000000000,0.000000000,0.000000000,0.000000000,0.000000000,14.950000000
1743632679.185217,0.000453661,0.000115423,-0.000432045,0.000996715,0.000000000,0.000000000,-0.000000000,0.000000000,,,,,,,,,,,,,,,,,,,,,,,,,,,,,,,,,,
1743632679.185359,,,,,,,,,-0.000000000,0.003381117,0.000453661,0.000389143,-0.000000331,0.000000000,-0.000000000,-0.003220013,-0.000432045,0.000216570,-0.000000184,-0.000000000,0.000000000,0.000000000,0.000000000,0.000000000,0.000859309,0.000115423,-0.000101992,0.000000087,0.000000000,-0.000000000,0.007436759,0.000996715,-0.000219972,0.000000187,0.000000000,0.000000000,0.000000000,0.000000000,0.000000000,0.000000000,0.000000000,14.959000000
1743632679.194955,0.000453966,0.000115501,-0.000432335,0.000997382,0.000000000,0.000000000,-0.000000000,-0.000000000,,,,,,,,,,,,,,,,,,,,,,,,,,,,,,,,,,
1743632679.195014,,,,,,,,,-0.000000000,0.003385655,0.000453966,0.000389143,-0.000000331,0.000000000,-0.000000000,-0.003224335,-0.000432335,0.000216570,-0.000000184,-0.000000000,0.000000000,0.000000000,0.000000000,-0.000000000,0.000860464,0.000115501,-0.000101992,0.000000087,0.000000000,-0.000000000,0.007446730,0.000997382,-0.000219972,0.000000187,-0.000000000,0.000000000,0.000000000,0.000000000,0.000000000,0.000000000,0.000000000,14.970000000
1743632679.204864,0.000454271,0.000115578,-0.000432626,0.000998048,0.000000000,0.000000000,0.000000000,0.000000000,,,,,,,,,,,,,,,,,,,,,,,,,,,,,,,,,,
1743632679.204907,,,,,,,,,-0.000000000,0.003390196,0.000454271,0.000389143,-0.000000331,0.000000000,-0.000000000,-0.003228660,-0.000432625,0.000216570,-0.000000184,0.000000000,0.000000000,0.000000000,0.000000000,-0.000000000,0.000861620,0.000115578,-0.000101992,0.000000087,0.000000000,0.000000000,0.007456708,0.000998048,-0.000219972,0.000000187,0.000000000,0.000000000,0.000000000,0.000000000,0.000000000,0.000000000,0.000000000,14.980000000
1743632679.215034,0.000454575,0.000115656,-0.000432916,0.000998714,0.000000000,0.000000000,0.000000000,0.000000000,,,,,,,,,,,,,,,,,,,,,,,,,,,,,,,,,,
1743632679.215144,,,,,,,,,-0.000000000,0.003394741,0.000454575,0.000389143,-0.000000331,0.000000000,-0.000000000,-0.003232988,-0.000432916,0.000216570,-0.000000184,0.000000000,0.000000000,0.000000000,0.000000000,0.000000000,0.000862776,0.000115656,-0.000101992,0.000000087,0.000000000,0.000000000,0.007466692,0.000998714,-0.000219972,0.000000187,0.000000000,0.000000000,0.000000000,0.000000000,0.000000000,0.000000000,0.000000000,14.990000000
1743632679.225012,0.000454880,0.000115734,-0.000433206,0.000999381,0.000000000,0.000000000,-0.000000000,0.000000000,,,,,,,,,,,,,,,,,,,,,,,,,,,,,,,,,,
1743632679.225075,,,,,,,,,-0.000000000,0.003399288,0.000454880,0.000389143,-0.000000331,0.000000000,-0.000000000,-0.003237319,-0.000433206,0.000216570,-0.000000184,-0.000000000,0.000000000,0.000000000,0.000000000,-0.000000000,0.000863933,0.000115734,-0.000101992,0.000000087,0.000000000,0.000000000,0.007476683,0.000999381,-0.000219972,0.000000187,0.000000000,0.000000000,0.000000000,0.000000000,0.000000000,0.000000000,0.000000000,15.000000000
1743632679.235204,0.000455185,0.000115812,-0.000433496,0.001000047,0.000000000,0.000000000,0.000000000,0.000000000,,,,,,,,,,,,,,,,,,,,,,,,,,,,,,,,,,
1743632679.235262,,,,,,,,,0.000000000,0.003403838,0.000455185,0.000389143,-0.000000331,0.000000000,-0.000000000,-0.003241652,-0.000433496,0.000216570,-0.000000184,0.000000000,0.000000000,0.000000000,0.000000000,-0.000000000,0.000865090,0.000115812,-0.000101992,0.000000087,0.000000000,-0.000000000,0.007486680,0.001000047,-0.000219972,0.000000187,0.000000000,0.000000000,0.000000000,0.000000000,0.000000000,0.000000000,0.000000000,15.010000000
1743632679.245541,0.000455489,0.000115890,-0.000433786,0.001000714,0.000000000,0.000000000,0.000000000,0.000000000,,,,,,,,,,,,,,,,,,,,,,,,,,,,,,,,,,
1743632679.245621,,,,,,,,,0.000000000,0.003408392,0.000455489,0.000389143,-0.000000331,0.000000000,-0.000000000,-0.003245989,-0.000433786,0.000216570,-0.000000184,0.000000000,0.000000000,0.000000000,0.000000000,-0.000000000,0.000866249,0.000115890,-0.000101992,0.000000087,0.000000000,-0.000000000,0.007496684,0.001000714,-0.000219972,0.000000187,0.000000000,0.000000000,0.000000000,0.000000000,0.000000000,0.000000000,0.000000000,15.020000000
1743632679.255697,0.000455794,0.000115968,-0.000434076,0.001001380,0.000000000,0.000000000,0.000000000,0.000000000,,,,,,,,,,,,,,,,,,,,,,,,,,,,,,,,,,
1743632679.255795,,,,,,,,,-0.000000000,0.003412949,0.000455794,0.000389143,-0.000000331,0.000000000,0.000000000,-0.003250328,-0.000434076,0.000216570,-0.000000184,0.000000000,0.000000000,0.000000000,0.000000000,-0.000000000,0.000867408,0.000115968,-0.000101992,0.000000087,0.000000000,-0.000000000,0.007506695,0.001001380,-0.000219972,0.000000187,0.000000000,0.000000000,0.000000000,0.000000000,0.000000000,0.000000000,0.000000000,15.030000000
1743632679.266140,0.000456099,0.000116046,-0.000434367,0.001002046,0.000000000,0.000000000,0.000000000,0.000000000,,,,,,,,,,,,,,,,,,,,,,,,,,,,,,,,,,
1743632679.266231,,,,,,,,,-0.000000000,0.003417508,0.000456099,0.000389143,-0.000000331,0.000000000,-0.000000000,-0.003254671,-0.000434367,0.000216570,-0.000000184,0.000000000,0.000000000,0.000000000,0.000000000,-0.000000000,0.000868568,0.000116046,-0.000101992,0.000000087,0.000000000,-0.000000000,0.007516712,0.001002046,-0.000219972,0.000000187,0.000000000,0.000000000,0.000000000,0.000000000,0.000000000,0.000000000,0.000000000,15.040000000
1743632679.275930,0.000456403,0.000116123,-0.000434657,0.001002713,0.000000000,0.000000000,0.000000000,0.000000000,,,,,,,,,,,,,,,,,,,,,,,,,,,,,,,,,,
1743632679.276008,,,,,,,,,-0.000000000,0.003422071,0.000456403,0.000389143,-0.000000331,0.000000000,-0.000000000,-0.003259016,-0.000434657,0.000216570,-0.000000184,0.000000000,0.000000000,0.000000000,0.000000000,-0.000000000,0.000869729,0.000116123,-0.000101992,0.000000087,0.000000000,-0.000000000,0.007526737,0.001002713,-0.000219972,0.000000187,0.000000000,0.000000000,0.000000000,0.000000000,0.000000000,0.000000000,0.000000000,15.050000000
1743632679.286333,0.000456708,0.000116201,-0.000434947,0.001003379,0.000000000,0.000000000,0.000000000,-0.000000000,,,,,,,,,,,,,,,,,,,,,,,,,,,,,,,,,,
1743632679.286402,,,,,,,,,0.000000000,0.003426636,0.000456708,0.000389143,-0.000000331,0.000000000,-0.000000000,-0.003263364,-0.000434947,0.000216570,-0.000000184,0.000000000,0.000000000,0.000000000,0.000000000,-0.000000000,0.000870891,0.000116201,-0.000101992,0.000000087,0.000000000,-0.000000000,0.007536767,0.001003379,-0.000219972,0.000000187,-0.000000000,0.000000000,0.000000000,0.000000000,0.000000000,0.000000000,0.000000000,15.059000000
1743632679.297108,0.000457013,0.000116279,-0.000435237,0.001004045,0.000000000,0.000000000,0.000000000,0.000000000,,,,,,,,,,,,,,,,,,,,,,,,,,,,,,,,,,
1743632679.297251,,,,,,,,,-0.000000000,0.003431205,0.000457013,0.000389143,-0.000000331,0.000000000,-0.000000000,-0.003267715,-0.000435237,0.000216570,-0.000000184,0.000000000,0.000000000,0.000000000,0.000000000,-0.000000000,0.000872053,0.000116279,-0.000101992,0.000000087,0.000000000,-0.000000000,0.007546805,0.001004045,-0.000219972,0.000000187,0.000000000,0.000000000,0.000000000,0.000000000,0.000000000,0.000000000,0.000000000,15.070000000
1743632679.307136,0.000457317,0.000116357,-0.000435527,0.001004712,0.000000000,0.000000000,-0.000000000,0.000000000,,,,,,,,,,,,,,,,,,,,,,,,,,,,,,,,,,
1743632679.307315,,,,,,,,,-0.000000000,0.003435777,0.000457317,0.000389143,-0.000000331,0.000000000,-0.000000000,-0.003272069,-0.000435527,0.000216570,-0.000000184,-0.000000000,0.000000000,0.000000000,0.000000000,-0.000000000,0.000873217,0.000116357,-0.000101992,0.000000087,0.000000000,0.000000000,0.007556849,0.001004712,-0.000219972,0.000000187,0.000000000,0.000000000,0.000000000,0.000000000,0.000000000,0.000000000,0.000000000,15.080000000
1743632679.317419,0.000457622,0.000116435,-0.000435817,0.001005378,0.000000000,0.000000000,-0.000000000,0.000000000,,,,,,,,,,,,,,,,,,,,,,,,,,,,,,,,,,
1743632679.317516,,,,,,,,,-0.000000000,0.003440352,0.000457622,0.000389143,-0.000000331,0.000000000,-0.000000000,-0.003276426,-0.000435817,0.000216570,-0.000000184,-0.000000000,0.000000000,0.000000000,0.000000000,-0.000000000,0.000874381,0.000116435,-0.000101992,0.000000087,0.000000000,-0.000000000,0.007566900,0.001005378,-0.000219972,0.000000187,0.000000000,0.000000000,0.000000000,0.000000000,0.000000000,0.000000000,0.000000000,15.090000000
1743632679.327456,0.000457927,0.000116513,-0.000436108,0.001006045,-0.000000000,0.000000000,-0.000000000,0.000000000,,,,,,,,,,,,,,,,,,,,,,,,,,,,,,,,,,
1743632679.327542,,,,,,,,,-0.000000000,0.003444930,0.000457927,0.000389143,-0.000000331,-0.000000000,-0.000000000,-0.003280786,-0.000436108,0.000216570,-0.000000184,-0.000000000,0.000000000,0.000000000,0.000000000,-0.000000000,0.000875545,0.000116513,-0.000101992,0.000000087,0.000000000,-0.000000000,0.007576957,0.001006045,-0.000219972,0.000000187,0.000000000,0.000000000,0.000000000,0.000000000,0.000000000,0.000000000,0.000000000,15.100000000
1743632679.337995,0.000458232,0.000116591,-0.000436398,0.001006711,-0.000000000,0.000000000,0.000000000,0.000000000,,,,,,,,,,,,,,,,,,,,,,,,,,,,,,,,,,
1743632679.338066,,,,,,,,,-0.000000000,0.003449511,0.000458232,0.000389143,-0.000000331,-0.000000000,-0.000000000,-0.003285149,-0.000436398,0.000216570,-0.000000184,0.000000000,0.000000000,0.000000000,0.000000000,-0.000000000,0.000876711,0.000116591,-0.000101992,0.000000087,0.000000000,0.000000000,0.007587021,0.001006711,-0.000219972,0.000000187,0.000000000,0.000000000,0.000000000,0.000000000,0.000000000,0.000000000,0.000000000,15.110000000
1743632679.348529,0.000458536,0.000116668,-0.000436688,0.001007377,-0.000000000,0.000000000,0.000000000,0.000000000,,,,,,,,,,,,,,,,,,,,,,,,,,,,,,,,,,
1743632679.348680,,,,,,,,,-0.000000000,0.003454095,0.000458536,0.000389143,-0.000000331,-0.000000000,-0.000000000,-0.003289514,-0.000436688,0.000216570,-0.000000184,0.000000000,0.000000000,0.000000000,0.000000000,-0.000000000,0.000877877,0.000116668,-0.000101992,0.000000087,0.000000000,-0.000000000,0.007597092,0.001007377,-0.000219972,0.000000187,0.000000000,0.000000000,0.000000000,0.000000000,0.000000000,0.000000000,0.000000000,15.120000000
1743632679.358530,0.000458841,0.000116746,-0.000436978,0.001008044,0.000000000,0.000000000,0.000000000,0.000000000,,,,,,,,,,,,,,,,,,,,,,,,,,,,,,,,,,
1743632679.358612,,,,,,,,,-0.000000000,0.003458682,0.000458841,0.000389143,-0.000000331,0.000000000,-0.000000000,-0.003293883,-0.000436978,0.000216570,-0.000000184,0.000000000,0.000000000,0.000000000,0.000000000,-0.000000000,0.000879044,0.000116746,-0.000101992,0.000000087,0.000000000,0.000000000,0.007607169,0.001008044,-0.000219972,0.000000187,0.000000000,0.000000000,0.000000000,0.000000000,0.000000000,0.000000000,0.000000000,15.130000000
1743632679.368747,0.000459146,0.000116824,-0.000437268,0.001008710,0.000000000,0.000000000,0.000000000,0.000000000,,,,,,,,,,,,,,,,,,,,,,,,,,,,,,,,,,
1743632679.368828,,,,,,,,,-0.000000000,0.003463272,0.000459146,0.000389143,-0.000000331,0.000000000,-0.000000000,-0.003298254,-0.000437268,0.000216570,-0.000000184,0.000000000,0.000000000,0.000000000,0.000000000,-0.000000000,0.000880212,0.000116824,-0.000101992,0.000000087,0.000000000,-0.000000000,0.007617254,0.001008710,-0.000219972,0.000000187,0.000000000,0.000000000,0.000000000,0.000000000,0.000000000,0.000000000,0.000000000,15.140000000
1743632679.378885,0.000459450,0.000116902,-0.000437558,0.001009376,0.000000000,0.000000000,0.000000000,-0.000000000,,,,,,,,,,,,,,,,,,,,,,,,,,,,,,,,,,
1743632679.378945,,,,,,,,,-0.000000000,0.003467865,0.000459450,0.000389143,-0.000000331,0.000000000,-0.000000000,-0.003302628,-0.000437558,0.000216570,-0.000000184,0.000000000,0.000000000,0.000000000,0.000000000,-0.000000000,0.000881381,0.000116902,-0.000101992,0.000000087,0.000000000,-0.000000000,0.007627344,0.001009376,-0.000219972,0.000000187,-0.000000000,0.000000000,0.000000000,0.000000000,0.000000000,0.000000000,0.000000000,15.150000000
1743632679.389256,0.000459755,0.000116980,-0.000437849,0.001010043,0.000000000,0.000000000,0.000000000,-0.000000000,,,,,,,,,,,,,,,,,,,,,,,,,,,,,,,,,,
1743632679.389373,,,,,,,,,-0.000000000,0.003472461,0.000459755,0.000389143,-0.000000331,0.000000000,-0.000000000,-0.003307005,-0.000437849,0.000216570,-0.000000184,0.000000000,0.000000000,0.000000000,0.000000000,-0.000000000,0.000882550,0.000116980,-0.000101992,0.000000087,0.000000000,0.000000000,0.007637442,0.001010043,-0.000219972,0.000000187,-0.000000000,0.000000000,0.000000000,0.000000000,0.000000000,0.000000000,0.000000000,15.160000000
1743632679.399800,0.000460060,0.000117058,-0.000438139,0.001010709,0.000000000,0.000000000,-0.000000000,0.000000000,,,,,,,,,,,,,,,,,,,,,,,,,,,,,,,,,,
1743632679.399928,,,,,,,,,-0.000000000,0.003477060,0.000460060,0.000389143,-0.000000331,0.000000000,-0.000000000,-0.003311386,-0.000438139,0.000216570,-0.000000184,-0.000000000,0.000000000,0.000000000,0.000000000,-0.000000000,0.000883721,0.000117058,-0.000101992,0.000000087,0.000000000,0.000000000,0.007647546,0.001010709,-0.000219972,0.000000187,0.000000000,0.000000000,0.000000000,0.000000000,0.000000000,0.000000000,0.000000000,15.170000000
1743632679.409895,0.000460364,0.000117136,-0.000438429,0.001011375,0.000000000,0.000000000,-0.000000000,0.000000000,,,,,,,,,,,,,,,,,,,,,,,,,,,,,,,,,,
1743632679.409983,,,,,,,,,-0.000000000,0.003481663,0.000460364,0.000389143,-0.000000331,0.000000000,-0.000000000,-0.003315768,-0.000438429,0.000216570,-0.000000184,-0.000000000,0.000000000,0.000000000,0.000000000,-0.000000000,0.000884892,0.000117136,-0.000101992,0.000000087,0.000000000,-0.000000000,0.007657657,0.001011375,-0.000219972,0.000000187,0.000000000,0.000000000,0.000000000,0.000000000,0.000000000,0.000000000,0.000000000,15.180000000
1743632679.420156,0.000460669,0.000117214,-0.000438719,0.001012042,0.000000000,0.000000000,-0.000000000,0.000000000,,,,,,,,,,,,,,,,,,,,,,,,,,,,,,,,,,
1743632679.420251,,,,,,,,,-0.000000000,0.003486268,0.000460669,0.000389143,-0.000000331,0.000000000,-0.000000000,-0.003320154,-0.000438719,0.000216570,-0.000000184,-0.000000000,0.000000000,0.000000000,0.000000000,-0.000000000,0.000886063,0.000117214,-0.000101992,0.000000087,0.000000000,0.000000000,0.007667774,0.001012042,-0.000219972,0.000000187,0.000000000,0.000000000,0.000000000,0.000000000,0.000000000,0.000000000,0.000000000,15.190000000
1743632679.430297,0.000460974,0.000117291,-0.000439009,0.001012708,0.000000000,0.000000000,-0.000000000,0.000000000,,,,,,,,,,,,,,,,,,,,,,,,,,,,,,,,,,
1743632679.430369,,,,,,,,,-0.000000000,0.003490876,0.000460974,0.000389143,-0.000000331,0.000000000,-0.000000000,-0.003324543,-0.000439009,0.000216570,-0.000000184,-0.000000000,0.000000000,0.000000000,0.000000000,-0.000000000,0.000887236,0.000117291,-0.000101992,0.000000087,0.000000000,-0.000000000,0.007677898,0.001012708,-0.000219972,0.000000187,0.000000000,0.000000000,0.000000000,0.000000000,0.000000000,0.000000000,0.000000000,15.200000000
1743632679.440698,0.000461278,0.000117369,-0.000439300,0.001013374,0.000000000,0.000000000,0.000000000,0.000000000,,,,,,,,,,,,,,,,,,,,,,,,,,,,,,,,,,
1743632679.440780,,,,,,,,,-0.000000000,0.003495488,0.000461278,0.000389143,-0.000000331,0.000000000,-0.000000000,-0.003328935,-0.000439300,0.000216570,-0.000000184,0.000000000,0.000000000,0.000000000,0.000000000,-0.000000000,0.000888409,0.000117369,-0.000101992,0.000000087,0.000000000,-0.000000000,0.007688029,0.001013374,-0.000219972,0.000000187,0.000000000,0.000000000,0.000000000,0.000000000,0.000000000,0.000000000,0.000000000,15.210000000
1743632679.450894,0.000461583,0.000117447,-0.000439590,0.001014041,0.000000000,0.000000000,0.000000000,0.000000000,,,,,,,,,,,,,,,,,,,,,,,,,,,,,,,,,,
1743632679.450972,,,,,,,,,0.000000000,0.003500102,0.000461583,0.000389143,-0.000000331,0.000000000,-0.000000000,-0.003333329,-0.000439590,0.000216570,-0.000000184,0.000000000,0.000000000,0.000000000,0.000000000,0.000000000,0.000889583,0.000117447,-0.000101992,0.000000087,0.000000000,-0.000000000,0.007698166,0.001014041,-0.000219972,0.000000187,0.000000000,0.000000000,0.000000000,0.000000000,0.000000000,0.000000000,0.000000000,15.220000000
1743632679.460994,0.000461888,0.000117525,-0.000439880,0.001014707,0.000000000,0.000000000,0.000000000,0.000000000,,,,,,,,,,,,,,,,,,,,,,,,,,,,,,,,,,
1743632679.461102,,,,,,,,,-0.000000000,0.003504720,0.000461888,0.000389143,-0.000000331,0.000000000,-0.000000000,-0.003337727,-0.000439880,0.000216570,-0.000000184,0.000000000,0.000000000,0.000000000,0.000000000,0.000000000,0.000890758,0.000117525,-0.000101992,0.000000087,0.000000000,-0.000000000,0.007708310,0.001014707,-0.000219972,0.000000187,0.000000000,0.000000000,0.000000000,0.000000000,0.000000000,0.000000000,0.000000000,15.230000000
1743632679.470986,0.000462193,0.000117603,-0.000440170,0.001015373,-0.000000000,0.000000000,0.000000000,0.000000000,,,,,,,,,,,,,,,,,,,,,,,,,,,,,,,,,,
1743632679.471053,,,,,,,,,-0.000000000,0.003509340,0.000462193,0.000389143,-0.000000331,-0.000000000,-0.000000000,-0.003342127,-0.000440170,0.000216570,-0.000000184,0.000000000,0.000000000,0.000000000,0.000000000,0.000000000,0.000891934,0.000117603,-0.000101992,0.000000087,0.000000000,0.000000000,0.007718461,0.001015373,-0.000219972,0.000000187,0.000000000,0.000000000,0.000000000,0.000000000,0.000000000,0.000000000,0.000000000,15.240000000
1743632679.481080,0.000462497,0.000117681,-0.000440460,0.001016039,-0.000000000,0.000000000,0.000000000,-0.000000000,,,,,,,,,,,,,,,,,,,,,,,,,,,,,,,,,,
1743632679.481147,,,,,,,,,-0.000000000,0.003513964,0.000462497,0.000389143,-0.000000331,-0.000000000,-0.000000000,-0.003346531,-0.000440460,0.000216570,-0.000000184,0.000000000,0.000000000,0.000000000,0.000000000,-0.000000000,0.000893111,0.000117681,-0.000101992,0.000000087,0.000000000,-0.000000000,0.007728618,0.001016039,-0.000219972,0.000000187,-0.000000000,0.000000000,0.000000000,0.000000000,0.000000000,0.000000000,0.000000000,15.250000000
1743632679.491096,0.000462802,0.000117759,-0.000440750,0.001016706,0.000000000,0.000000000,-0.000000000,-0.000000000,,,,,,,,,,,,,,,,,,,,,,,,,,,,,,,,,,
1743632679.491168,,,,,,,,,-0.000000000,0.003518591,0.000462802,0.000389143,-0.000000331,0.000000000,-0.000000000,-0.003350937,-0.000440750,0.000216570,-0.000000184,-0.000000000,0.000000000,0.000000000,0.000000000,-0.000000000,0.000894288,0.000117759,-0.000101992,0.000000087,0.000000000,-0.000000000,0.007738783,0.001016706,-0.000219972,0.000000187,-0.000000000,0.000000000,0.000000000,0.000000000,0.000000000,0.000000000,0.000000000,15.260000000
1743632679.501144,0.000463107,0.000117837,-0.000441041,0.001017372,0.000000000,0.000000000,0.000000000,0.000000000,,,,,,,,,,,,,,,,,,,,,,,,,,,,,,,,,,
1743632679.501203,,,,,,,,,-0.000000000,0.003523220,0.000463107,0.000389143,-0.000000331,0.000000000,-0.000000000,-0.003355346,-0.000441041,0.000216570,-0.000000184,0.000000000,0.000000000,0.000000000,0.000000000,-0.000000000,0.000895466,0.000117837,-0.000101992,0.000000087,0.000000000,0.000000000,0.007748953,0.001017372,-0.000219972,0.000000187,0.000000000,0.000000000,0.000000000,0.000000000,0.000000000,0.000000000,0.000000000,15.269000000
1743632679.511341,0.000463411,0.000117914,-0.000441331,0.001018038,0.000000000,0.000000000,0.000000000,0.000000000,,,,,,,,,,,,,,,,,,,,,,,,,,,,,,,,,,
1743632679.511415,,,,,,,,,-0.000000000,0.003527853,0.000463411,0.000389143,-0.000000331,0.000000000,-0.000000000,-0.003359758,-0.000441331,0.000216570,-0.000000184,0.000000000,0.000000000,0.000000000,0.000000000,-0.000000000,0.000896645,0.000117914,-0.000101992,0.000000087,0.000000000,0.000000000,0.007759131,0.001018038,-0.000219972,0.000000187,0.000000000,0.000000000,0.000000000,0.000000000,0.000000000,0.000000000,0.000000000,15.280000000
1743632679.521765,0.000463716,0.000117992,-0.000441621,0.001018705,0.000000000,0.000000000,-0.000000000,0.000000000,,,,,,,,,,,,,,,,,,,,,,,,,,,,,,,,,,
1743632679.521866,,,,,,,,,-0.000000000,0.003532489,0.000463716,0.000389143,-0.000000331,0.000000000,-0.000000000,-0.003364173,-0.000441621,0.000216570,-0.000000184,-0.000000000,0.000000000,0.000000000,0.000000000,0.000000000,0.000897824,0.000117992,-0.000101992,0.000000087,0.000000000,-0.000000000,0.007769315,0.001018705,-0.000219972,0.000000187,0.000000000,0.000000000,0.000000000,0.000000000,0.000000000,0.000000000,0.000000000,15.290000000
1743632679.532201,0.000464021,0.000118070,-0.000441911,0.001019371,0.000000000,0.000000000,-0.000000000,0.000000000,,,,,,,,,,,,,,,,,,,,,,,,,,,,,,,,,,
1743632679.532289,,,,,,,,,-0.000000000,0.003537128,0.000464021,0.000389143,-0.000000331,0.000000000,-0.000000000,-0.003368591,-0.000441911,0.000216570,-0.000000184,-0.000000000,0.000000000,0.000000000,0.000000000,-0.000000000,0.000899005,0.000118070,-0.000101992,0.000000087,0.000000000,-0.000000000,0.007779505,0.001019371,-0.000219972,0.000000187,0.000000000,0.000000000,0.000000000,0.000000000,0.000000000,0.000000000,0.000000000,15.300000000
1743632679.542512,0.000464326,0.000118148,-0.000442201,0.001020037,0.000000000,0.000000000,0.000000000,-0.000000000,,,,,,,,,,,,,,,,,,,,,,,,,,,,,,,,,,
1743632679.542630,,,,,,,,,-0.000000000,0.003541769,0.000464326,0.000389143,-0.000000331,0.000000000,-0.000000000,-0.003373011,-0.000442201,0.000216570,-0.000000184,0.000000000,0.000000000,0.000000000,0.000000000,-0.000000000,0.000900186,0.000118148,-0.000101992,0.000000087,0.000000000,-0.000000000,0.007789703,0.001020037,-0.000219972,0.000000187,-0.000000000,0.000000000,0.000000000,0.000000000,0.000000000,0.000000000,0.000000000,15.310000000
1743632679.553447,0.000464630,0.000118226,-0.000442492,0.001020703,0.000000000,0.000000000,0.000000000,0.000000000,,,,,,,,,,,,,,,,,,,,,,,,,,,,,,,,,,
1743632679.553606,,,,,,,,,-0.000000000,0.003546414,0.000464630,0.000389143,-0.000000331,0.000000000,-0.000000000,-0.003377435,-0.000442492,0.000216570,-0.000000184,0.000000000,0.000000000,0.000000000,0.000000000,0.000000000,0.000901368,0.000118226,-0.000101992,0.000000087,0.000000000,-0.000000000,0.007799907,0.001020703,-0.000219972,0.000000187,0.000000000,0.000000000,0.000000000,0.000000000,0.000000000,0.000000000,0.000000000,15.320000000
1743632679.563675,0.000464935,0.000118304,-0.000442782,0.001021370,0.000000000,0.000000000,0.000000000,0.000000000,,,,,,,,,,,,,,,,,,,,,,,,,,,,,,,,,,
1743632679.563809,,,,,,,,,-0.000000000,0.003551062,0.000464935,0.000389143,-0.000000331,0.000000000,-0.000000000,-0.003381861,-0.000442782,0.000216570,-0.000000184,0.000000000,0.000000000,0.000000000,0.000000000,-0.000000000,0.000902550,0.000118304,-0.000101992,0.000000087,0.000000000,0.000000000,0.007810117,0.001021370,-0.000219972,0.000000187,0.000000000,0.000000000,0.000000000,0.000000000,0.000000000,0.000000000,0.000000000,15.330000000
1743632679.574212,0.000465240,0.000118382,-0.000443072,0.001022036,0.000000000,0.000000000,0.000000000,0.000000000,,,,,,,,,,,,,,,,,,,,,,,,,,,,,,,,,,
1743632679.574380,,,,,,,,,-0.000000000,0.003555713,0.000465240,0.000389143,-0.000000331,0.000000000,-0.000000000,-0.003386291,-0.000443072,0.000216570,-0.000000184,0.000000000,0.000000000,0.000000000,0.000000000,-0.000000000,0.000903734,0.000118382,-0.000101992,0.000000087,0.000000000,-0.000000000,0.007820335,0.001022036,-0.000219972,0.000000187,0.000000000,0.000000000,0.000000000,0.000000000,0.000000000,0.000000000,0.000000000,15.340000000
1743632679.584732,0.000465544,0.000118460,-0.000443362,0.001022702,0.000000000,0.000000000,0.000000000,0.000000000,,,,,,,,,,,,,,,,,,,,,,,,,,,,,,,,,,
1743632679.585223,,,,,,,,,-0.000000000,0.003560367,0.000465544,0.000389143,-0.000000331,0.000000000,-0.000000000,-0.003390723,-0.000443362,0.000216570,-0.000000184,0.000000000,0.000000000,0.000000000,0.000000000,-0.000000000,0.000904918,0.000118460,-0.000101992,0.000000087,0.000000000,0.000000000,0.007830559,0.001022702,-0.000219972,0.000000187,0.000000000,0.000000000,0.000000000,0.000000000,0.000000000,0.000000000,0.000000000,15.350000000
1743632679.594774,0.000465849,0.000118538,-0.000443652,0.001023368,0.000000000,-0.000000000,0.000000000,0.000000000,,,,,,,,,,,,,,,,,,,,,,,,,,,,,,,,,,
