lucascurvello/sagan_workspace/sagan_effort_velocity.csv
__time,/joint_states/LF_stering_arm_joint/effort,/joint_states/LF_stering_arm_joint/position,/joint_states/LF_stering_arm_joint/velocity,/joint_states/LF_wheel_joint/effort,/joint_states/LF_wheel_joint/position,/joint_states/LF_wheel_joint/velocity,/joint_states/LR_stering_arm_joint/effort,/joint_states/LR_stering_arm_joint/position,/joint_states/LR_stering_arm_joint/velocity,/joint_states/LR_wheel_joint/effort,/joint_states/LR_wheel_joint/position,/joint_states/LR_wheel_joint/velocity,/joint_states/Left_arm_joint/effort,/joint_states/Left_arm_joint/position,/joint_states/Left_arm_joint/velocity,/joint_states/RF_stering_arm_joint/effort,/joint_states/RF_stering_arm_joint/position,/joint_states/RF_stering_arm_joint/velocity,/joint_states/RF_wheel_joint/effort,/joint_states/RF_wheel_joint/position,/joint_states/RF_wheel_joint/velocity,/joint_states/RR_stering_arm_joint/effort,/joint_states/RR_stering_arm_joint/position,/joint_states/RR_stering_arm_joint/velocity,/joint_states/RR_wheel_joint/effort,/joint_states/RR_wheel_joint/position,/joint_states/RR_wheel_joint/velocity,/joint_states/Right_arm_joint/effort,/joint_states/Right_arm_joint/position,/joint_states/Right_arm_joint/velocity,/joint_states/base_footprint_joint/effort,/joint_states/base_footprint_joint/position,/joint_states/base_footprint_joint/velocity,/joint_states/header/stamp
1743536066.173514,-0.000000290,0.000000000,0.000000000,0.000000000,-2.694345843,0.355851850,-0.000000093,0.000000000,-0.000000000,-0.000000000,-0.900187270,0.279443272,0.000000000,0.000000000,0.000000000,-0.000000865,0.000000000,-0.000000000,-0.000000000,4.330645787,0.851183701,-0.000000063,0.000000000,-0.000000000,-0.000000000,4.752452922,0.395927812,0.000000000,0.000000000,0.000000000,0.000000000,0.000000000,0.000000000,7.360000000
1743536066.184206,-0.000000294,0.000000000,0.000000000,0.000000000,-2.690769897,0.359019887,-0.000000092,0.000000000,-0.000000000,-0.000000000,-0.897387155,0.280475151,0.000000000,0.000000000,0.000000000,-0.000000857,0.000000000,-0.000000000,-0.000000000,4.339139375,0.847865304,-0.000000061,0.000000000,-0.000000000,0.000000000,4.756397426,0.393242821,0.000000000,0.000000000,0.000000000,0.000000000,0.000000000,0.000000000,7.370000000
1743536066.194421,-0.000000297,0.000000000,0.000000000,-0.000000000,-2.687162291,0.362184100,-0.000000091,0.000000000,-0.000000000,-0.000000000,-0.894576770,0.281498114,0.000000000,0.000000000,0.000000000,-0.000000848,0.000000000,-0.000000000,0.000000000,4.347599763,0.844543780,-0.000000058,0.000000000,-0.000000000,-0.000000000,4.760315123,0.390565666,0.000000000,0.000000000,0.000000000,0.000000000,0.000000000,0.000000000,7.380000000
1743536066.204638,-0.000000301,0.000000000,0.000000000,-0.000000000,-2.683523065,0.365344415,-0.000000091,0.000000000,-0.000000000,-0.000000000,-0.891756204,0.282512122,0.000000000,0.000000000,0.000000000,-0.000000839,0.000000000,-0.000000000,0.000000000,4.356026918,0.841219378,-0.000000055,0.000000000,-0.000000000,-0.000000000,4.764206092,0.387896333,0.000000000,0.000000000,0.000000000,0.000000000,0.000000000,0.000000000,7.390000000
1743536066.216125,-0.000000304,0.000000000,0.000000000,-0.000000000,-2.679852258,0.368500756,-0.000000090,0.000000000,-0.000000000,-0.000000000,-0.888925548,0.283517134,0.000000000,0.000000000,0.000000000,-0.000000831,0.000000000,-0.000000000,0.000000000,4.364420816,0.837892345,-0.000000053,0.000000000,-0.000000000,0.000000000,4.768070411,0.385234811,0.000000000,0.000000000,0.000000000,0.000000000,0.000000000,0.000000000,7.400000000
1743536066.226318,-0.000000307,0.000000000,0.000000000,-0.000000000,-2.676149910,0.371653046,-0.000000089,0.000000000,-0.000000000,-0.000000000,-0.886084891,0.284513111,0.000000000,0.000000000,0.000000000,-0.000000822,0.000000000,-0.000000000,0.000000000,4.372781429,0.834562926,-0.000000050,0.000000000,-0.000000000,-0.000000000,4.771908157,0.382581085,0.000000000,0.000000000,0.000000000,0.000000000,0.000000000,0.000000000,7.410000000
1743536066.236499,-0.000000311,0.000000000,0.000000000,-0.000000000,-2.672416061,0.374801206,-0.000000088,0.000000000,-0.000000000,-0.000000000,-0.883234325,0.285500011,0.000000000,0.000000000,0.000000000,-0.000000813,0.000000000,-0.000000000,0.000000000,4.381108736,0.831231362,-0.000000047,0.000000000,-0.000000000,-0.000000000,4.775719408,0.379935140,0.000000000,0.000000000,0.000000000,0.000000000,0.000000000,0.000000000,7.420000000
1743536066.246681,-0.000000314,0.000000000,0.000000000,-0.000000000,-2.668650754,0.377945158,-0.000000087,0.000000000,-0.000000000,-0.000000000,-0.880373939,0.286477797,0.000000000,0.000000000,0.000000000,-0.000000804,0.000000000,-0.000000000,0.000000000,4.389402717,0.827897893,-0.000000045,0.000000000,-0.000000000,-0.000000000,4.779504243,0.377296961,0.000000000,0.000000000,0.000000000,0.000000000,0.000000000,0.000000000,7.430000000
1743536066.256637,-0.000000317,0.000000000,0.000000000,-0.000000000,-2.664854030,0.381084822,-0.000000086,0.000000000,-0.000000000,-0.000000000,-0.877503826,0.287446428,0.000000000,0.000000000,0.000000000,-0.000000795,0.000000000,-0.000000000,0.000000000,4.397663354,0.824562755,-0.000000043,0.000000000,-0.000000000,-0.000000000,4.783262739,0.374666532,0.000000000,0.000000000,0.000000000,0.000000000,0.000000000,0.000000000,7.440000000
1743536066.266726,-0.000000321,0.000000000,0.000000000,-0.000000000,-2.661025934,0.384220116,-0.000000085,0.000000000,-0.000000000,-0.000000000,-0.874624077,0.288405866,0.000000000,0.000000000,0.000000000,-0.000000786,0.000000000,-0.000000000,0.000000000,4.405890632,0.821226182,-0.000000040,0.000000000,-0.000000000,0.000000000,4.786994973,0.372043836,0.000000000,0.000000000,0.000000000,0.000000000,0.000000000,0.000000000,7.449000000
1743536066.276742,-0.000000324,0.000000000,0.000000000,-0.000000000,-2.657166510,0.387350959,-0.000000084,0.000000000,-0.000000000,-0.000000000,-0.871734785,0.289356071,0.000000000,0.000000000,0.000000000,-0.000000777,0.000000000,-0.000000000,-0.000000000,4.414084537,0.817888406,-0.000000038,0.000000000,-0.000000000,0.000000000,4.790701023,0.369428854,0.000000000,0.000000000,0.000000000,0.000000000,0.000000000,0.000000000,7.459000000
1743536066.286869,-0.000000328,0.000000000,0.000000000,0.000000000,-2.653275802,0.390477267,-0.000000083,0.000000000,-0.000000000,-0.000000000,-0.868836042,0.290297007,0.000000000,0.000000000,0.000000000,-0.000000768,0.000000000,-0.000000000,0.000000000,4.422245058,0.814549655,-0.000000035,0.000000000,-0.000000000,-0.000000000,4.794380965,0.366821569,0.000000000,0.000000000,0.000000000,0.000000000,0.000000000,0.000000000,7.469000000
1743536066.297472,-0.000000331,0.000000000,0.000000000,-0.000000000,-2.649353856,0.393598956,-0.000000082,0.000000000,-0.000000000,-0.000000000,-0.865927940,0.291228633,0.000000000,0.000000000,0.000000000,-0.000000759,0.000000000,-0.000000000,-0.000000000,4.430372188,0.811210155,-0.000000033,0.000000000,-0.000000000,-0.000000000,4.798034877,0.364221961,0.000000000,0.000000000,0.000000000,0.000000000,0.000000000,0.000000000,7.480000000
1743536066.307635,-0.000000335,0.000000000,0.000000000,-0.000000000,-2.645400719,0.396715943,-0.000000081,0.000000000,-0.000000000,-0.000000000,-0.863010573,0.292150914,0.000000000,0.000000000,0.000000000,-0.000000750,0.000000000,-0.000000000,0.000000000,4.438465920,0.807870129,-0.000000031,0.000000000,-0.000000000,-0.000000000,4.801662834,0.361630011,0.000000000,0.000000000,0.000000000,0.000000000,0.000000000,0.000000000,7.490000000
1743536066.318039,-0.000000338,0.000000000,0.000000000,-0.000000000,-2.641416439,0.399828139,-0.000000080,0.000000000,-0.000000000,-0.000000000,-0.860084035,0.293063811,0.000000000,0.000000000,0.000000000,-0.000000741,0.000000000,-0.000000000,-0.000000000,4.446526250,0.804529799,-0.000000029,0.000000000,-0.000000000,-0.000000000,4.805264914,0.359045698,0.000000000,0.000000000,0.000000000,0.000000000,0.000000000,0.000000000,7.500000000
1743536066.328276,-0.000000342,0.000000000,0.000000000,0.000000000,-2.637401063,0.402935458,-0.000000079,0.000000000,-0.000000000,-0.000000000,-0.857148420,0.293967287,0.000000000,0.000000000,0.000000000,-0.000000732,0.000000000,-0.000000000,0.000000000,4.454553175,0.801189381,-0.000000026,0.000000000,-0.000000000,-0.000000000,4.808841193,0.356469001,0.000000000,0.000000000,0.000000000,0.000000000,0.000000000,0.000000000,7.510000000
1743536066.338429,-0.000000345,0.000000000,0.000000000,-0.000000000,-2.633354641,0.406037813,-0.000000078,0.000000000,-0.000000000,-0.000000000,-0.854203823,0.294861306,0.000000000,0.000000000,0.000000000,-0.000000723,0.000000000,-0.000000000,0.000000000,4.462546697,0.797849091,-0.000000024,0.000000000,-0.000000000,-0.000000000,4.812391747,0.353899899,0.000000000,0.000000000,0.000000000,0.000000000,0.000000000,0.000000000,7.520000000
1743536066.348642,-0.000000348,0.000000000,0.000000000,0.000000000,-2.629277224,0.409135113,-0.000000077,0.000000000,-0.000000000,-0.000000000,-0.851250337,0.295745830,0.000000000,0.000000000,0.000000000,-0.000000714,0.000000000,-0.000000000,0.000000000,4.470506818,0.794509142,-0.000000022,0.000000000,-0.000000000,-0.000000000,4.815916651,0.351338368,0.000000000,0.000000000,0.000000000,0.000000000,0.000000000,0.000000000,7.530000000
1743536066.359463,-0.000000352,0.000000000,0.000000000,-0.000000000,-2.625168861,0.412227268,-0.000000075,0.000000000,-0.000000000,-0.000000000,-0.848288058,0.296620824,0.000000000,0.000000000,0.000000000,-0.000000705,0.000000000,-0.000000000,0.000000000,4.478433542,0.791169743,-0.000000020,0.000000000,-0.000000000,0.000000000,4.819415982,0.348784386,0.000000000,0.000000000,0.000000000,0.000000000,0.000000000,0.000000000,7.540000000
1743536066.369052,-0.000000355,0.000000000,0.000000000,0.000000000,-2.621029606,0.415314188,-0.000000074,0.000000000,-0.000000000,-0.000000000,-0.845317082,0.297486252,0.000000000,0.000000000,0.000000000,-0.000000696,0.000000000,-0.000000000,0.000000000,4.486326877,0.787831102,-0.000000018,0.000000000,-0.000000000,-0.000000000,4.822889814,0.346237929,0.000000000,0.000000000,0.000000000,0.000000000,0.000000000,0.000000000,7.550000000
1743536066.380135,-0.000000359,0.000000000,0.000000000,0.000000000,-2.616859511,0.418395780,-0.000000073,0.000000000,-0.000000000,-0.000000000,-0.842337505,0.298342078,0.000000000,0.000000000,0.000000000,-0.000000686,0.000000000,-0.000000000,0.000000000,4.494186829,0.784493423,-0.000000016,0.000000000,-0.000000000,-0.000000000,4.826338223,0.343698973,0.000000000,0.000000000,0.000000000,0.000000000,0.000000000,0.000000000,7.560000000
1743536066.390434,-0.000000362,0.000000000,0.000000000,0.000000000,-2.612658630,0.421471951,-0.000000072,0.000000000,-0.000000000,0.000000000,-0.839349422,0.299188267,0.000000000,0.000000000,0.000000000,-0.000000677,0.000000000,-0.000000000,0.000000000,4.502013412,0.781156908,-0.000000014,0.000000000,-0.000000000,-0.000000000,4.829761283,0.341167492,0.000000000,0.000000000,0.000000000,0.000000000,0.000000000,0.000000000,7.570000000
1743536066.401357,-0.000000366,0.000000000,0.000000000,0.000000000,-2.608427017,0.424542607,-0.000000071,0.000000000,-0.000000000,-0.000000000,-0.836352930,0.300024784,0.000000000,0.000000000,0.000000000,-0.000000668,0.000000000,-0.000000000,0.000000000,4.509806636,0.777821756,-0.000000012,0.000000000,-0.000000000,-0.000000000,4.833159070,0.338643462,0.000000000,0.000000000,0.000000000,0.000000000,0.000000000,0.000000000,7.580000000
1743536066.411509,-0.000000369,0.000000000,0.000000000,-0.000000000,-2.604164729,0.427607651,-0.000000070,0.000000000,-0.000000000,0.000000000,-0.833348127,0.300851595,0.000000000,0.000000000,0.000000000,-0.000000659,0.000000000,-0.000000000,0.000000000,4.517566518,0.774488164,-0.000000010,0.000000000,-0.000000000,-0.000000000,4.836531657,0.336126856,0.000000000,0.000000000,0.000000000,0.000000000,0.000000000,0.000000000,7.590000000
1743536066.421123,-0.000000373,0.000000000,0.000000000,0.000000000,-2.599871821,0.430666989,-0.000000069,0.000000000,-0.000000000,-0.000000000,-0.830335109,0.301668665,0.000000000,0.000000000,0.000000000,-0.000000650,0.000000000,-0.000000000,0.000000000,4.525293073,0.771156324,-0.000000008,0.000000000,-0.000000000,0.000000000,4.839879119,0.333617648,0.000000000,0.000000000,0.000000000,0.000000000,0.000000000,0.000000000,7.599000000
1743536066.431993,-0.000000376,0.000000000,0.000000000,0.000000000,-2.595548352,0.433720521,-0.000000067,0.000000000,-0.000000000,-0.000000000,-0.827313974,0.302475960,0.000000000,0.000000000,0.000000000,-0.000000641,0.000000000,-0.000000000,-0.000000000,4.532986320,0.767826428,-0.000000007,0.000000000,-0.000000000,-0.000000000,4.843201529,0.331115810,0.000000000,0.000000000,0.000000000,0.000000000,0.000000000,0.000000000,7.610000000
1743536066.442101,-0.000000380,0.000000000,0.000000000,0.000000000,-2.591194380,0.436768151,-0.000000066,0.000000000,-0.000000000,-0.000000000,-0.824284820,0.303273447,0.000000000,0.000000000,0.000000000,-0.000000632,0.000000000,-0.000000000,0.000000000,4.540646280,0.764498665,-0.000000005,0.000000000,-0.000000000,-0.000000000,4.846498962,0.328621315,0.000000000,0.000000000,0.000000000,0.000000000,0.000000000,0.000000000,7.620000000
1743536066.452895,-0.000000383,0.000000000,0.000000000,-0.000000000,-2.586809964,0.439809779,-0.000000065,0.000000000,-0.000000000,-0.000000000,-0.821247746,0.304061093,0.000000000,0.000000000,0.000000000,-0.000000623,0.000000000,-0.000000000,0.000000000,4.548272974,0.761173220,-0.000000003,0.000000000,-0.000000000,0.000000000,4.849771489,0.326134134,0.000000000,0.000000000,0.000000000,0.000000000,0.000000000,0.000000000,7.630000000
1743536066.462513,-0.000000386,0.000000000,0.000000000,-0.000000000,-2.582395166,0.442845303,-0.000000064,0.000000000,-0.000000000,0.000000000,-0.818202849,0.304838864,0.000000000,0.000000000,0.000000000,-0.000000614,0.000000000,-0.000000000,0.000000000,4.555866428,0.757850276,-0.000000001,0.000000000,-0.000000000,-0.000000000,4.853019185,0.323654239,0.000000000,0.000000000,0.000000000,0.000000000,0.000000000,0.000000000,7.640000000
1743536066.473365,-0.000000390,0.000000000,0.000000000,-0.000000000,-2.577950047,0.445874624,-0.000000063,0.000000000,-0.000000000,-0.000000000,-0.815150229,0.305606729,0.000000000,0.000000000,0.000000000,-0.000000605,0.000000000,-0.000000000,0.000000000,4.563426667,0.754530014,0.000000000,0.000000000,-0.000000000,0.000000000,4.856242122,0.321181600,0.000000000,0.000000000,0.000000000,0.000000000,0.000000000,0.000000000,7.650000000
1743536066.484257,-0.000000393,0.000000000,0.000000000,-0.000000000,-2.573474669,0.448897638,-0.000000061,0.000000000,-0.000000000,-0.000000000,-0.812089985,0.306364655,0.000000000,0.000000000,0.000000000,-0.000000596,0.000000000,-0.000000000,0.000000000,4.570953719,0.751212610,0.000000002,0.000000000,-0.000000000,-0.000000000,4.859440372,0.318716188,0.000000000,0.000000000,0.000000000,0.000000000,0.000000000,0.000000000,7.660000000
1743536066.493858,-0.000000397,0.000000000,0.000000000,-0.000000000,-2.568969096,0.451914241,-0.000000060,0.000000000,-0.000000000,-0.000000000,-0.809022216,0.307112611,0.000000000,0.000000000,0.000000000,-0.000000588,0.000000000,-0.000000000,0.000000000,4.578447614,0.747898241,0.000000004,0.000000000,-0.000000000,-0.000000000,4.862614008,0.316257972,0.000000000,0.000000000,0.000000000,0.000000000,0.000000000,0.000000000,7.670000000
1743536066.504758,-0.000000400,0.000000000,0.000000000,0.000000000,-2.564433392,0.454924330,-0.000000059,0.000000000,-0.000000000,-0.000000000,-0.805947023,0.307850565,0.000000000,0.000000000,0.000000000,-0.000000579,0.000000000,-0.000000000,-0.000000000,4.585908382,0.744587079,0.000000005,0.000000000,-0.000000000,-0.000000000,4.865763101,0.313806921,0.000000000,0.000000000,0.000000000,0.000000000,0.000000000,0.000000000,7.680000000
1743536066.514929,-0.000000403,0.000000000,0.000000000,0.000000000,-2.559867624,0.457927799,-0.000000058,0.000000000,-0.000000000,0.000000000,-0.802864506,0.308578486,0.000000000,0.000000000,0.000000000,-0.000000570,0.000000000,-0.000000000,0.000000000,4.593336057,0.741279293,0.000000007,0.000000000,-0.000000000,0.000000000,4.868887723,0.311363005,0.000000000,0.000000000,0.000000000,0.000000000,0.000000000,0.000000000,7.690000000
1743536066.525534,-0.000000407,0.000000000,0.000000000,0.000000000,-2.555271859,0.460924541,-0.000000056,0.000000000,-0.000000000,-0.000000000,-0.799774764,0.309296343,0.000000000,0.000000000,0.000000000,-0.000000561,0.000000000,-0.000000000,0.000000000,4.600730674,0.737975050,0.000000008,0.000000000,-0.000000000,-0.000000000,4.871987945,0.308926190,0.000000000,0.000000000,0.000000000,0.000000000,0.000000000,0.000000000,7.700000000
1743536066.535764,-0.000000410,0.000000000,0.000000000,-0.000000000,-2.550646163,0.463914450,-0.000000055,0.000000000,-0.000000000,-0.000000000,-0.796677900,0.310004107,0.000000000,0.000000000,0.000000000,-0.000000552,0.000000000,-0.000000000,0.000000000,4.608092268,0.734674516,0.000000010,0.000000000,-0.000000000,-0.000000000,4.875063837,0.306496446,0.000000000,0.000000000,0.000000000,0.000000000,0.000000000,0.000000000,7.710000000
1743536066.545941,-0.000000413,0.000000000,0.000000000,0.000000000,-2.545990607,0.466897415,-0.000000054,0.000000000,-0.000000000,-0.000000000,-0.793574013,0.310701747,0.000000000,0.000000000,0.000000000,-0.000000544,0.000000000,-0.000000000,0.000000000,4.615420878,0.731377851,0.000000011,0.000000000,-0.000000000,-0.000000000,4.878115471,0.304073739,0.000000000,0.000000000,0.000000000,0.000000000,0.000000000,0.000000000,7.720000000
1743536066.555883,-0.000000417,0.000000000,0.000000000,-0.000000000,-2.541305259,0.469873329,-0.000000053,0.000000000,-0.000000000,-0.000000000,-0.790463206,0.311389233,0.000000000,0.000000000,0.000000000,-0.000000535,0.000000000,-0.000000000,0.000000000,4.622716544,0.728085216,0.000000013,0.000000000,-0.000000000,-0.000000000,4.881142916,0.301658036,0.000000000,0.000000000,0.000000000,0.000000000,0.000000000,0.000000000,7.730000000
1743536066.566061,-0.000000420,0.000000000,0.000000000,-0.000000000,-2.536590192,0.472842080,-0.000000051,0.000000000,-0.000000000,-0.000000000,-0.787345580,0.312066538,0.000000000,0.000000000,0.000000000,-0.000000526,0.000000000,-0.000000000,0.000000000,4.629979306,0.724796768,0.000000014,0.000000000,-0.000000000,-0.000000000,4.884146243,0.299249303,0.000000000,0.000000000,0.000000000,0.000000000,0.000000000,0.000000000,7.740000000
1743536066.576297,-0.000000423,0.000000000,0.000000000,-0.000000000,-2.531845477,0.475803557,-0.000000050,0.000000000,-0.000000000,-0.000000000,-0.784221237,0.312733631,0.000000000,0.000000000,0.000000000,-0.000000518,0.000000000,-0.000000000,-0.000000000,4.637209208,0.721512660,0.000000016,0.000000000,-0.000000000,-0.000000000,4.887125520,0.296847508,0.000000000,0.000000000,0.000000000,0.000000000,0.000000000,0.000000000,7.750000000
1743536066.586638,-0.000000427,0.000000000,0.000000000,0.000000000,-2.527071188,0.478757648,-0.000000049,0.000000000,-0.000000000,-0.000000000,-0.781090280,0.313390485,0.000000000,0.000000000,0.000000000,-0.000000509,0.000000000,-0.000000000,0.000000000,4.644406293,0.718233044,0.000000017,-0.000000000,-0.000000000,-0.000000000,4.890080818,0.294452614,0.000000000,0.000000000,0.000000000,0.000000000,0.000000000,0.000000000,7.760000000
1743536066.597424,-0.000000430,0.000000000,0.000000000,-0.000000000,-2.522267399,0.481704240,-0.000000047,0.000000000,-0.000000000,-0.000000000,-0.777952810,0.314037071,0.000000000,0.000000000,0.000000000,-0.000000501,0.000000000,-0.000000000,-0.000000000,4.651570607,0.714958069,0.000000018,-0.000000000,-0.000000000,0.000000000,4.893012204,0.292064588,0.000000000,0.000000000,0.000000000,0.000000000,0.000000000,0.000000000,7.770000000
1743536066.607143,-0.000000433,0.000000000,0.000000000,-0.000000000,-2.517434185,0.484643217,-0.000000046,0.000000000,-0.000000000,-0.000000000,-0.774808932,0.314673362,0.000000000,0.000000000,0.000000000,-0.000000492,0.000000000,-0.000000000,0.000000000,4.658702198,0.711687882,0.000000020,-0.000000000,-0.000000000,-0.000000000,4.895919748,0.289683394,0.000000000,0.000000000,0.000000000,0.000000000,0.000000000,0.000000000,7.780000000
1743536066.617577,-0.000000436,0.000000000,0.000000000,-0.000000000,-2.512571625,0.487574466,-0.000000044,0.000000000,-0.000000000,0.000000000,-0.771658747,0.315299332,0.000000000,0.000000000,0.000000000,-0.000000484,0.000000000,-0.000000000,0.000000000,4.665801113,0.708422628,0.000000021,-0.000000000,-0.000000000,0.000000000,4.898803517,0.287308997,0.000000000,0.000000000,0.000000000,0.000000000,0.000000000,0.000000000,7.790000000
1743536066.627858,-0.000000439,0.000000000,0.000000000,-0.000000000,-2.507679795,0.490497868,-0.000000043,0.000000000,-0.000000000,0.000000000,-0.768502359,0.315914952,0.000000000,0.000000000,0.000000000,-0.000000476,0.000000000,-0.000000000,-0.000000000,4.672867404,0.705162447,0.000000022,-0.000000000,-0.000000000,-0.000000000,4.901663579,0.284941359,0.000000000,0.000000000,0.000000000,0.000000000,0.000000000,0.000000000,7.800000000
1743536066.638064,-0.000000443,0.000000000,0.000000000,0.000000000,-2.502758775,0.493413309,-0.000000042,0.000000000,-0.000000000,-0.000000000,-0.765339872,0.316520198,0.000000000,0.000000000,0.000000000,-0.000000467,0.000000000,-0.000000000,0.000000000,4.679901122,0.701907479,0.000000024,-0.000000000,-0.000000000,-0.000000000,4.904500002,0.282580446,0.000000000,0.000000000,0.000000000,0.000000000,0.000000000,0.000000000,7.810000000
1743536066.648221,-0.000000446,0.000000000,0.000000000,0.000000000,-2.497808645,0.496320668,-0.000000040,0.000000000,-0.000000000,-0.000000000,-0.762171390,0.317115042,0.000000000,0.000000000,0.000000000,-0.000000459,0.000000000,-0.000000000,0.000000000,4.686902320,0.698657860,0.000000025,-0.000000000,-0.000000000,-0.000000000,4.907312853,0.280226221,0.000000000,0.000000000,0.000000000,0.000000000,0.000000000,0.000000000,7.820000000
1743536066.658941,-0.000000449,0.000000000,0.000000000,-0.000000000,-2.492829486,0.499219828,-0.000000039,0.000000000,-0.000000000,-0.000000000,-0.758997016,0.317699460,0.000000000,0.000000000,0.000000000,-0.000000451,0.000000000,-0.000000000,-0.000000000,4.693871051,0.695413726,0.000000026,-0.000000000,-0.000000000,-0.000000000,4.910102198,0.277878645,0.000000000,0.000000000,0.000000000,0.000000000,0.000000000,0.000000000,7.830000000
1743536066.669203,-0.000000452,0.000000000,0.000000000,-0.000000000,-2.487821381,0.502110668,-0.000000038,0.000000000,-0.000000000,-0.000000000,-0.755816856,0.318273426,0.000000000,0.000000000,0.000000000,-0.000000443,0.000000000,-0.000000000,0.000000000,4.700807372,0.692175206,0.000000027,-0.000000000,-0.000000000,-0.000000000,4.912868104,0.275537682,0.000000000,0.000000000,0.000000000,0.000000000,0.000000000,0.000000000,7.840000000
1743536066.679586,-0.000000455,0.000000000,0.000000000,-0.000000000,-2.482784414,0.504993068,-0.000000036,0.000000000,-0.000000000,-0.000000000,-0.752631014,0.318836915,0.000000000,0.000000000,0.000000000,-0.000000435,0.000000000,-0.000000000,-0.000000000,4.707711339,0.688942432,0.000000028,-0.000000000,-0.000000000,-0.000000000,4.915610636,0.273203294,0.000000000,0.000000000,0.000000000,0.000000000,0.000000000,0.000000000,7.850000000
1743536066.689815,-0.000000458,0.000000000,0.000000000,-0.000000000,-2.477718670,0.507866905,-0.000000035,0.000000000,-0.000000000,0.000000000,-0.749439595,0.319389904,0.000000000,0.000000000,0.000000000,-0.000000427,0.000000000,-0.000000000,0.000000000,4.714583010,0.685715529,0.000000029,-0.000000000,-0.000000000,-0.000000000,4.918329860,0.270875442,0.000000000,0.000000000,0.000000000,0.000000000,0.000000000,0.000000000,7.860000000
1743536066.700014,-0.000000461,0.000000000,0.000000000,0.000000000,-2.472624236,0.510732057,-0.000000033,0.000000000,-0.000000000,-0.000000000,-0.746242704,0.319932368,0.000000000,0.000000000,0.000000000,-0.000000419,0.000000000,-0.000000000,0.000000000,4.721422445,0.682494623,0.000000031,-0.000000000,-0.000000000,0.000000000,4.921025842,0.268554088,0.000000000,0.000000000,0.000000000,0.000000000,0.000000000,0.000000000,7.870000000
1743536066.710541,-0.000000464,0.000000000,0.000000000,-0.000000000,-2.467501198,0.513588401,-0.000000032,0.000000000,-0.000000000,-0.000000000,-0.743040446,0.320464284,0.000000000,0.000000000,0.000000000,-0.000000411,0.000000000,-0.000000000,0.000000000,4.728229705,0.679279836,0.000000032,-0.000000000,-0.000000000,-0.000000000,4.923698646,0.266239194,0.000000000,0.000000000,0.000000000,0.000000000,0.000000000,0.000000000,7.880000000
1743536066.720769,-0.000000467,0.000000000,0.000000000,0.000000000,-2.462349646,0.516435813,-0.000000030,0.000000000,-0.000000000,-0.000000000,-0.739832927,0.320985630,0.000000000,0.000000000,0.000000000,-0.000000403,0.000000000,-0.000000000,0.000000000,4.735004851,0.676071287,0.000000033,-0.000000000,-0.000000000,-0.000000000,4.926348336,0.263930719,0.000000000,0.000000000,0.000000000,0.000000000,0.000000000,0.000000000,7.890000000
1743536066.731632,-0.000000469,0.000000000,0.000000000,-0.000000000,-2.457169669,0.519274166,-0.000000029,0.000000000,-0.000000000,0.000000000,-0.736620253,0.321496381,0.000000000,0.000000000,0.000000000,-0.000000395,0.000000000,-0.000000000,0.000000000,4.741747947,0.672869094,0.000000034,-0.000000000,-0.000000000,-0.000000000,4.928974976,0.261628625,0.000000000,0.000000000,0.000000000,0.000000000,0.000000000,0.000000000,7.900000000
1743536066.741258,-0.000000472,0.000000000,0.000000000,0.000000000,-2.451961359,0.522103335,-0.000000027,0.000000000,-0.000000000,0.000000000,-0.733402529,0.321996517,0.000000000,0.000000000,0.000000000,-0.000000387,0.000000000,-0.000000000,0.000000000,4.748459056,0.669673373,0.000000035,-0.000000000,-0.000000000,-0.000000000,4.931578631,0.259332871,0.000000000,0.000000000,0.000000000,0.000000000,0.000000000,0.000000000,7.910000000
1743536066.751711,-0.000000475,0.000000000,0.000000000,-0.000000000,-2.446724809,0.524923193,-0.000000026,0.000000000,-0.000000000,-0.000000000,-0.730179863,0.322486016,0.000000000,0.000000000,0.000000000,-0.000000380,0.000000000,-0.000000000,0.000000000,4.755138244,0.666484235,0.000000036,-0.000000000,-0.000000000,-0.000000000,4.934159362,0.257043418,0.000000000,0.000000000,0.000000000,0.000000000,0.000000000,0.000000000,7.919000000
1743536066.761730,-0.000000478,0.000000000,0.000000000,0.000000000,-2.441460112,0.527733612,-0.000000024,0.000000000,-0.000000000,-0.000000000,-0.726952361,0.322964856,0.000000000,0.000000000,0.000000000,-0.000000372,0.000000000,-0.000000000,0.000000000,4.761785577,0.663301793,0.000000037,-0.000000000,-0.000000000,-0.000000000,4.936717234,0.254760225,0.000000000,0.000000000,0.000000000,0.000000000,0.000000000,0.000000000,7.930000000
1743536066.771884,-0.000000481,0.000000000,0.000000000,0.000000000,-2.436167363,0.530534463,-0.000000023,0.000000000,-0.000000000,-0.000000000,-0.723720128,0.323433017,0.000000000,0.000000000,0.000000000,-0.000000365,0.000000000,-0.000000000,0.000000000,4.768401123,0.660126154,0.000000038,-0.000000000,-0.000000000,-0.000000000,4.939252307,0.252483251,0.000000000,0.000000000,0.000000000,0.000000000,0.000000000,0.000000000,7.940000000
1743536066.782722,-0.000000483,0.000000000,0.000000000,0.000000000,-2.430846659,0.533325618,-0.000000021,0.000000000,-0.000000000,0.000000000,-0.720483273,0.323890477,0.000000000,0.000000000,0.000000000,-0.000000357,0.000000000,-0.000000000,0.000000000,4.774984951,0.656957424,0.000000039,-0.000000000,-0.000000000,-0.000000000,4.941764645,0.250212455,0.000000000,0.000000000,0.000000000,0.000000000,0.000000000,0.000000000,7.950000000
1743536066.792323,-0.000000486,0.000000000,0.000000000,-0.000000000,-2.425498097,0.536106945,-0.000000020,0.000000000,-0.000000000,-0.000000000,-0.717241903,0.324337219,0.000000000,0.000000000,0.000000000,-0.000000350,0.000000000,-0.000000000,0.000000000,4.781537130,0.653795707,0.000000040,-0.000000000,-0.000000000,-0.000000000,4.944254309,0.247947797,0.000000000,0.000000000,0.000000000,0.000000000,0.000000000,0.000000000,7.960000000
1743536066.803252,-0.000000488,0.000000000,0.000000000,0.000000000,-2.420121777,0.538878315,-0.000000018,0.000000000,-0.000000000,-0.000000000,-0.713996123,0.324773220,0.000000000,0.000000000,0.000000000,-0.000000343,0.000000000,-0.000000000,0.000000000,4.788057731,0.650641106,0.000000040,-0.000000000,-0.000000000,-0.000000000,4.946721360,0.245689234,0.000000000,0.000000000,0.000000000,0.000000000,0.000000000,0.000000000,7.970000000
1743536066.813439,-0.000000491,0.000000000,0.000000000,-0.000000000,-2.414717799,0.541639594,-0.000000017,0.000000000,-0.000000000,-0.000000000,-0.710746044,0.325198464,0.000000000,0.000000000,0.000000000,-0.000000335,0.000000000,-0.000000000,0.000000000,4.794546826,0.647493719,0.000000041,-0.000000000,-0.000000000,-0.000000000,4.949165859,0.243436725,0.000000000,0.000000000,0.000000000,0.000000000,0.000000000,0.000000000,7.980000000
1743536066.823628,-0.000000493,0.000000000,0.000000000,-0.000000000,-2.409286263,0.544390651,-0.000000015,0.000000000,-0.000000000,0.000000000,-0.707491770,0.325612931,0.000000000,0.000000000,0.000000000,-0.000000328,0.000000000,-0.000000000,0.000000000,4.801004486,0.644353644,0.000000042,-0.000000000,-0.000000000,0.000000000,4.951587865,0.241190227,0.000000000,0.000000000,0.000000000,0.000000000,0.000000000,0.000000000,7.990000000
1743536066.833808,-0.000000496,0.000000000,0.000000000,0.000000000,-2.403827274,0.547131353,-0.000000014,0.000000000,-0.000000000,-0.000000000,-0.704233412,0.326016603,0.000000000,0.000000000,0.000000000,-0.000000321,0.000000000,-0.000000000,0.000000000,4.807430787,0.641220976,0.000000043,-0.000000000,-0.000000000,-0.000000000,4.953987440,0.238949698,0.000000000,0.000000000,0.000000000,0.000000000,0.000000000,0.000000000,8.000000000
1743536066.844005,-0.000000498,0.000000000,0.000000000,0.000000000,-2.398340936,0.549861565,-0.000000012,0.000000000,-0.000000000,0.000000000,-0.700971076,0.326409462,0.000000000,0.000000000,0.000000000,-0.000000314,0.000000000,-0.000000000,0.000000000,4.813825802,0.638095809,0.000000044,-0.000000000,-0.000000000,0.000000000,4.956364642,0.236715096,0.000000000,0.000000000,0.000000000,0.000000000,0.000000000,0.000000000,8.010000000
1743536066.854275,-0.000000501,0.000000000,0.000000000,-0.000000000,-2.392827354,0.552581153,-0.000000011,0.000000000,-0.000000000,-0.000000000,-0.697704872,0.326791491,0.000000000,0.000000000,0.000000000,-0.000000307,0.000000000,-0.000000000,0.000000000,4.820189607,0.634978233,0.000000045,-0.000000000,-0.000000000,0.000000000,4.958719530,0.234486378,0.000000000,0.000000000,0.000000000,0.000000000,0.000000000,0.000000000,8.020000000
1743536066.864446,-0.000000503,0.000000000,0.000000000,-0.000000000,-2.387286635,0.555289981,-0.000000009,0.000000000,-0.000000000,0.000000000,-0.694434906,0.327162674,0.000000000,0.000000000,0.000000000,-0.000000300,0.000000000,-0.000000000,0.000000000,4.826522279,0.631868337,0.000000045,-0.000000000,-0.000000000,-0.000000000,4.961052163,0.232263500,0.000000000,0.000000000,0.000000000,0.000000000,0.000000000,0.000000000,8.030000000
1743536066.874605,-0.000000505,0.000000000,0.000000000,0.000000000,-2.381718887,0.557987914,-0.000000008,0.000000000,-0.000000000,-0.000000000,-0.691161289,0.327522994,0.000000000,0.000000000,0.000000000,-0.000000293,0.000000000,-0.000000000,0.000000000,4.832823894,0.628766208,0.000000046,-0.000000000,-0.000000000,-0.000000000,4.963362599,0.230046420,0.000000000,0.000000000,0.000000000,0.000000000,0.000000000,0.000000000,8.040000000
1743536066.884879,-0.000000507,0.000000000,0.000000000,-0.000000000,-2.376124221,0.560674814,-0.000000006,0.000000000,-0.000000000,-0.000000000,-0.687884128,0.327872435,0.000000000,0.000000000,0.000000000,-0.000000286,0.000000000,-0.000000000,-0.000000000,4.839094531,0.625671931,0.000000047,-0.000000000,-0.000000000,-0.000000000,4.965650896,0.227835094,0.000000000,0.000000000,0.000000000,0.000000000,0.000000000,0.000000000,8.050000000
1743536066.895042,-0.000000509,0.000000000,0.000000000,-0.000000000,-2.370502747,0.563350544,-0.000000004,0.000000000,-0.000000000,-0.000000000,-0.684603533,0.328210982,0.000000000,0.000000000,0.000000000,-0.000000280,0.000000000,-0.000000000,0.000000000,4.845334269,0.622585589,0.000000048,-0.000000000,-0.000000000,0.000000000,4.967917112,0.225629478,0.000000000,0.000000000,0.000000000,0.000000000,0.000000000,0.000000000,8.060000000
1743536066.905559,-0.000000512,0.000000000,0.000000000,-0.000000000,-2.364854578,0.566014967,-0.000000003,0.000000000,-0.000000000,0.000000000,-0.681319612,0.328538620,0.000000000,0.000000000,0.000000000,-0.000000273,0.000000000,-0.000000000,0.000000000,4.851543187,0.619507262,0.000000048,-0.000000000,-0.000000000,-0.000000000,4.970161302,0.223429527,0.000000000,0.000000000,0.000000000,0.000000000,0.000000000,0.000000000,8.070000000
1743536066.915452,-0.000000514,0.000000000,0.000000000,0.000000000,-2.359179827,0.568667943,-0.000000001,0.000000000,-0.000000000,-0.000000000,-0.678032475,0.328855334,0.000000000,0.000000000,0.000000000,-0.000000266,0.000000000,-0.000000000,0.000000000,4.857721367,0.616437029,0.000000049,-0.000000000,-0.000000000,0.000000000,4.972383524,0.221235199,0.000000000,0.000000000,0.000000000,0.000000000,0.000000000,0.000000000,8.080000000
1743536066.925985,-0.000000516,0.000000000,0.000000000,-0.000000000,-2.353478611,0.571309333,0.000000000,0.000000000,-0.000000000,-0.000000000,-0.674742230,0.329161112,0.000000000,0.000000000,0.000000000,-0.000000260,0.000000000,-0.000000000,0.000000000,4.863868889,0.613374968,0.000000050,-0.000000000,-0.000000000,-0.000000000,4.974583833,0.219046448,0.000000000,0.000000000,0.000000000,0.000000000,0.000000000,0.000000000,8.090000000
1743536066.936129,-0.000000517,0.000000000,0.000000000,-0.000000000,-2.347751044,0.573938998,0.000000002,0.000000000,-0.000000000,-0.000000000,-0.671448989,0.329455938,0.000000000,0.000000000,0.000000000,-0.000000253,0.000000000,-0.000000000,0.000000000,4.869985836,0.610321152,0.000000050,-0.000000000,-0.000000000,-0.000000000,4.976762285,0.216863230,0.000000000,0.000000000,0.000000000,0.000000000,0.000000000,0.000000000,8.100000000
1743536066.946442,-0.000000519,0.000000000,0.000000000,-0.000000000,-2.341997247,0.576556797,0.000000004,0.000000000,-0.000000000,-0.000000000,-0.668152859,0.329739801,0.000000000,0.000000000,0.000000000,-0.000000247,0.000000000,-0.000000000,-0.000000000,4.876072290,0.607275656,0.000000051,-0.000000000,-0.000000000,-0.000000000,4.978918936,0.214685499,0.000000000,0.000000000,0.000000000,0.000000000,0.000000000,0.000000000,8.110000000
1743536066.956857,-0.000000521,0.000000000,0.000000000,0.000000000,-2.336217337,0.579162589,0.000000005,0.000000000,-0.000000000,-0.000000000,-0.664853951,0.330012687,0.000000000,0.000000000,0.000000000,-0.000000241,0.000000000,-0.000000000,-0.000000000,4.882128336,0.604238550,0.000000052,-0.000000000,-0.000000000,0.000000000,4.981053839,0.212513212,0.000000000,0.000000000,0.000000000,0.000000000,0.000000000,0.000000000,8.120000000
1743536066.967039,-0.000000523,0.000000000,0.000000000,-0.000000000,-2.330411436,0.581756233,0.000000007,0.000000000,-0.000000000,-0.000000000,-0.661552375,0.330274585,0.000000000,0.000000000,0.000000000,-0.000000234,0.000000000,-0.000000000,-0.000000000,4.888154057,0.601209903,0.000000052,-0.000000000,-0.000000000,-0.000000000,4.983167048,0.210346323,0.000000000,0.000000000,0.000000000,0.000000000,0.000000000,0.000000000,8.130000000
1743536066.977264,-0.000000524,0.000000000,0.000000000,-0.000000000,-2.324579666,0.584337587,0.000000008,0.000000000,-0.000000000,-0.000000000,-0.658248240,0.330525483,0.000000000,0.000000000,0.000000000,-0.000000228,0.000000000,-0.000000000,0.000000000,4.894149538,0.598189782,0.000000053,-0.000000000,-0.000000000,-0.000000000,4.985258619,0.208184785,0.000000000,0.000000000,0.000000000,0.000000000,0.000000000,0.000000000,8.140000000
1743536066.987504,-0.000000526,0.000000000,0.000000000,-0.000000000,-2.318722151,0.586906507,0.000000010,0.000000000,-0.000000000,-0.000000000,-0.654941657,0.330765370,0.000000000,0.000000000,0.000000000,-0.000000222,0.000000000,-0.000000000,0.000000000,4.900114865,0.595178254,0.000000054,-0.000000000,-0.000000000,-0.000000000,4.987328603,0.206028555,0.000000000,0.000000000,0.000000000,0.000000000,0.000000000,0.000000000,8.150000000
1743536066.997630,-0.000000527,0.000000000,0.000000000,-0.000000000,-2.312839015,0.589462852,0.000000012,0.000000000,-0.000000000,-0.000000000,-0.651632735,0.330994235,0.000000000,0.000000000,0.000000000,-0.000000216,0.000000000,-0.000000000,0.000000000,4.906050125,0.592175381,0.000000054,-0.000000000,-0.000000000,-0.000000000,4.989377054,0.203877585,0.000000000,0.000000000,0.000000000,0.000000000,0.000000000,0.000000000,8.160000000
1743536067.008455,-0.000000529,0.000000000,0.000000000,-0.000000000,-2.306930386,0.592006478,0.000000013,0.000000000,-0.000000000,-0.000000000,-0.648321586,0.331212068,0.000000000,0.000000000,0.000000000,-0.000000210,0.000000000,-0.000000000,0.000000000,4.911955404,0.589181227,0.000000055,-0.000000000,-0.000000000,-0.000000000,4.991404024,0.201731831,0.000000000,0.000000000,0.000000000,0.000000000,0.000000000,0.000000000,8.170000000
1743536067.018047,-0.000000530,0.000000000,0.000000000,-0.000000000,-2.300996392,0.594537241,0.000000015,0.000000000,-0.000000000,-0.000000000,-0.645008318,0.331418860,0.000000000,0.000000000,0.000000000,-0.000000204,0.000000000,-0.000000000,0.000000000,4.917830789,0.586195850,0.000000055,-0.000000000,-0.000000000,0.000000000,4.993409565,0.199591245,0.000000000,0.000000000,0.000000000,0.000000000,0.000000000,0.000000000,8.180000000
1743536067.028780,-0.000000532,0.000000000,0.000000000,-0.000000000,-2.295037161,0.597054996,0.000000017,-0.000000000,-0.000000000,-0.000000000,-0.641693044,0.331614601,0.000000000,0.000000000,0.000000000,-0.000000199,0.000000000,-0.000000000,-0.000000000,4.923676369,0.583219309,0.000000056,-0.000000000,-0.000000000,-0.000000000,4.995393728,0.197455782,0.000000000,0.000000000,0.000000000,0.000000000,0.000000000,0.000000000,8.190000000
1743536067.039134,-0.000000533,0.000000000,0.000000000,-0.000000000,-2.289052825,0.599559600,0.000000018,-0.000000000,-0.000000000,0.000000000,-0.638375873,0.331799282,0.000000000,0.000000000,0.000000000,-0.000000193,0.000000000,-0.000000000,0.000000000,4.929492233,0.580251662,0.000000056,-0.000000000,-0.000000000,-0.000000000,4.997356564,0.195325396,0.000000000,0.000000000,0.000000000,0.000000000,0.000000000,0.000000000,8.200000000
1743536067.049896,-0.000000534,0.000000000,0.000000000,-0.000000000,-2.283043515,0.602050907,0.000000020,-0.000000000,-0.000000000,-0.000000000,-0.635056916,0.331972897,0.000000000,0.000000000,0.000000000,-0.000000187,0.000000000,-0.000000000,0.000000000,4.935278469,0.577292962,0.000000057,-0.000000000,-0.000000000,-0.000000000,4.999298125,0.193200039,0.000000000,0.000000000,0.000000000,0.000000000,0.000000000,0.000000000,8.210000000
1743536067.059539,-0.000000535,0.000000000,0.000000000,-0.000000000,-2.277009367,0.604528771,0.000000022,-0.000000000,-0.000000000,-0.000000000,-0.631736284,0.332135436,0.000000000,0.000000000,0.000000000,-0.000000182,0.000000000,-0.000000000,0.000000000,4.941035168,0.574343263,0.000000057,-0.000000000,-0.000000000,-0.000000000,5.001218459,0.191079665,0.000000000,0.000000000,0.000000000,0.000000000,0.000000000,0.000000000,8.220000000
1743536067.069690,-0.000000536,0.000000000,0.000000000,0.000000000,-2.270950514,0.606993048,0.000000023,-0.000000000,-0.000000000,-0.000000000,-0.628414088,0.332286892,0.000000000,0.000000000,0.000000000,-0.000000176,0.000000000,-0.000000000,0.000000000,4.946762420,0.571402616,0.000000058,-0.000000000,-0.000000000,-0.000000000,5.003117617,0.188964227,0.000000000,0.000000000,0.000000000,0.000000000,0.000000000,0.000000000,8.230000000
1743536067.081026,-0.000000537,0.000000000,0.000000000,-0.000000000,-2.264867095,0.609443590,0.000000025,-0.000000000,-0.000000000,0.000000000,-0.625090438,0.332427259,0.000000000,0.000000000,0.000000000,-0.000000171,0.000000000,-0.000000000,0.000000000,4.952460315,0.568471073,0.000000058,-0.000000000,-0.000000000,-0.000000000,5.004995647,0.186853677,0.000000000,0.000000000,0.000000000,0.000000000,0.000000000,0.000000000,8.240000000
1743536067.091139,-0.000000538,0.000000000,0.000000000,-0.000000000,-2.258759246,0.611880252,0.000000027,-0.000000000,-0.000000000,-0.000000000,-0.621765445,0.332556531,0.000000000,0.000000000,0.000000000,-0.000000165,0.000000000,-0.000000000,-0.000000000,4.958128945,0.565548680,0.000000059,-0.000000000,-0.000000000,-0.000000000,5.006852598,0.184747970,0.000000000,0.000000000,0.000000000,0.000000000,0.000000000,0.000000000,8.250000000
1743536067.101513,-0.000000539,0.000000000,0.000000000,-0.000000000,-2.252627107,0.614302888,0.000000028,-0.000000000,-0.000000000,-0.000000000,-0.618439221,0.332674702,0.000000000,0.000000000,0.000000000,-0.000000160,0.000000000,-0.000000000,0.000000000,4.963768401,0.562635484,0.000000059,-0.000000000,-0.000000000,-0.000000000,5.008688519,0.182647057,0.000000000,0.000000000,0.000000000,0.000000000,0.000000000,0.000000000,8.260000000
1743536067.111395,-0.000000539,0.000000000,0.000000000,0.000000000,-2.246470820,0.616711350,0.000000030,-0.000000000,-0.000000000,-0.000000000,-0.615111875,0.332781767,0.000000000,0.000000000,0.000000000,-0.000000155,0.000000000,-0.000000000,-0.000000000,4.969378777,0.559731531,0.000000060,-0.000000000,-0.000000000,-0.000000000,5.010503457,0.180550891,0.000000000,0.000000000,0.000000000,0.000000000,0.000000000,0.000000000,8.270000000
1743536067.121540,-0.000000540,0.000000000,0.000000000,-0.000000000,-2.240290527,0.619105491,0.000000032,-0.000000000,-0.000000000,-0.000000000,-0.611783521,0.332877720,0.000000000,0.000000000,0.000000000,-0.000000149,0.000000000,-0.000000000,-0.000000000,4.974960164,0.556836864,0.000000060,-0.000000000,-0.000000000,-0.000000000,5.012297459,0.178459424,0.000000000,0.000000000,0.000000000,0.000000000,0.000000000,0.000000000,8.280000000
1743536067.132195,-0.000000540,0.000000000,0.000000000,0.000000000,-2.234086371,0.621485165,0.000000033,-0.000000000,-0.000000000,0.000000000,-0.608454268,0.332962558,0.000000000,0.000000000,0.000000000,-0.000000144,0.000000000,-0.000000000,-0.000000000,4.980512655,0.553951525,0.000000061,-0.000000000,-0.000000000,-0.000000000,5.014070572,0.176372609,0.000000000,0.000000000,0.000000000,0.000000000,0.000000000,0.000000000,8.290000000
1743536067.142375,-0.000000541,0.000000000,0.000000000,-0.000000000,-2.227858500,0.623850224,0.000000035,-0.000000000,-0.000000000,-0.000000000,-0.605124228,0.333036276,0.000000000,0.000000000,0.000000000,-0.000000139,0.000000000,-0.000000000,-0.000000000,4.986036345,0.551075554,0.000000061,-0.000000000,-0.000000000,-0.000000000,5.015822842,0.174290397,0.000000000,0.000000000,0.000000000,0.000000000,0.000000000,0.000000000,8.300000000
1743536067.153236,-0.000000541,0.000000000,0.000000000,-0.000000000,-2.221607059,0.626200520,0.000000037,-0.000000000,-0.000000000,-0.000000000,-0.601793512,0.333098872,0.000000000,0.000000000,0.000000000,-0.000000134,0.000000000,-0.000000000,-0.000000000,4.991531327,0.548208991,0.000000061,-0.000000000,-0.000000000,-0.000000000,5.017554315,0.172212741,0.000000000,0.000000000,0.000000000,0.000000000,0.000000000,0.000000000,8.310000000
1743536067.163608,-0.000000542,0.000000000,0.000000000,-0.000000000,-2.215332197,0.628535906,0.000000038,-0.000000000,-0.000000000,-0.000000000,-0.598462231,0.333150343,0.000000000,0.000000000,0.000000000,-0.000000129,0.000000000,-0.000000000,-0.000000000,4.996997695,0.545351873,0.000000062,-0.000000000,-0.000000000,-0.000000000,5.019265036,0.170139593,0.000000000,0.000000000,0.000000000,0.000000000,0.000000000,0.000000000,8.320000000
1743536067.173147,-0.000000542,0.000000000,0.000000000,-0.000000000,-2.209034063,0.630856234,0.000000040,-0.000000000,-0.000000000,-0.000000000,-0.595130496,0.333190686,0.000000000,0.000000000,0.000000000,-0.000000124,0.000000000,-0.000000000,-0.000000000,5.002435544,0.542504235,0.000000062,-0.000000000,-0.000000000,-0.000000000,5.020955051,0.168070905,0.000000000,0.000000000,0.000000000,0.000000000,0.000000000,0.000000000,8.329000000
1743536067.183743,-0.000000542,0.000000000,0.000000000,-0.000000000,-2.202712810,0.633161356,0.000000042,-0.000000000,-0.000000000,0.000000000,-0.591798419,0.333219900,0.000000000,0.000000000,0.000000000,-0.000000120,0.000000000,-0.000000000,0.000000000,5.007844968,0.539666113,0.000000062,-0.000000000,-0.000000000,-0.000000000,5.022624403,0.166006627,0.000000000,0.000000000,0.000000000,0.000000000,0.000000000,0.000000000,8.340000000
1743536067.193940,-0.000000542,0.000000000,0.000000000,-0.000000000,-2.196368590,0.635451125,0.000000043,-0.000000000,-0.000000000,-0.000000000,-0.588466112,0.333237984,0.000000000,0.000000000,0.000000000,-0.000000115,0.000000000,-0.000000000,-0.000000000,5.013226065,0.536837539,0.000000063,-0.000000000,-0.000000000,-0.000000000,5.024273136,0.163946712,0.000000000,0.000000000,0.000000000,0.000000000,0.000000000,0.000000000,8.350000000
1743536067.204426,-0.000000542,0.000000000,0.000000000,-0.000000000,-2.190001557,0.637725393,0.000000045,-0.000000000,-0.000000000,-0.000000000,-0.585133684,0.333244936,0.000000000,0.000000000,0.000000000,-0.000000110,0.000000000,-0.000000000,0.000000000,5.018578928,0.534018545,0.000000063,-0.000000000,-0.000000000,-0.000000000,5.025901294,0.161891111,0.000000000,0.000000000,0.000000000,0.000000000,0.000000000,0.000000000,8.360000000
1743536067.214565,-0.000000542,0.000000000,0.000000000,0.000000000,-2.183611868,0.639984012,0.000000047,-0.000000000,-0.000000000,0.000000000,-0.581801249,0.333240756,0.000000000,0.000000000,0.000000000,-0.000000106,0.000000000,-0.000000000,-0.000000000,5.023903653,0.531209162,0.000000064,-0.000000000,-0.000000000,-0.000000000,5.027508919,0.159839775,0.000000000,0.000000000,0.000000000,0.000000000,0.000000000,0.000000000,8.370000000
1743536067.224189,-0.000000541,0.000000000,0.000000000,-0.000000000,-2.177199679,0.642226834,0.000000048,-0.000000000,-0.000000000,0.000000000,-0.578468916,0.333225444,0.000000000,0.000000000,0.000000000,-0.000000101,0.000000000,-0.000000000,-0.000000000,5.029200339,0.528409418,0.000000064,-0.000000000,-0.000000000,0.000000000,5.029096054,0.157792656,0.000000000,0.000000000,0.000000000,0.000000000,0.000000000,0.000000000,8.380000000
1743536067.234761,-0.000000541,0.000000000,0.000000000,-0.000000000,-2.170765150,0.644453712,0.000000050,-0.000000000,-0.000000000,-0.000000000,-0.575136798,0.333199002,0.000000000,0.000000000,0.000000000,-0.000000097,0.000000000,-0.000000000,-0.000000000,5.034469079,0.525619341,0.000000064,-0.000000000,-0.000000000,-0.000000000,5.030662741,0.155749705,0.000000000,0.000000000,0.000000000,0.000000000,0.000000000,0.000000000,8.390000000
1743536067.244939,-0.000000541,0.000000000,0.000000000,-0.000000000,-2.164308440,0.646664497,0.000000052,-0.000000000,-0.000000000,0.000000000,-0.571805006,0.333161429,0.000000000,0.000000000,0.000000000,-0.000000092,0.000000000,-0.000000000,0.000000000,5.039709973,0.522838957,0.000000064,-0.000000000,-0.000000000,-0.000000000,5.032209021,0.153710872,0.000000000,0.000000000,0.000000000,0.000000000,0.000000000,0.000000000,8.400000000
1743536067.255163,-0.000000540,0.000000000,0.000000000,-0.000000000,-2.157829712,0.648859043,0.000000053,-0.000000000,-0.000000000,0.000000000,-0.568473650,0.333112729,0.000000000,0.000000000,0.000000000,-0.000000088,0.000000000,-0.000000000,-0.000000000,5.044923115,0.520068291,0.000000065,-0.000000000,-0.000000000,-0.000000000,5.033734935,0.151676109,0.000000000,0.000000000,0.000000000,0.000000000,0.000000000,0.000000000,8.410000000
1743536067.265641,-0.000000540,0.000000000,0.000000000,-0.000000000,-2.151329128,0.651037202,0.000000055,-0.000000000,-0.000000000,0.000000000,-0.565142843,0.333052903,0.000000000,0.000000000,0.000000000,-0.000000084,0.000000000,-0.000000000,0.000000000,5.050108605,0.517307367,0.000000065,-0.000000000,-0.000000000,-0.000000000,5.035240524,0.149645367,0.000000000,0.000000000,0.000000000,0.000000000,0.000000000,0.000000000,8.420000000
1743536067.275892,-0.000000539,0.000000000,0.000000000,-0.000000000,-2.144806853,0.653198826,0.000000057,-0.000000000,-0.000000000,-0.000000000,-0.561812695,0.332981954,0.000000000,0.000000000,0.000000000,-0.000000080,0.000000000,-0.000000000,-0.000000000,5.055266539,0.514556207,0.000000065,-0.000000000,-0.000000000,-0.000000000,5.036725827,0.147618596,0.000000000,0.000000000,0.000000000,0.000000000,0.000000000,0.000000000,8.430000000
1743536067.286765,-0.000000538,0.000000000,-0.000000000,-0.000000000,-2.138263054,0.655343770,0.000000058,-0.000000000,-0.000000000,0.000000000,-0.558483317,0.332899885,0.000000000,0.000000000,0.000000000,-0.000000075,0.000000000,-0.000000000,-0.000000000,5.060397016,0.511814832,0.000000066,-0.000000000,-0.000000000,-0.000000000,5.038190884,0.145595747,0.000000000,0.000000000,0.000000000,0.000000000,0.000000000,0.000000000,8.440000000
1743536067.297003,-0.000000537,0.000000000,-0.000000000,-0.000000000,-2.131697898,0.657471886,0.000000060,-0.000000000,-0.000000000,0.000000000,-0.555154822,0.332806699,0.000000000,0.000000000,0.000000000,-0.000000071,0.000000000,-0.000000000,-0.000000000,5.065500132,0.509083263,0.000000066,-0.000000000,-0.000000000,-0.000000000,5.039635734,0.143576770,0.000000000,0.000000000,0.000000000,0.000000000,0.000000000,0.000000000,8.450000000
1743536067.307544,-0.000000536,0.000000000,-0.000000000,-0.000000000,-2.125111554,0.659583027,0.000000062,-0.000000000,-0.000000000,0.000000000,-0.551827319,0.332702401,0.000000000,0.000000000,0.000000000,-0.000000067,0.000000000,-0.000000000,0.000000000,5.070575987,0.506361517,0.000000066,-0.000000000,-0.000000000,-0.000000000,5.041060415,0.141561617,0.000000000,0.000000000,0.000000000,0.000000000,0.000000000,0.000000000,8.460000000
1743536067.317755,-0.000000535,0.000000000,-0.000000000,-0.000000000,-2.118504192,0.661677048,0.000000063,-0.000000000,-0.000000000,0.000000000,-0.548500921,0.332586995,0.000000000,0.000000000,0.000000000,-0.000000063,0.000000000,-0.000000000,-0.000000000,5.075624679,0.503649612,0.000000066,-0.000000000,-0.000000000,-0.000000000,5.042464966,0.139550236,0.000000000,0.000000000,0.000000000,0.000000000,0.000000000,0.000000000,8.470000000
1743536067.327957,-0.000000534,0.000000000,-0.000000000,-0.000000000,-2.111875985,0.663753802,0.000000065,-0.000000000,-0.000000000,-0.000000000,-0.545175737,0.332460487,0.000000000,0.000000000,0.000000000,-0.000000059,0.000000000,-0.000000000,-0.000000000,5.080646306,0.500947564,0.000000067,-0.000000000,-0.000000000,-0.000000000,5.043849423,0.137542580,0.000000000,0.000000000,0.000000000,0.000000000,0.000000000,0.000000000,8.480000000
1743536067.338408,-0.000000533,0.000000000,-0.000000000,0.000000000,-2.105227106,0.665813145,0.000000067,-0.000000000,-0.000000000,0.000000000,-0.541851880,0.332322882,0.000000000,0.000000000,0.000000000,-0.000000056,0.000000000,-0.000000000,-0.000000000,5.085640966,0.498255389,0.000000067,-0.000000000,-0.000000000,-0.000000000,5.045213824,0.135538598,0.000000000,0.000000000,0.000000000,0.000000000,0.000000000,0.000000000,8.490000000
1743536067.348555,-0.000000531,0.000000000,-0.000000000,0.000000000,-2.098557730,0.667854930,0.000000068,-0.000000000,-0.000000000,0.000000000,-0.538529460,0.332174186,0.000000000,0.000000000,0.000000000,-0.000000052,0.000000000,-0.000000000,-0.000000000,5.090608759,0.495573101,0.000000067,-0.000000000,-0.000000000,-0.000000000,5.046558205,0.133538239,0.000000000,0.000000000,0.000000000,0.000000000,0.000000000,0.000000000,8.500000000
1743536067.359061,-0.000000530,0.000000000,-0.000000000,0.000000000,-2.091868034,0.669879014,0.000000070,-0.000000000,-0.000000000,0.000000000,-0.535208588,0.332014406,0.000000000,0.000000000,0.000000000,-0.000000048,0.000000000,-0.000000000,0.000000000,5.095549784,0.492900712,0.000000067,-0.000000000,-0.000000000,-0.000000000,5.047882602,0.131541455,0.000000000,0.000000000,0.000000000,0.000000000,0.000000000,0.000000000,8.510000000
1743536067.368635,-0.000000528,0.000000000,-0.000000000,-0.000000000,-2.085158195,0.671885251,0.000000072,-0.000000000,-0.000000000,0.000000000,-0.531889374,0.331843549,0.000000000,0.000000000,0.000000000,-0.000000045,0.000000000,-0.000000000,0.000000000,5.100464139,0.490238234,0.000000068,-0.000000000,-0.000000000,-0.000000000,5.049187051,0.129548196,0.000000000,0.000000000,0.000000000,0.000000000,0.000000000,0.000000000,8.520000000
1743536067.379349,-0.000000527,0.000000000,-0.000000000,0.000000000,-2.078428392,0.673873498,0.000000073,-0.000000000,-0.000000000,0.000000000,-0.528571930,0.331661622,0.000000000,0.000000000,0.000000000,-0.000000041,0.000000000,-0.000000000,-0.000000000,5.105351924,0.487585678,0.000000068,-0.000000000,-0.000000000,-0.000000000,5.050471586,0.127558411,0.000000000,0.000000000,0.000000000,0.000000000,0.000000000,0.000000000,8.530000000
1743536067.389333,-0.000000525,0.000000000,-0.000000000,0.000000000,-2.071678806,0.675843612,0.000000075,-0.000000000,-0.000000000,0.000000000,-0.525256366,0.331468634,0.000000000,0.000000000,0.000000000,-0.000000037,0.000000000,-0.000000000,-0.000000000,5.110213239,0.484943053,0.000000068,-0.000000000,-0.000000000,-0.000000000,5.051736243,0.125572049,0.000000000,0.000000000,0.000000000,0.000000000,0.000000000,0.000000000,8.540000000
1743536067.399430,-0.000000523,0.000000000,-0.000000000,-0.000000000,-2.064909620,0.677795449,0.000000077,-0.000000000,-0.000000000,0.000000000,-0.521942793,0.331264594,0.000000000,0.000000000,0.000000000,-0.000000034,0.000000000,-0.000000000,0.000000000,5.115048181,0.482310368,0.000000068,-0.000000000,-0.000000000,-0.000000000,5.052981054,0.123589062,0.000000000,0.000000000,0.000000000,0.000000000,0.000000000,0.000000000,8.550000000
1743536067.410179,-0.000000521,0.000000000,-0.000000000,-0.000000000,-2.058121016,0.679728867,0.000000078,-0.000000000,-0.000000000,0.000000000,-0.518631321,0.331049509,0.000000000,0.000000000,0.000000000,-0.000000030,0.000000000,-0.000000000,0.000000000,5.119856852,0.479687630,0.000000069,-0.000000000,-0.000000000,-0.000000000,5.054206054,0.121609399,0.000000000,0.000000000,0.000000000,0.000000000,0.000000000,0.000000000,8.560000000
1743536067.420318,-0.000000519,0.000000000,-0.000000000,0.000000000,-2.051313181,0.681643726,0.000000080,-0.000000000,-0.000000000,0.000000000,-0.515322061,0.330823390,0.000000000,0.000000000,0.000000000,-0.000000027,0.000000000,-0.000000000,0.000000000,5.124639349,0.477074845,0.000000069,-0.000000000,-0.000000000,-0.000000000,5.055411275,0.119633009,0.000000000,0.000000000,0.000000000,0.000000000,0.000000000,0.000000000,8.570000000
1743536067.431074,-0.000000517,0.000000000,-0.000000000,-0.000000000,-2.044486299,0.683539882,0.000000081,-0.000000000,-0.000000000,0.000000000,-0.512015122,0.330586247,0.000000000,0.000000000,0.000000000,-0.000000024,0.000000000,-0.000000000,-0.000000000,5.129395774,0.474472020,0.000000069,-0.000000000,-0.000000000,-0.000000000,5.056596750,0.117659842,0.000000000,0.000000000,0.000000000,0.000000000,0.000000000,0.000000000,8.580000000
1743536067.440750,-0.000000514,0.000000000,-0.000000000,0.000000000,-2.037640559,0.685417197,0.000000083,-0.000000000,-0.000000000,0.000000000,-0.508710615,0.330338090,0.000000000,0.000000000,0.000000000,-0.000000021,0.000000000,-0.000000000,-0.000000000,5.134126225,0.471879158,0.000000069,-0.000000000,-0.000000000,-0.000000000,5.057762511,0.115689849,0.000000000,0.000000000,0.000000000,0.000000000,0.000000000,0.000000000,8.590000000
1743536067.450908,-0.000000512,0.000000000,-0.000000000,-0.000000000,-2.030776151,0.687275529,0.000000085,-0.000000000,-0.000000000,0.000000000,-0.505408651,0.330078930,0.000000000,0.000000000,0.000000000,-0.000000017,0.000000000,-0.000000000,-0.000000000,5.138830803,0.469296263,0.000000069,-0.000000000,-0.000000000,-0.000000000,5.058908589,0.113722977,0.000000000,0.000000000,0.000000000,0.000000000,0.000000000,0.000000000,8.600000000
1743536067.462099,-0.000000509,0.000000000,-0.000000000,-0.000000000,-2.023893264,0.689114741,0.000000086,-0.000000000,-0.000000000,-0.000000000,-0.502109338,0.329808779,0.000000000,0.000000000,0.000000000,-0.000000014,0.000000000,-0.000000000,0.000000000,5.143509606,0.466723337,0.000000069,-0.000000000,-0.000000000,-0.000000000,5.060035015,0.111759177,0.000000000,0.000000000,0.000000000,0.000000000,0.000000000,0.000000000,8.610000000
1743536067.471630,-0.000000507,0.000000000,-0.000000000,0.000000000,-2.016992091,0.690934693,0.000000088,-0.000000000,-0.000000000,0.000000000,-0.498812788,0.329527648,0.000000000,0.000000000,0.000000000,-0.000000011,0.000000000,-0.000000000,0.000000000,5.148162735,0.464160383,0.000000070,-0.000000000,-0.000000000,-0.000000000,5.061141820,0.109798398,0.000000000,0.000000000,0.000000000,0.000000000,0.000000000,0.000000000,8.620000000
1743536067.482458,-0.000000504,0.000000000,-0.000000000,-0.000000000,-2.010072825,0.692735248,0.000000089,-0.000000000,-0.000000000,0.000000000,-0.495519109,0.329235550,0.000000000,0.000000000,0.000000000,-0.000000008,0.000000000,-0.000000000,0.000000000,5.152790289,0.461607399,0.000000070,-0.000000000,-0.000000000,-0.000000000,5.062229034,0.107840590,0.000000000,0.000000000,0.000000000,0.000000000,0.000000000,0.000000000,8.630000000
1743536067.492496,-0.000000501,0.000000000,-0.000000000,-0.000000000,-2.003135661,0.694516270,0.000000091,-0.000000000,-0.000000000,0.000000000,-0.492228411,0.328932499,0.000000000,0.000000000,0.000000000,-0.000000005,0.000000000,-0.000000000,0.000000000,5.157392368,0.459064388,0.000000070,-0.000000000,-0.000000000,-0.000000000,5.063296685,0.105885702,0.000000000,0.000000000,0.000000000,0.000000000,0.000000000,0.000000000,8.640000000
1743536067.502628,-0.000000498,0.000000000,-0.000000000,0.000000000,-1.996180794,0.696277621,0.000000093,-0.000000000,-0.000000000,-0.000000000,-0.488940804,0.328618506,0.000000000,0.000000000,0.000000000,-0.000000002,0.000000000,-0.000000000,0.000000000,5.161969072,0.456531346,0.000000070,-0.000000000,-0.000000000,-0.000000000,5.064344804,0.103933683,0.000000000,0.000000000,0.000000000,0.000000000,0.000000000,0.000000000,8.650000000
1743536067.513737,-0.000000495,0.000000000,-0.000000000,-0.000000000,-1.989208423,0.698019168,0.000000094,-0.000000000,-0.000000000,0.000000000,-0.485656397,0.328293587,0.000000000,0.000000000,0.000000000,0.000000001,0.000000000,-0.000000000,0.000000000,5.166520501,0.454008272,0.000000070,-0.000000000,-0.000000000,0.000000000,5.065373418,0.101984483,0.000000000,0.000000000,0.000000000,0.000000000,0.000000000,0.000000000,8.660000000
1743536067.523973,-0.000000492,0.000000000,-0.000000000,-0.000000000,-1.982218746,0.699740775,0.000000096,-0.000000000,-0.000000000,0.000000000,-0.482375299,0.327957755,0.000000000,0.000000000,0.000000000,0.000000004,0.000000000,-0.000000000,0.000000000,5.171046753,0.451495163,0.000000070,-0.000000000,-0.000000000,-0.000000000,5.066382555,0.100038050,0.000000000,0.000000000,0.000000000,0.000000000,0.000000000,0.000000000,8.670000000
1743536067.534306,-0.000000489,0.000000000,-0.000000000,-0.000000000,-1.975211963,0.701442309,0.000000097,-0.000000000,-0.000000000,0.000000000,-0.479097619,0.327611025,0.000000000,0.000000000,0.000000000,0.000000006,0.000000000,-0.000000000,0.000000000,5.175547929,0.448992015,0.000000071,-0.000000000,-0.000000000,-0.000000000,5.067372243,0.098094334,0.000000000,0.000000000,0.000000000,0.000000000,0.000000000,0.000000000,8.680000000
1743536067.544563,-0.000000486,0.000000000,-0.000000000,0.000000000,-1.968188276,0.703123638,0.000000099,-0.000000000,-0.000000000,0.000000000,-0.475823467,0.327253413,0.000000000,0.000000000,0.000000000,0.000000009,0.000000000,-0.000000000,-0.000000000,5.180024128,0.446498824,0.000000071,-0.000000000,-0.000000000,-0.000000000,5.068342508,0.096153283,0.000000000,0.000000000,0.000000000,0.000000000,0.000000000,0.000000000,8.690000000
1743536067.555329,-0.000000482,0.000000000,-0.000000000,-0.000000000,-1.961147888,0.704784631,0.000000101,-0.000000000,-0.000000000,0.000000000,-0.472552951,0.326884933,0.000000000,0.000000000,0.000000000,0.000000012,0.000000000,-0.000000000,0.000000000,5.184475451,0.444015585,0.000000071,-0.000000000,-0.000000000,-0.000000000,5.069293378,0.094214848,0.000000000,0.000000000,0.000000000,0.000000000,0.000000000,0.000000000,8.700000000
1743536067.565733,-0.000000479,0.000000000,-0.000000000,-0.000000000,-1.954091001,0.706425157,0.000000102,-0.000000000,-0.000000000,0.000000000,-0.469286179,0.326505604,0.000000000,0.000000000,0.000000000,0.000000015,0.000000000,-0.000000000,0.000000000,5.188901995,0.441542290,0.000000071,-0.000000000,-0.000000000,-0.000000000,5.070224877,0.092278976,0.000000000,0.000000000,0.000000000,0.000000000,0.000000000,0.000000000,8.710000000
1743536067.575871,-0.000000475,0.000000000,-0.000000000,-0.000000000,-1.947017823,0.708045086,0.000000104,-0.000000000,-0.000000000,0.000000000,-0.466023260,0.326115440,0.000000000,0.000000000,0.000000000,0.000000017,0.000000000,-0.000000000,0.000000000,5.193303861,0.439078933,0.000000071,-0.000000000,-0.000000000,-0.000000000,5.071137031,0.090345618,0.000000000,0.000000000,0.000000000,0.000000000,0.000000000,0.000000000,8.720000000
1743536067.585815,-0.000000472,0.000000000,-0.000000000,-0.000000000,-1.939928560,0.709644291,0.000000105,-0.000000000,-0.000000000,0.000000000,-0.462764302,0.325714459,0.000000000,0.000000000,0.000000000,0.000000020,0.000000000,-0.000000000,0.000000000,5.197681149,0.436625506,0.000000071,-0.000000000,-0.000000000,-0.000000000,5.072029865,0.088414721,0.000000000,0.000000000,0.000000000,0.000000000,0.000000000,0.000000000,8.730000000
1743536067.596024,-0.000000468,0.000000000,-0.000000000,-0.000000000,-1.932823419,0.711222643,0.000000107,-0.000000000,-0.000000000,0.000000000,-0.459509413,0.325302678,0.000000000,0.000000000,0.000000000,0.000000022,0.000000000,-0.000000000,0.000000000,5.202033956,0.434182001,0.000000071,-0.000000000,-0.000000000,-0.000000000,5.072903404,0.086486235,0.000000000,0.000000000,0.000000000,0.000000000,0.000000000,0.000000000,8.740000000
1743536067.607000,-0.000000464,0.000000000,-0.000000000,-0.000000000,-1.925702609,0.712780018,0.000000108,-0.000000000,-0.000000000,0.000000000,-0.456258701,0.324880116,0.000000000,0.000000000,0.000000000,0.000000025,0.000000000,-0.000000000,0.000000000,5.206362383,0.431748408,0.000000071,-0.000000000,-0.000000000,-0.000000000,5.073757670,0.084560109,0.000000000,0.000000000,0.000000000,0.000000000,0.000000000,0.000000000,8.750000000
1743536067.616693,-0.000000460,0.000000000,-0.000000000,0.000000000,-1.918566342,0.714316289,0.000000110,-0.000000000,-0.000000000,-0.000000000,-0.453012275,0.324446792,0.000000000,0.000000000,0.000000000,0.000000027,0.000000000,-0.000000000,0.000000000,5.210666529,0.429324717,0.000000072,-0.000000000,-0.000000000,-0.000000000,5.074592689,0.082636292,0.000000000,0.000000000,0.000000000,0.000000000,0.000000000,0.000000000,8.760000000
1743536067.626857,-0.000000456,0.000000000,-0.000000000,-0.000000000,-1.911414829,0.715831333,0.000000111,-0.000000000,-0.000000000,0.000000000,-0.449770240,0.324002723,0.000000000,0.000000000,0.000000000,0.000000029,-0.000000000,-0.000000000,0.000000000,5.214946492,0.426910917,0.000000072,-0.000000000,-0.000000000,-0.000000000,5.075408481,0.080714731,0.000000000,0.000000000,0.000000000,0.000000000,0.000000000,0.000000000,8.770000000
1743536067.637607,-0.000000451,0.000000000,-0.000000000,-0.000000000,-1.904248283,0.717325028,0.000000113,-0.000000000,-0.000000000,0.000000000,-0.446532706,0.323547930,0.000000000,0.000000000,0.000000000,0.000000032,-0.000000000,-0.000000000,0.000000000,5.219202372,0.424506997,0.000000072,-0.000000000,-0.000000000,-0.000000000,5.076205070,0.078795377,0.000000000,0.000000000,0.000000000,0.000000000,0.000000000,0.000000000,8.780000000
1743536067.647189,-0.000000447,0.000000000,-0.000000000,0.000000000,-1.897066917,0.718797252,0.000000114,-0.000000000,-0.000000000,0.000000000,-0.443299778,0.323082431,0.000000000,0.000000000,0.000000000,0.000000034,-0.000000000,-0.000000000,0.000000000,5.223434266,0.422112945,0.000000072,-0.000000000,-0.000000000,-0.000000000,5.076982478,0.076878177,0.000000000,0.000000000,0.000000000,0.000000000,0.000000000,0.000000000,8.790000000
1743536067.658115,-0.000000443,0.000000000,-0.000000000,-0.000000000,-1.889870948,0.720247885,0.000000116,-0.000000000,-0.000000000,0.000000000,-0.440071564,0.322606249,0.000000000,0.000000000,0.000000000,0.000000036,-0.000000000,-0.000000000,-0.000000000,5.227642274,0.419728748,0.000000072,-0.000000000,-0.000000000,-0.000000000,5.077740725,0.074963082,0.000000000,0.000000000,0.000000000,0.000000000,0.000000000,0.000000000,8.800000000
1743536067.668356,-0.000000438,0.000000000,-0.000000000,-0.000000000,-1.882660592,0.721676809,0.000000117,-0.000000000,-0.000000000,0.000000000,-0.436848170,0.322119402,0.000000000,0.000000000,0.000000000,0.000000038,-0.000000000,-0.000000000,-0.000000000,5.231826495,0.417354391,0.000000072,-0.000000000,-0.000000000,-0.000000000,5.078479832,0.073050038,0.000000000,0.000000000,0.000000000,0.000000000,0.000000000,0.000000000,8.810000000
1743536067.678518,-0.000000434,0.000000000,-0.000000000,-0.000000000,-1.875436067,0.723083906,0.000000119,-0.000000000,-0.000000000,0.000000000,-0.433629703,0.321621913,0.000000000,0.000000000,0.000000000,0.000000041,-0.000000000,-0.000000000,0.000000000,5.235987026,0.414989862,0.000000072,-0.000000000,-0.000000000,-0.000000000,5.079199820,0.071138995,0.000000000,0.000000000,0.000000000,0.000000000,0.000000000,0.000000000,8.820000000
1743536067.688914,-0.000000429,0.000000000,-0.000000000,-0.000000000,-1.868197592,0.724469059,0.000000120,-0.000000000,-0.000000000,0.000000000,-0.430416270,0.321113802,0.000000000,0.000000000,0.000000000,0.000000043,-0.000000000,-0.000000000,0.000000000,5.240123965,0.412635145,0.000000072,-0.000000000,-0.000000000,-0.000000000,5.079900708,0.069229902,0.000000000,0.000000000,0.000000000,0.000000000,0.000000000,0.000000000,8.830000000
1743536067.699142,-0.000000424,0.000000000,-0.000000000,-0.000000000,-1.860945386,0.725832155,0.000000122,-0.000000000,-0.000000000,-0.000000000,-0.427207976,0.320595093,0.000000000,0.000000000,0.000000000,0.000000045,-0.000000000,-0.000000000,-0.000000000,5.244237412,0.410290225,0.000000072,-0.000000000,-0.000000000,-0.000000000,5.080582516,0.067322707,0.000000000,0.000000000,0.000000000,0.000000000,0.000000000,0.000000000,8.840000000
1743536067.709795,-0.000000419,0.000000000,-0.000000000,0.000000000,-1.853679671,0.727173080,0.000000123,-0.000000000,-0.000000000,0.000000000,-0.424004928,0.320065807,0.000000000,0.000000000,0.000000000,0.000000047,-0.000000000,-0.000000000,-0.000000000,5.248327463,0.407955085,0.000000072,-0.000000000,-0.000000000,-0.000000000,5.081245263,0.065417359,0.000000000,0.000000000,0.000000000,0.000000000,0.000000000,0.000000000,8.850000000
1743536067.719993,-0.000000414,0.000000000,-0.000000000,0.000000000,-1.846400669,0.728491722,0.000000125,-0.000000000,-0.000000000,-0.000000000,-0.420807230,0.319525967,0.000000000,0.000000000,0.000000000,0.000000049,-0.000000000,-0.000000000,0.000000000,5.252394216,0.405629710,0.000000072,-0.000000000,-0.000000000,-0.000000000,5.081888965,0.063513805,0.000000000,0.000000000,0.000000000,0.000000000,0.000000000,0.000000000,8.860000000
1743536067.730203,-0.000000409,0.000000000,-0.000000000,-0.000000000,-1.839108604,0.729787971,0.000000126,-0.000000000,-0.000000000,0.000000000,-0.417614989,0.318975597,0.000000000,0.000000000,0.000000000,0.000000051,-0.000000000,-0.000000000,0.000000000,5.256437769,0.403314081,0.000000072,-0.000000000,-0.000000000,-0.000000000,5.082513642,0.061611996,0.000000000,0.000000000,0.000000000,0.000000000,0.000000000,0.000000000,8.870000000
1743536067.741157,-0.000000404,0.000000000,-0.000000000,-0.000000000,-1.831803700,0.731061718,0.000000128,-0.000000000,-0.000000000,0.000000000,-0.414428309,0.318414720,0.000000000,0.000000000,0.000000000,0.000000053,-0.000000000,-0.000000000,0.000000000,5.260458219,0.401008181,0.000000073,-0.000000000,-0.000000000,-0.000000000,5.083119310,0.059711879,0.000000000,0.000000000,0.000000000,0.000000000,0.000000000,0.000000000,8.880000000
1743536067.751432,-0.000000399,0.000000000,-0.000000000,-0.000000000,-1.824486183,0.732312856,0.000000129,-0.000000000,-0.000000000,0.000000000,-0.411247295,0.317843360,0.000000000,0.000000000,0.000000000,0.000000054,-0.000000000,-0.000000000,0.000000000,5.264455664,0.398711991,0.000000073,-0.000000000,-0.000000000,-0.000000000,5.083705986,0.057813403,0.000000000,0.000000000,0.000000000,0.000000000,0.000000000,0.000000000,8.890000000
1743536067.762045,-0.000000393,0.000000000,-0.000000000,0.000000000,-1.817156279,0.733541278,0.000000130,-0.000000000,-0.000000000,0.000000000,-0.408072053,0.317261543,0.000000000,0.000000000,0.000000000,0.000000056,-0.000000000,-0.000000000,0.000000000,5.268430200,0.396425492,0.000000073,-0.000000000,-0.000000000,-0.000000000,5.084273685,0.055916517,0.000000000,0.000000000,0.000000000,0.000000000,0.000000000,0.000000000,8.900000000
1743536067.772186,-0.000000388,0.000000000,-0.000000000,-0.000000000,-1.809814217,0.734746882,0.000000132,-0.000000000,-0.000000000,0.000000000,-0.404902687,0.316669293,0.000000000,0.000000000,0.000000000,0.000000058,-0.000000000,-0.000000000,0.000000000,5.272381925,0.394148666,0.000000073,-0.000000000,-0.000000000,-0.000000000,5.084822425,0.054021168,0.000000000,0.000000000,0.000000000,0.000000000,0.000000000,0.000000000,8.910000000
1743536067.781703,-0.000000382,0.000000000,-0.000000000,-0.000000000,-1.802460224,0.735929564,0.000000133,-0.000000000,-0.000000000,0.000000000,-0.401739300,0.316066635,0.000000000,0.000000000,0.000000000,0.000000060,-0.000000000,-0.000000000,-0.000000000,5.276310934,0.391881491,0.000000073,-0.000000000,-0.000000000,-0.000000000,5.085352219,0.052127305,0.000000000,0.000000000,0.000000000,0.000000000,0.000000000,0.000000000,8.920000000
1743536067.792309,-0.000000377,0.000000000,-0.000000000,-0.000000000,-1.795094532,0.737089224,0.000000134,-0.000000000,-0.000000000,-0.000000000,-0.398581997,0.315453595,0.000000000,0.000000000,0.000000000,0.000000061,-0.000000000,-0.000000000,-0.000000000,5.280217324,0.389623947,0.000000073,-0.000000000,-0.000000000,-0.000000000,5.085863083,0.050234877,0.000000000,0.000000000,0.000000000,0.000000000,0.000000000,0.000000000,8.930000000
1743536067.802391,-0.000000371,0.000000000,-0.000000000,0.000000000,-1.787717369,0.738225762,0.000000136,-0.000000000,-0.000000000,0.000000000,-0.395430881,0.314830200,0.000000000,0.000000000,0.000000000,0.000000063,-0.000000000,-0.000000000,0.000000000,5.284101192,0.387376014,0.000000073,-0.000000000,-0.000000000,-0.000000000,5.086355030,0.048343832,0.000000000,0.000000000,0.000000000,0.000000000,0.000000000,0.000000000,8.940000000
1743536067.811950,-0.000000365,0.000000000,-0.000000000,-0.000000000,-1.780328969,0.739339081,0.000000137,-0.000000000,-0.000000000,-0.000000000,-0.392286056,0.314196477,0.000000000,0.000000000,0.000000000,0.000000065,-0.000000000,-0.000000000,0.000000000,5.287962634,0.385137668,0.000000073,-0.000000000,-0.000000000,-0.000000000,5.086828073,0.046454118,0.000000000,0.000000000,0.000000000,0.000000000,0.000000000,0.000000000,8.950000000
1743536067.821974,-0.000000359,0.000000000,-0.000000000,-0.000000000,-1.772929564,0.740429084,0.000000139,-0.000000000,-0.000000000,0.000000000,-0.389147625,0.313552451,0.000000000,0.000000000,0.000000000,0.000000066,-0.000000000,-0.000000000,-0.000000000,5.291801744,0.382908889,0.000000073,-0.000000000,-0.000000000,-0.000000000,5.087282227,0.044565685,0.000000000,0.000000000,0.000000000,0.000000000,0.000000000,0.000000000,8.960000000
1743536067.832513,-0.000000353,0.000000000,-0.000000000,-0.000000000,-1.765519388,0.741495678,0.000000140,-0.000000000,-0.000000000,0.000000000,-0.386015690,0.312898152,0.000000000,0.000000000,0.000000000,0.000000068,-0.000000000,-0.000000000,0.000000000,5.295618619,0.380689654,0.000000073,-0.000000000,-0.000000000,-0.000000000,5.087717503,0.042678479,0.000000000,0.000000000,0.000000000,0.000000000,0.000000000,0.000000000,8.970000000
1743536067.842573,-0.000000347,0.000000000,-0.000000000,-0.000000000,-1.758098674,0.742538771,0.000000141,-0.000000000,-0.000000000,0.000000000,-0.382890355,0.312233605,0.000000000,0.000000000,0.000000000,0.000000069,-0.000000000,-0.000000000,0.000000000,5.299413355,0.378479940,0.000000073,-0.000000000,-0.000000000,-0.000000000,5.088133914,0.040792450,0.000000000,0.000000000,0.000000000,0.000000000,0.000000000,0.000000000,8.980000000
1743536067.852067,-0.000000341,0.000000000,-0.000000000,-0.000000000,-1.750667660,0.743558272,0.000000143,-0.000000000,-0.000000000,0.000000000,-0.379771722,0.311558841,0.000000000,0.000000000,0.000000000,0.000000071,-0.000000000,-0.000000000,-0.000000000,5.303186045,0.376279723,0.000000073,-0.000000000,-0.000000000,-0.000000000,5.088531471,0.038907545,0.000000000,0.000000000,0.000000000,0.000000000,0.000000000,0.000000000,8.990000000
1743536067.862096,-0.000000335,0.000000000,-0.000000000,-0.000000000,-1.743226581,0.744554092,0.000000144,-0.000000000,-0.000000000,-0.000000000,-0.376659892,0.310873887,0.000000000,0.000000000,0.000000000,0.000000072,-0.000000000,-0.000000000,0.000000000,5.306936785,0.374088979,0.000000073,-0.000000000,-0.000000000,-0.000000000,5.088910184,0.037023714,0.000000000,0.000000000,0.000000000,0.000000000,0.000000000,0.000000000,9.000000000
1743536067.872165,-0.000000329,0.000000000,-0.000000000,0.000000000,-1.735775674,0.745526145,0.000000145,-0.000000000,-0.000000000,0.000000000,-0.373554968,0.310178773,0.000000000,0.000000000,0.000000000,0.000000074,-0.000000000,-0.000000000,0.000000000,5.310665670,0.371907683,0.000000073,-0.000000000,-0.000000000,-0.000000000,5.089270065,0.035140905,0.000000000,0.000000000,0.000000000,0.000000000,0.000000000,0.000000000,9.009000000
1743536067.882178,-0.000000322,0.000000000,-0.000000000,-0.000000000,-1.728315177,0.746474344,0.000000146,-0.000000000,-0.000000000,-0.000000000,-0.370457051,0.309473527,0.000000000,0.000000000,0.000000000,0.000000075,-0.000000000,-0.000000000,0.000000000,5.314372794,0.369735812,0.000000073,-0.000000000,-0.000000000,-0.000000000,5.089611123,0.033259065,0.000000000,0.000000000,0.000000000,0.000000000,0.000000000,0.000000000,9.020000000
1743536067.892175,-0.000000316,0.000000000,-0.000000000,-0.000000000,-1.720845331,0.747398608,0.000000148,-0.000000000,-0.000000000,0.000000000,-0.367366242,0.308758181,0.000000000,0.000000000,0.000000000,0.000000077,-0.000000000,-0.000000000,0.000000000,5.318058251,0.367573339,0.000000073,-0.000000000,-0.000000000,-0.000000000,5.089933368,0.031378143,0.000000000,0.000000000,0.000000000,0.000000000,0.000000000,0.000000000,9.029000000
1743536067.902170,-0.000000309,0.000000000,-0.000000000,0.000000000,-1.713366374,0.748298855,0.000000149,-0.000000000,-0.000000000,0.000000000,-0.364282642,0.308032763,0.000000000,0.000000000,0.000000000,0.000000078,-0.000000000,-0.000000000,0.000000000,5.321722134,0.365420240,0.000000073,-0.000000000,-0.000000000,-0.000000000,5.090236809,0.029498087,0.000000000,0.000000000,0.000000000,0.000000000,0.000000000,0.000000000,9.040000000
1743536067.912181,-0.000000303,0.000000000,-0.000000000,-0.000000000,-1.705878546,0.749175006,0.000000150,-0.000000000,-0.000000000,0.000000000,-0.361206351,0.307297304,0.000000000,0.000000000,0.000000000,0.000000079,-0.000000000,-0.000000000,0.000000000,5.325364538,0.363276487,0.000000073,-0.000000000,-0.000000000,-0.000000000,5.090521453,0.027618846,0.000000000,0.000000000,0.000000000,0.000000000,0.000000000,0.000000000,9.050000000
1743536067.922748,-0.000000296,0.000000000,-0.000000000,-0.000000000,-1.698382090,0.750026982,0.000000152,-0.000000000,-0.000000000,-0.000000000,-0.358137470,0.306551836,0.000000000,0.000000000,0.000000000,0.000000081,-0.000000000,-0.000000000,0.000000000,5.328985556,0.361142055,0.000000073,-0.000000000,-0.000000000,-0.000000000,5.090787309,0.025740368,0.000000000,0.000000000,0.000000000,0.000000000,0.000000000,0.000000000,9.060000000
1743536067.932834,-0.000000289,0.000000000,-0.000000000,-0.000000000,-1.690877248,0.750854710,0.000000153,-0.000000000,-0.000000000,-0.000000000,-0.355076098,0.305796390,0.000000000,0.000000000,0.000000000,0.000000082,-0.000000000,-0.000000000,0.000000000,5.332585281,0.359016917,0.000000073,-0.000000000,-0.000000000,-0.000000000,5.091034385,0.023862601,0.000000000,0.000000000,0.000000000,0.000000000,0.000000000,0.000000000,9.070000000
1743536067.942944,-0.000000282,0.000000000,-0.000000000,-0.000000000,-1.683364262,0.751658115,0.000000154,-0.000000000,-0.000000000,-0.000000000,-0.352022335,0.305030997,0.000000000,0.000000000,0.000000000,0.000000083,-0.000000000,-0.000000000,0.000000000,5.336163805,0.356901045,0.000000073,-0.000000000,-0.000000000,-0.000000000,5.091262686,0.021985493,0.000000000,0.000000000,0.000000000,0.000000000,0.000000000,0.000000000,9.080000000
1743536067.953130,-0.000000276,0.000000000,-0.000000000,-0.000000000,-1.675843376,0.752437127,0.000000155,-0.000000000,-0.000000000,0.000000000,-0.348976282,0.304255689,0.000000000,0.000000000,0.000000000,0.000000084,-0.000000000,-0.000000000,0.000000000,5.339721221,0.354794412,0.000000073,-0.000000000,-0.000000000,-0.000000000,5.091472220,0.020108992,0.000000000,0.000000000,0.000000000,0.000000000,0.000000000,0.000000000,9.090000000
1743536067.963923,-0.000000269,0.000000000,-0.000000000,-0.000000000,-1.668314835,0.753191675,0.000000156,-0.000000000,-0.000000000,0.000000000,-0.345938035,0.303470499,0.000000000,0.000000000,0.000000000,0.000000085,-0.000000000,-0.000000000,0.000000000,5.343257622,0.352696990,0.000000073,-0.000000000,-0.000000000,-0.000000000,5.091662991,0.018233048,0.000000000,0.000000000,0.000000000,0.000000000,0.000000000,0.000000000,9.100000000
1743536067.974135,-0.000000262,0.000000000,-0.000000000,-0.000000000,-1.660778883,0.753921693,0.000000158,-0.000000000,-0.000000000,0.000000000,-0.342907695,0.302675459,0.000000000,0.000000000,0.000000000,0.000000086,-0.000000000,-0.000000000,0.000000000,5.346773099,0.350608750,0.000000073,-0.000000000,-0.000000000,-0.000000000,5.091835007,0.016357607,0.000000000,0.000000000,0.000000000,0.000000000,0.000000000,0.000000000,9.110000000
1743536067.984164,-0.000000255,0.000000000,-0.000000000,-0.000000000,-1.653235765,0.754627114,0.000000159,-0.000000000,-0.000000000,0.000000000,-0.339885359,0.301870603,0.000000000,0.000000000,0.000000000,0.000000088,-0.000000000,-0.000000000,0.000000000,5.350267744,0.348529665,0.000000073,-0.000000000,-0.000000000,-0.000000000,5.091988270,0.014482619,0.000000000,0.000000000,0.000000000,0.000000000,0.000000000,0.000000000,9.120000000
1743536067.994941,-0.000000248,0.000000000,-0.000000000,-0.000000000,-1.645685730,0.755307877,0.000000160,-0.000000000,-0.000000000,0.000000000,-0.336871125,0.301055964,0.000000000,0.000000000,0.000000000,0.000000089,-0.000000000,-0.000000000,0.000000000,5.353741648,0.346459704,0.000000073,-0.000000000,-0.000000000,-0.000000000,5.092122785,0.012608031,0.000000000,0.000000000,0.000000000,0.000000000,0.000000000,0.000000000,9.130000000
1743536068.005277,-0.000000240,0.000000000,-0.000000000,-0.000000000,-1.638129022,0.755963920,0.000000161,-0.000000000,-0.000000000,0.000000000,-0.333865092,0.300231576,0.000000000,0.000000000,0.000000000,0.000000090,-0.000000000,-0.000000000,0.000000000,5.357194903,0.344398840,0.000000074,-0.000000000,-0.000000000,-0.000000000,5.092238557,0.010733791,0.000000000,0.000000000,0.000000000,0.000000000,0.000000000,0.000000000,9.140000000
1743536068.015558,-0.000000233,0.000000000,-0.000000000,-0.000000000,-1.630565891,0.756595184,0.000000162,-0.000000000,-0.000000000,0.000000000,-0.330867355,0.299397473,0.000000000,0.000000000,0.000000000,0.000000091,-0.000000000,-0.000000000,0.000000000,5.360627599,0.342347041,0.000000074,-0.000000000,-0.000000000,-0.000000000,5.092335588,0.008859849,0.000000000,0.000000000,0.000000000,0.000000000,0.000000000,0.000000000,9.150000000
1743536068.025435,-0.000000226,0.000000000,-0.000000000,-0.000000000,-1.622996583,0.757201612,0.000000163,-0.000000000,-0.000000000,0.000000000,-0.327878014,0.298553689,0.000000000,0.000000000,0.000000000,0.000000092,-0.000000000,-0.000000000,0.000000000,5.364039827,0.340304279,0.000000074,-0.000000000,-0.000000000,-0.000000000,5.092413881,0.006986151,0.000000000,0.000000000,0.000000000,0.000000000,0.000000000,0.000000000,9.160000000
1743536068.036277,-0.000000219,0.000000000,-0.000000000,0.000000000,-1.615421348,0.757783150,0.000000164,-0.000000000,-0.000000000,0.000000000,-0.324897163,0.297700259,0.000000000,0.000000000,0.000000000,0.000000093,-0.000000000,-0.000000000,0.000000000,5.367431677,0.338270524,0.000000074,-0.000000000,-0.000000000,-0.000000000,5.092473438,0.005112647,0.000000000,0.000000000,0.000000000,0.000000000,0.000000000,0.000000000,9.170000000
1743536068.046530,-0.000000211,0.000000000,-0.000000000,-0.000000000,-1.607840435,0.758339744,0.000000166,-0.000000000,-0.000000000,0.000000000,-0.321924899,0.296837219,0.000000000,0.000000000,0.000000000,0.000000094,-0.000000000,-0.000000000,0.000000000,5.370803238,0.336245743,0.000000074,-0.000000000,-0.000000000,-0.000000000,5.092514261,0.003239284,0.000000000,0.000000000,0.000000000,0.000000000,0.000000000,0.000000000,9.180000000
1743536068.056950,-0.000000204,0.000000000,-0.000000000,0.000000000,-1.600254093,0.758871346,0.000000167,-0.000000000,-0.000000000,0.000000000,-0.318961318,0.295964604,0.000000000,0.000000000,0.000000000,0.000000094,-0.000000000,-0.000000000,0.000000000,5.374154601,0.334229908,0.000000074,-0.000000000,-0.000000000,-0.000000000,5.092536351,0.001366010,0.000000000,0.000000000,0.000000000,0.000000000,0.000000000,0.000000000,9.190000000
1743536068.067347,-0.000000197,0.000000000,-0.000000000,0.000000000,-1.592662572,0.759377906,0.000000168,-0.000000000,-0.000000000,0.000000000,-0.316006516,0.295082449,0.000000000,0.000000000,0.000000000,0.000000095,-0.000000000,-0.000000000,0.000000000,5.377485855,0.332222987,0.000000074,-0.000000000,-0.000000000,0.000000000,5.092539708,-0.000507225,0.000000000,0.000000000,0.000000000,0.000000000,0.000000000,0.000000000,9.200000000
1743536068.077530,-0.000000189,0.000000000,-0.000000000,-0.000000000,-1.585066125,0.759859378,0.000000169,-0.000000000,-0.000000000,0.000000000,-0.313060588,0.294190791,0.000000000,0.000000000,0.000000000,0.000000096,-0.000000000,-0.000000000,0.000000000,5.380797088,0.330224948,0.000000074,-0.000000000,-0.000000000,0.000000000,5.092524333,-0.002380475,0.000000000,0.000000000,0.000000000,0.000000000,0.000000000,0.000000000,9.210000000
1743536068.087901,-0.000000182,0.000000000,-0.000000000,0.000000000,-1.577465000,0.760315720,0.000000170,-0.000000000,-0.000000000,0.000000000,-0.310123628,0.293289667,0.000000000,0.000000000,0.000000000,0.000000097,-0.000000000,-0.000000000,0.000000000,5.384088390,0.328235760,0.000000074,-0.000000000,-0.000000000,-0.000000000,5.092490225,-0.004253790,0.000000000,0.000000000,0.000000000,0.000000000,0.000000000,0.000000000,9.220000000
1743536068.098147,-0.000000174,0.000000000,-0.000000000,0.000000000,-1.569859451,0.760746889,0.000000171,-0.000000000,-0.000000000,0.000000000,-0.307195732,0.292379112,0.000000000,0.000000000,0.000000000,0.000000098,-0.000000000,-0.000000000,0.000000000,5.387359848,0.326255391,0.000000074,-0.000000000,-0.000000000,0.000000000,5.092437384,-0.006127224,0.000000000,0.000000000,0.000000000,0.000000000,0.000000000,0.000000000,9.229000000
1743536068.108568,-0.000000166,0.000000000,-0.000000000,0.000000000,-1.562249728,0.761152847,0.000000172,-0.000000000,-0.000000000,0.000000000,-0.304276993,0.291459165,0.000000000,0.000000000,0.000000000,0.000000099,-0.000000000,-0.000000000,0.000000000,5.390611551,0.324283810,0.000000074,-0.000000000,-0.000000000,-0.000000000,5.092365807,-0.008000826,0.000000000,0.000000000,0.000000000,0.000000000,0.000000000,0.000000000,9.240000000
1743536068.118831,-0.000000159,0.000000000,-0.000000000,-0.000000000,-1.554636085,0.761533556,0.000000173,-0.000000000,-0.000000000,0.000000000,-0.301367505,0.290529861,0.000000000,0.000000000,0.000000000,0.000000099,-0.000000000,-0.000000000,0.000000000,5.393843587,0.322320983,0.000000074,-0.000000000,-0.000000000,0.000000000,5.092275493,-0.009874650,0.000000000,0.000000000,0.000000000,0.000000000,0.000000000,0.000000000,9.250000000
1743536068.129315,-0.000000151,0.000000000,-0.000000000,-0.000000000,-1.547018774,0.761888981,0.000000174,-0.000000000,-0.000000000,0.000000000,-0.298467361,0.289591241,0.000000000,0.000000000,0.000000000,0.000000100,-0.000000000,-0.000000000,0.000000000,5.397056042,0.320366878,0.000000074,-0.000000000,-0.000000000,0.000000000,5.092166439,-0.011748747,0.000000000,0.000000000,0.000000000,0.000000000,0.000000000,0.000000000,9.260000000
1743536068.139261,-0.000000143,0.000000000,-0.000000000,-0.000000000,-1.539398047,0.762219091,0.000000175,-0.000000000,-0.000000000,0.000000000,-0.295576654,0.288643340,0.000000000,0.000000000,0.000000000,0.000000101,-0.000000000,-0.000000000,-0.000000000,5.400249004,0.318421463,0.000000073,-0.000000000,-0.000000000,-0.000000000,5.092038642,-0.013623169,0.000000000,0.000000000,0.000000000,0.000000000,0.000000000,0.000000000,9.270000000
1743536068.150096,-0.000000136,0.000000000,-0.000000000,-0.000000000,-1.531774159,0.762523855,0.000000176,-0.000000000,-0.000000000,0.000000000,-0.292695477,0.287686197,0.000000000,0.000000000,0.000000000,0.000000102,-0.000000000,-0.000000000,0.000000000,5.403422559,0.316484704,0.000000073,-0.000000000,-0.000000000,0.000000000,5.091892100,-0.015497967,0.000000000,0.000000000,0.000000000,0.000000000,0.000000000,0.000000000,9.280000000
1743536068.160330,-0.000000128,0.000000000,-0.000000000,0.000000000,-1.524147363,0.762803245,0.000000177,-0.000000000,-0.000000000,0.000000000,-0.289823923,0.286719852,0.000000000,0.000000000,0.000000000,0.000000102,-0.000000000,-0.000000000,0.000000000,5.406576794,0.314556569,0.000000073,-0.000000000,-0.000000000,-0.000000000,5.091726807,-0.017373194,0.000000000,0.000000000,0.000000000,0.000000000,0.000000000,0.000000000,9.290000000
1743536068.170759,-0.000000120,0.000000000,-0.000000000,-0.000000000,-1.516517913,0.763057236,0.000000178,-0.000000000,-0.000000000,0.000000000,-0.286962082,0.285744342,0.000000000,0.000000000,0.000000000,0.000000103,-0.000000000,-0.000000000,0.000000000,5.409711795,0.312637024,0.000000073,-0.000000000,0.000000000,-0.000000000,5.091542759,-0.019248901,0.000000000,0.000000000,0.000000000,0.000000000,0.000000000,0.000000000,9.300000000
1743536068.180686,-0.000000112,0.000000000,-0.000000000,-0.000000000,-1.508886062,0.763285804,0.000000179,-0.000000000,-0.000000000,0.000000000,-0.284110047,0.284759708,0.000000000,0.000000000,0.000000000,0.000000104,-0.000000000,-0.000000000,0.000000000,5.412827648,0.310726035,0.000000073,-0.000000000,0.000000000,-0.000000000,5.091339951,-0.021125140,0.000000000,0.000000000,0.000000000,0.000000000,0.000000000,0.000000000,9.309000000
1743536068.190942,-0.000000105,0.000000000,-0.000000000,-0.000000000,-1.501252066,0.763488929,0.000000180,-0.000000000,-0.000000000,0.000000000,-0.281267907,0.283765987,0.000000000,0.000000000,0.000000000,0.000000104,-0.000000000,-0.000000000,0.000000000,5.415924438,0.308823568,0.000000073,-0.000000000,0.000000000,-0.000000000,5.091118377,-0.023001963,0.000000000,0.000000000,0.000000000,0.000000000,0.000000000,0.000000000,9.320000000
1743536068.202301,-0.000000097,0.000000000,-0.000000000,-0.000000000,-1.493616179,0.763666591,0.000000181,-0.000000000,-0.000000000,0.000000000,-0.278435755,0.282763221,0.000000000,0.000000000,0.000000000,0.000000105,-0.000000000,-0.000000000,0.000000000,5.419002250,0.306929590,0.000000073,-0.000000000,0.000000000,-0.000000000,5.090878032,-0.024879422,0.000000000,0.000000000,0.000000000,0.000000000,0.000000000,0.000000000,9.330000000
1743536068.212558,-0.000000089,0.000000000,-0.000000000,-0.000000000,-1.485978655,0.763818776,0.000000182,-0.000000000,-0.000000000,0.000000000,-0.275613680,0.281751450,0.000000000,0.000000000,0.000000000,0.000000105,-0.000000000,-0.000000000,0.000000000,5.422061168,0.305044067,0.000000073,-0.000000000,0.000000000,-0.000000000,5.090618909,-0.026757567,0.000000000,0.000000000,0.000000000,0.000000000,0.000000000,0.000000000,9.340000000
1743536068.222553,-0.000000081,0.000000000,-0.000000000,-0.000000000,-1.478339749,0.763945468,0.000000183,-0.000000000,-0.000000000,0.000000000,-0.272801773,0.280730712,0.000000000,0.000000000,0.000000000,0.000000106,-0.000000000,-0.000000000,0.000000000,5.425101278,0.303166963,0.000000073,-0.000000000,0.000000000,-0.000000000,5.090341000,-0.028636452,0.000000000,0.000000000,0.000000000,0.000000000,0.000000000,0.000000000,9.350000000
1743536068.232774,-0.000000073,0.000000000,-0.000000000,0.000000000,-1.470699717,0.764046656,0.000000184,-0.000000000,-0.000000000,-0.000000000,-0.270000121,0.279701050,0.000000000,0.000000000,0.000000000,0.000000107,-0.000000000,-0.000000000,-0.000000000,5.428122663,0.301298245,0.000000073,-0.000000000,0.000000000,-0.000000000,5.090044298,-0.030516128,0.000000000,0.000000000,0.000000000,0.000000000,0.000000000,0.000000000,9.360000000
1743536068.243124,-0.000000065,0.000000000,-0.000000000,-0.000000000,-1.463058813,0.764122330,0.000000184,-0.000000000,-0.000000000,-0.000000000,-0.267208816,0.278662504,0.000000000,0.000000000,0.000000000,0.000000107,-0.000000000,-0.000000000,0.000000000,5.431125406,0.299437878,0.000000073,-0.000000000,0.000000000,-0.000000000,5.089728794,-0.032396647,0.000000000,0.000000000,0.000000000,0.000000000,0.000000000,0.000000000,9.370000000
1743536068.254216,-0.000000057,0.000000000,-0.000000000,0.000000000,-1.455417293,0.764172485,0.000000185,-0.000000000,-0.000000000,0.000000000,-0.264427944,0.277615114,0.000000000,0.000000000,0.000000000,0.000000108,-0.000000000,-0.000000000,0.000000000,5.434109592,0.297585827,0.000000073,-0.000000000,0.000000000,-0.000000000,5.089394481,-0.034278059,0.000000000,0.000000000,0.000000000,0.000000000,0.000000000,0.000000000,9.380000000
1743536068.265516,-0.000000050,0.000000000,-0.000000000,-0.000000000,-1.447775412,0.764197115,0.000000186,-0.000000000,-0.000000000,0.000000000,-0.261657595,0.276558922,0.000000000,0.000000000,0.000000000,0.000000108,-0.000000000,-0.000000000,-0.000000000,5.437075302,0.295742057,0.000000073,-0.000000000,0.000000000,-0.000000000,5.089041348,-0.036160418,0.000000000,0.000000000,0.000000000,0.000000000,0.000000000,0.000000000,9.390000000
1743536068.275841,-0.000000042,0.000000000,-0.000000000,0.000000000,-1.440133424,0.764196217,0.000000187,-0.000000000,-0.000000000,0.000000000,-0.258897855,0.275493971,0.000000000,0.000000000,0.000000000,0.000000108,-0.000000000,-0.000000000,0.000000000,5.440022621,0.293906533,0.000000073,-0.000000000,0.000000000,-0.000000000,5.088669386,-0.038043774,0.000000000,0.000000000,0.000000000,0.000000000,0.000000000,0.000000000,9.400000000
1743536068.286317,-0.000000034,0.000000000,-0.000000000,0.000000000,-1.432491586,0.764169793,0.000000188,-0.000000000,-0.000000000,0.000000000,-0.256148814,0.274420300,0.000000000,0.000000000,0.000000000,0.000000109,-0.000000000,-0.000000000,0.000000000,5.442951629,0.292079220,0.000000073,-0.000000000,0.000000000,-0.000000000,5.088278585,-0.039928180,0.000000000,0.000000000,0.000000000,0.000000000,0.000000000,0.000000000,9.410000000
1743536068.296567,-0.000000026,0.000000000,-0.000000000,0.000000000,-1.424850153,0.764117844,0.000000189,-0.000000000,-0.000000000,0.000000000,-0.253410556,0.273337954,0.000000000,0.000000000,0.000000000,0.000000109,-0.000000000,-0.000000000,0.000000000,5.445862409,0.290260082,0.000000073,-0.000000000,0.000000000,-0.000000000,5.087868934,-0.041813687,0.000000000,0.000000000,0.000000000,0.000000000,0.000000000,0.000000000,9.420000000
1743536068.306404,-0.000476704,0.000000000,0.000000000,0.500000000,-1.393791039,5.021909761,-0.000446183,0.000000000,0.000000000,0.500000000,-0.227264826,4.530117707,0.000000000,0.000000000,0.000000000,-0.000418196,0.000000000,0.000000000,0.500000000,5.472173513,4.546361750,-0.000409753,0.000000000,0.000000000,0.500000000,5.110858891,4.214211956,0.000000000,0.000000000,0.000000000,0.000000000,0.000000000,0.000000000,9.430000000
1743536068.317769,0.000002705,0.000000000,-0.000000000,0.000000000,-1.343573151,5.021664779,0.000009137,0.000000000,-0.000000000,0.000000000,-0.181970313,4.528884972,0.000000000,0.000000000,0.000000000,-0.000011143,0.000000000,-0.000000000,0.000000000,5.517627775,4.544680335,-0.000010192,0.000000000,-0.000000000,-0.000000000,5.152991184,4.212443237,0.000000000,0.000000000,0.000000000,0.000000000,0.000000000,0.000000000,9.440000000
1743536068.327889,0.000004138,0.000000000,-0.000000000,0.000000000,-1.293358631,5.021252900,0.000010097,0.000000000,-0.000000000,0.000000000,-0.136688895,4.527512958,0.000000000,0.000000000,0.000000000,-0.000010210,0.000000000,-0.000000000,-0.000000000,5.563065950,4.543131773,-0.000009461,0.000000000,-0.000000000,-0.000000000,5.195106452,4.210795409,0.000000000,0.000000000,0.000000000,0.000000000,0.000000000,0.000000000,9.450000000
1743536068.337930,0.000005560,0.000000000,-0.000000000,0.000000000,-1.243149144,5.020675178,0.000011034,0.000000000,-0.000000000,0.000000000,-0.091421951,4.526004518,0.000000000,0.000000000,0.000000000,-0.000009259,0.000000000,-0.000000000,0.000000000,5.608489385,4.541719215,-0.000008716,0.000000000,-0.000000000,-0.000000000,5.237205921,4.209271348,0.000000000,0.000000000,0.000000000,0.000000000,0.000000000,0.000000000,9.460000000
1743536068.348557,0.000006965,0.000000000,-0.000000000,-0.000000000,-1.192946339,5.019933086,0.000011945,0.000000000,-0.000000000,0.000000000,-0.046170827,4.524362788,0.000000000,0.000000000,0.000000000,-0.000008292,0.000000000,-0.000000000,-0.000000000,5.653899456,4.540445535,-0.000007959,0.000000000,-0.000000000,0.000000000,5.279290842,4.207873708,0.000000000,0.000000000,0.000000000,0.000000000,0.000000000,0.000000000,9.470000000
1743536068.358878,0.000008351,0.000000000,-0.000000000,0.000000000,-1.142751850,5.019028519,0.000012828,0.000000000,-0.000000000,0.000000000,-0.000936837,4.522591177,0.000000000,0.000000000,0.000000000,-0.000007311,0.000000000,-0.000000000,-0.000000000,5.699297567,4.539313317,-0.000007190,0.000000000,-0.000000000,-0.000000000,5.321362493,4.206604924,0.000000000,0.000000000,0.000000000,0.000000000,0.000000000,0.000000000,9.480000000
1743536068.369417,0.000009713,0.000000000,-0.000000000,-0.000000000,-1.092567289,5.017963786,0.000013682,0.000000000,-0.000000000,0.000000000,0.044278739,4.520693359,0.000000000,0.000000000,0.000000000,-0.000006316,0.000000000,-0.000000000,0.000000000,5.744685144,4.538324860,-0.000006411,0.000000000,-0.000000000,-0.000000000,5.363422176,4.205467200,0.000000000,0.000000000,0.000000000,0.000000000,0.000000000,0.000000000,9.490000000
1743536068.380211,0.000011047,0.000000000,-0.000000000,-0.000000000,-1.042394245,5.016741599,0.000014504,0.000000000,-0.000000000,-0.000000000,0.089474662,4.518673267,0.000000000,0.000000000,0.000000000,-0.000005311,0.000000000,-0.000000000,0.000000000,5.790063637,4.537482168,-0.000005623,0.000000000,-0.000000000,-0.000000000,5.405471212,4.204462515,0.000000000,0.000000000,0.000000000,0.000000000,0.000000000,0.000000000,9.500000000
1743536068.389874,0.000012350,0.000000000,-0.000000000,0.000000000,-0.992234274,5.015365074,0.000015293,0.000000000,-0.000000000,0.000000000,0.134649730,4.516535079,0.000000000,0.000000000,0.000000000,-0.000004297,0.000000000,-0.000000000,0.000000000,5.835434512,4.536786950,-0.000004827,0.000000000,-0.000000000,-0.000000000,5.447510941,4.203592612,0.000000000,0.000000000,0.000000000,0.000000000,0.000000000,0.000000000,9.510000000
1743536068.400973,0.000013618,0.000000000,-0.000000000,0.000000000,-0.942088901,5.013837714,0.000016047,0.000000000,-0.000000000,0.000000000,0.179802787,4.514283213,0.000000000,0.000000000,0.000000000,-0.000003275,0.000000000,-0.000000000,0.000000000,5.880799254,4.536240612,-0.000004024,0.000000000,-0.000000000,-0.000000000,5.489542719,4.202859000,0.000000000,0.000000000,0.000000000,0.000000000,0.000000000,0.000000000,9.520000000
1743536068.411255,0.000014848,0.000000000,-0.000000000,-0.000000000,-0.891959613,5.012163406,0.000016764,0.000000000,-0.000000000,0.000000000,0.224932723,4.511922316,0.000000000,0.000000000,0.000000000,-0.000002248,0.000000000,-0.000000000,0.000000000,5.926159356,4.535844263,-0.000003216,0.000000000,-0.000000000,-0.000000000,5.531567917,4.202262951,0.000000000,0.000000000,0.000000000,0.000000000,0.000000000,0.000000000,9.530000000
1743536068.421770,0.000016036,0.000000000,-0.000000000,0.000000000,-0.841847856,5.010346403,0.000017444,0.000000000,-0.000000000,0.000000000,0.270038472,4.509457251,0.000000000,0.000000000,0.000000000,-0.000001216,0.000000000,-0.000000000,-0.000000000,5.971516323,4.535598703,-0.000002403,0.000000000,-0.000000000,-0.000000000,5.573587915,4.201805499,0.000000000,0.000000000,0.000000000,0.000000000,0.000000000,0.000000000,9.540000000
1743536068.432532,0.000017179,0.000000000,-0.000000000,0.000000000,-0.791755033,5.008391319,0.000018085,0.000000000,-0.000000000,0.000000000,0.315119021,4.506893087,0.000000000,0.000000000,0.000000000,-0.000000183,0.000000000,-0.000000000,-0.000000000,6.016871667,4.535504430,-0.000001586,0.000000000,-0.000000000,-0.000000000,5.615604106,4.201487436,0.000000000,0.000000000,0.000000000,0.000000000,0.000000000,0.000000000,9.550000000
1743536068.442338,0.000018275,0.000000000,-0.000000000,0.000000000,-0.741682498,5.006303112,0.000018685,0.000000000,-0.000000000,-0.000000000,0.360173408,4.504235091,0.000000000,0.000000000,0.000000000,0.000000851,0.000000000,-0.000000000,-0.000000000,6.062226901,4.535561634,-0.000000768,0.000000000,-0.000000000,-0.000000000,5.657617885,4.201309313,0.000000000,0.000000000,0.000000000,0.000000000,0.000000000,0.000000000,9.560000000
1743536068.453639,0.000019320,0.000000000,-0.000000000,0.000000000,-0.691631551,5.004087070,0.000019244,-0.000000000,-0.000000000,0.000000000,0.405200724,4.501488710,0.000000000,0.000000000,0.000000000,0.000001883,0.000000000,-0.000000000,0.000000000,6.107583540,4.535770200,0.000000051,0.000000000,-0.000000000,0.000000000,5.699630654,4.201271438,0.000000000,0.000000000,0.000000000,0.000000000,0.000000000,0.000000000,9.570000000
1743536068.464526,0.000020312,-0.000000000,-0.000000000,0.000000000,-0.641603443,5.001748800,0.000019760,-0.000000000,-0.000000000,0.000000000,0.450200117,4.498659564,0.000000000,0.000000000,0.000000000,0.000002911,0.000000000,-0.000000000,-0.000000000,6.152943095,4.536129706,0.000000870,0.000000000,-0.000000000,0.000000000,5.741643816,4.201373877,0.000000000,0.000000000,0.000000000,0.000000000,0.000000000,0.000000000,9.580000000
1743536068.473896,0.000021249,-0.000000000,-0.000000000,-0.000000000,-0.591599362,4.999294208,0.000020233,-0.000000000,-0.000000000,0.000000000,0.495170790,4.495753432,0.000000000,0.000000000,0.000000000,0.000003935,0.000000000,-0.000000000,0.000000000,6.198307072,4.536639424,0.000001688,0.000000000,-0.000000000,0.000000000,5.783658773,4.201616452,0.000000000,0.000000000,0.000000000,0.000000000,0.000000000,0.000000000,9.590000000
1743536068.484274,0.000022127,-0.000000000,-0.000000000,0.000000000,-0.541620437,4.996729486,0.000020663,-0.000000000,-0.000000000,0.000000000,0.540112006,4.492776238,0.000000000,0.000000000,0.000000000,0.000004952,0.000000000,-0.000000000,0.000000000,6.243676967,4.537298322,0.000002503,0.000000000,-0.000000000,0.000000000,5.825676926,4.201998744,0.000000000,0.000000000,0.000000000,0.000000000,0.000000000,0.000000000,9.600000000
